resources/luts/bleach-bypass.cube
TITLE "Bleach Bypass"
LUT_3D_SIZE 9
0.047426 0.047426 0.047426
0.074762 0.050775 0.050775
0.115936 0.054347 0.054347
0.175485 0.058154 0.058154
0.256738 0.062211 0.062211
0.359223 0.066531 0.066531
0.476396 0.071128 0.071128
0.596227 0.076017 0.076017
0.705581 0.081213 0.081213
0.059602 0.087375 0.059602
0.093268 0.093268 0.063753
0.143059 0.099516 0.068172
0.213180 0.106133 0.072874
0.305422 0.113135 0.077873
0.416452 0.120537 0.083184
0.536658 0.128352 0.088822
0.652750 0.136596 0.094803
0.753134 0.145281 0.101142
0.074658 0.155481 0.074658
0.115783 0.165138 0.079769
0.175269 0.175269 0.085198
0.256454 0.185884 0.090959
0.358880 0.196988 0.097068
0.476024 0.208585 0.103542
0.595867 0.220677 0.110394
0.705271 0.233264 0.117640
0.795236 0.246342 0.125295
0.093142 0.261467 0.093142
0.142876 0.275557 0.099382
0.212930 0.290109 0.105992
0.305105 0.305105 0.112985
0.416089 0.320527 0.120379
0.536287 0.336351 0.128186
0.652411 0.352551 0.136420
0.752857 0.369097 0.145096
0.831761 0.385957 0.154225
0.115630 0.405047 0.115630
0.175053 0.422449 0.123172
0.256169 0.440046 0.131133
0.358536 0.457795 0.139527
0.475652 0.475652 0.148367
0.595508 0.493571 0.157663
0.704961 0.511507 0.167428
0.794993 0.529413 0.177670
0.862894 0.547244 0.188397
0.142693 0.566946 0.142693
0.212680 0.584470 0.151698
0.304789 0.601784 0.161164
0.415726 0.618847 0.171101
0.535916 0.635621 0.181519
0.652073 0.652073 0.192424
0.752579 0.668169 0.203820
0.831552 0.683881 0.215712
0.889035 0.699185 0.228098
0.174838 0.715710 0.174838
0.255885 0.730081 0.185432
0.358193 0.743985 0.196516
0.475280 0.757411 0.208092
0.595148 0.770350 0.220164
0.704650 0.782797 0.232730
0.794749 0.794749 0.245788
0.862718 0.806207 0.259330
0.910707 0.817171 0.273348
0.212430 0.828802 0.212430
0.304473 0.838744 0.224682
0.415364 0.848214 0.237428
0.535544 0.857223 0.250662
0.651734 0.865782 0.264379
0.752301 0.873904 0.278568
0.831343 0.881601 0.293214
0.888888 0.888888 0.308301
0.928487 0.895779 0.323809
0.255601 0.903002 0.255601
0.357850 0.909108 0.269491
0.474907 0.914866 0.283848
0.594789 0.920290 0.298657
0.704340 0.925398 0.313900
0.794506 0.930202 0.329555
0.862541 0.934720 0.345598
0.910586 0.938964 0.362000
0.942949 0.942949 0.378731
0.048539 0.048539 0.071549
0.076465 0.051962 0.076465
0.118457 0.055613 0.081688
0.179039 0.059503 0.087235
0.261416 0.063648 0.093120
0.364851 0.068061 0.099359
0.482478 0.072755 0.105967
0.602079 0.077747 0.112959
0.710618 0.083050 0.120351
0.060982 0.089337 0.089337
0.095349 0.095349 0.095349
0.146072 0.101721 0.101721
0.217296 0.108467 0.108467
0.310616 0.115603 0.115603
0.422385 0.123144 0.123144
0.542711 0.131103 0.131103
0.658252 0.139496 0.139496
0.757637 0.148333 0.148333
0.076359 0.158708 0.111019
0.118301 0.168525 0.118301
0.178819 0.178819 0.125992
0.261128 0.189599 0.134108
0.364505 0.200871 0.142661
0.482105 0.212636 0.151664
0.601721 0.224896 0.161128
0.710311 0.237650 0.171064
0.799175 0.250894 0.181480
0.095221 0.266199 0.137170
0.145886 0.280448 0.145886
0.217042 0.295153 0.155056
0.310296 0.310296 0.164690
0.422021 0.325857 0.174800
0.542341 0.341812 0.185393
0.657916 0.358133 0.196474
0.757363 0.374789 0.208049
0.835143 0.391748 0.220119
0.118145 0.410932 0.168316
0.178600 0.428405 0.178600
0.260840 0.446059 0.189370
0.364160 0.463849 0.200631
0.481733 0.481733 0.212386
0.601364 0.499663 0.224636
0.710004 0.517593 0.237380
0.798936 0.535479 0.250613
0.865752 0.553274 0.264328
0.145700 0.572918 0.204853
0.216789 0.590376 0.216789
0.309977 0.607609 0.229219
0.421657 0.624578 0.242141
0.541970 0.641246 0.255551
0.657580 0.657580 0.269439
0.757088 0.673549 0.283794
0.834938 0.689126 0.298602
0.891416 0.704285 0.313843
0.178381 0.720642 0.246967
0.260552 0.734856 0.260552
0.363814 0.748599 0.274612
0.481360 0.761860 0.289134
0.601006 0.774633 0.304101
0.709696 0.786912 0.319496
0.798696 0.798696 0.335294
0.865578 0.809985 0.351470
0.912669 0.820784 0.367994
0.216535 0.832232 0.294532
0.309658 0.842013 0.309658
0.421293 0.851325 0.325202
0.541600 0.860180 0.341141
0.657244 0.868589 0.357447
0.756814 0.876564 0.374090
0.834732 0.884120 0.391036
0.891271 0.891271 0.408250
0.930088 0.898032 0.425691
0.260265 0.905116 0.347036
0.363469 0.911102 0.363469
0.480987 0.916744 0.380226
0.600648 0.922060 0.397274
0.709389 0.927062 0.414575
0.798456 0.931768 0.432090
0.865404 0.936191 0.449776
0.912550 0.940345 0.467589
0.944245 0.944245 0.485486
0.049677 0.049677 0.106570
0.078203 0.053176 0.113597
0.121025 0.056906 0.121025
0.182648 0.060882 0.128868
0.266148 0.065116 0.137139
0.370516 0.069623 0.145853
0.488564 0.074416 0.155021
0.607902 0.079512 0.164654
0.715603 0.084924 0.174762
0.062393 0.091340 0.131829
0.097472 0.097472 0.140260
0.149138 0.103969 0.149138
0.221469 0.110846 0.158474
0.315858 0.118118 0.168279
0.428341 0.125799 0.178562
0.548752 0.133904 0.189330
0.663712 0.142446 0.200589
0.762083 0.151438 0.212342
0.078096 0.161989 0.161989
0.120866 0.171967 0.171967
0.182426 0.182426 0.182426
0.265857 0.193372 0.193372
0.370168 0.204811 0.204811
0.488192 0.216744 0.216744
0.607546 0.229172 0.229172
0.715299 0.242093 0.242093
0.803058 0.255501 0.255501
0.097341 0.270986 0.197479
0.148948 0.285392 0.209098
0.221212 0.300247 0.221212
0.315535 0.315535 0.233820
0.427976 0.331233 0.246919
0.548383 0.347315 0.260502
0.663379 0.363753 0.274560
0.761813 0.380516 0.289080
0.838471 0.397569 0.304046
0.120708 0.416843 0.238532
0.182203 0.434383 0.251808
0.265565 0.452087 0.265565
0.369820 0.469915 0.279793
0.487819 0.487819 0.294478
0.607190 0.505754 0.309602
0.714995 0.523675 0.325144
0.802821 0.541535 0.341082
0.868559 0.559289 0.357387
0.148759 0.578870 0.285087
0.220955 0.596256 0.299934
0.315213 0.613403 0.315213
0.427610 0.630274 0.330902
0.548013 0.646833 0.346977
0.663046 0.663046 0.363408
0.761542 0.678884 0.380165
0.838269 0.694322 0.397212
0.893752 0.709335 0.414512
0.181981 0.725521 0.336711
0.265274 0.739576 0.352919
0.369473 0.753157 0.369473
0.487446 0.766253 0.386339
0.606834 0.778858 0.403483
0.714691 0.790969 0.420865
0.802585 0.802585 0.438446
0.868388 0.813707 0.456183
0.914592 0.824340 0.474032
0.220698 0.835607 0.392550
0.314891 0.845227 0.409785
0.427245 0.854383 0.427245
0.547643 0.863085 0.444888
0.662712 0.871345 0.462671
0.761270 0.879177 0.480549
0.838066 0.886594 0.498478
0.893610 0.893610 0.516410
0.931656 0.900242 0.534300
0.264984 0.907188 0.451348
0.369125 0.913056 0.469171
0.487073 0.918585 0.487073
0.606478 0.923793 0.505008
0.714387 0.928693 0.522930
0.802348 0.933301 0.540793
0.868218 0.937631 0.558553
0.914475 0.941698 0.576163
0.945515 0.945515 0.593582
0.050840 0.050840 0.155855
0.079978 0.054416 0.165530
0.123641 0.058228 0.175680
0.186314 0.062290 0.186314
0.270934 0.066615 0.197438
0.376217 0.071218 0.209054
0.494655 0.076112 0.221166
0.613695 0.081314 0.233773
0.720536 0.086837 0.246870
0.063833 0.093382 0.190307
0.099637 0.099637 0.201610
0.152256 0.106261 0.213407
0.225699 0.113271 0.225699
0.321147 0.120680 0.238484
0.434318 0.128504 0.251759
0.554779 0.136756 0.265514
0.669129 0.145449 0.279740
0.766473 0.154596 0.294423
0.079868 0.165324 0.230297
0.123479 0.175464 0.243261
0.186088 0.186088 0.256711
0.270640 0.197201 0.270640
0.375867 0.208808 0.285034
0.494281 0.220909 0.299879
0.613341 0.233505 0.315156
0.720235 0.246592 0.330844
0.806883 0.260164 0.346917
0.099503 0.275827 0.275827
0.152064 0.290387 0.290387
0.225438 0.305392 0.305392
0.320821 0.320821 0.320821
0.433951 0.336653 0.336653
0.554410 0.352859 0.352859
0.668799 0.369411 0.369411
0.766206 0.386277 0.386277
0.841744 0.403419 0.403419
0.123318 0.422779 0.326540
0.185862 0.440379 0.342511
0.270345 0.458130 0.358847
0.375517 0.475988 0.375517
0.493908 0.493908 0.392488
0.612987 0.511844 0.409722
0.719935 0.529749 0.427181
0.806650 0.547578 0.444823
0.871316 0.565286 0.462606
0.151871 0.584798 0.381663
0.225177 0.602108 0.398733
0.320496 0.619165 0.416054
0.433585 0.635934 0.433585
0.554041 0.652379 0.451283
0.668468 0.668468 0.469106
0.765938 0.684173 0.487007
0.841545 0.699469 0.504942
0.896044 0.714333 0.522865
0.185636 0.730347 0.440011
0.270051 0.744242 0.457760
0.375167 0.757659 0.475616
0.493535 0.770589 0.493535
0.612633 0.783027 0.511471
0.719634 0.794969 0.529377
0.806417 0.806417 0.547208
0.871148 0.817373 0.564919
0.916476 0.827841 0.582465
0.224917 0.838927 0.500066
0.320171 0.848388 0.517996
0.433218 0.857389 0.535880
0.553672 0.865939 0.553672
0.668137 0.874052 0.571328
0.765671 0.881741 0.588804
0.841346 0.889021 0.606059
0.895905 0.895905 0.623054
0.933192 0.902409 0.639751
0.269757 0.909220 0.560118
0.374817 0.914971 0.577714
0.493162 0.920389 0.595114
0.612279 0.925491 0.612279
0.719332 0.930290 0.629169
0.806184 0.934802 0.645749
0.870981 0.939041 0.661986
0.916362 0.943021 0.677850
0.946756 0.946756 0.693315
0.052029 0.052029 0.222262
0.081790 0.055684 0.234912
0.126306 0.059579 0.248053
0.190037 0.063729 0.261677
0.275774 0.068146 0.275774
0.381953 0.072846 0.290333
0.500746 0.077843 0.305336
0.619455 0.083153 0.320764
0.725416 0.088789 0.336594
0.065305 0.095466 0.266755
0.101844 0.101844 0.281022
0.155428 0.108598 0.295745
0.229986 0.115741 0.310905
0.326482 0.123290 0.326482
0.440314 0.131257 0.342452
0.560789 0.139658 0.358786
0.674502 0.148504 0.375456
0.770806 0.157808 0.392425
0.081678 0.168714 0.316529
0.126141 0.179018 0.332252
0.189807 0.189807 0.348358
0.275476 0.201087 0.364818
0.381601 0.212862 0.381601
0.500373 0.225132 0.398671
0.619104 0.237895 0.415990
0.725119 0.251147 0.433520
0.810652 0.264881 0.451218
0.101708 0.280721 0.370892
0.155232 0.295434 0.387784
0.229721 0.310585 0.404949
0.326154 0.326154 0.422350
0.439946 0.342116 0.439946
0.560421 0.358443 0.457695
0.674174 0.375106 0.475551
0.770543 0.392069 0.493470
0.844963 0.409298 0.511406
0.125977 0.428736 0.428736
0.189578 0.446392 0.446392
0.275179 0.464185 0.464185
0.381248 0.482070 0.482070
0.500000 0.500000 0.500000
0.618752 0.517930 0.517930
0.724821 0.535815 0.535815
0.810422 0.553608 0.553608
0.874023 0.571264 0.571264
0.155037 0.590702 0.488594
0.229457 0.607931 0.506530
0.325826 0.624894 0.524449
0.439579 0.641557 0.542305
0.560054 0.657884 0.560054
0.673846 0.673846 0.577650
0.770279 0.689415 0.595051
0.844768 0.704566 0.612216
0.898292 0.719279 0.629108
0.189348 0.735119 0.548782
0.274881 0.748853 0.566480
0.380896 0.762105 0.584010
0.499627 0.774868 0.601329
0.618399 0.787138 0.618399
0.724524 0.798913 0.635182
0.810193 0.810193 0.651642
0.873859 0.820982 0.667748
0.918322 0.831286 0.683471
0.229194 0.842192 0.607575
0.325498 0.851496 0.624544
0.439211 0.860342 0.641214
0.559686 0.868743 0.657548
0.673518 0.876710 0.673518
0.770014 0.884259 0.689095
0.844572 0.891402 0.704255
0.898156 0.898156 0.718978
0.934695 0.904534 0.733245
0.274584 0.911211 0.663406
0.380545 0.916847 0.679236
0.499254 0.922157 0.694664
0.618047 0.927154 0.709667
0.724226 0.931854 0.724226
0.809963 0.936271 0.738323
0.873694 0.940421 0.751947
0.918210 0.944316 0.765088
0.947971 0.947971 0.777738
0.053244 0.053244 0.306685
0.083638 0.056979 0.322150
0.129019 0.060959 0.338014
0.193816 0.065198 0.354251
0.280668 0.069710 0.370831
0.387721 0.074509 0.387721
0.506838 0.079611 0.404886
0.625183 0.085029 0.422286
0.730243 0.090780 0.439882
0.066808 0.097591 0.360249
0.104095 0.104095 0.376946
0.158654 0.110979 0.393941
0.234329 0.118259 0.411196
0.331863 0.125948 0.428672
0.446328 0.134061 0.446328
0.566782 0.142611 0.464120
0.679829 0.151612 0.482004
0.775083 0.161073 0.499934
0.083524 0.172159 0.417535
0.128852 0.182627 0.435081
0.193583 0.193583 0.452792
0.280366 0.205031 0.470623
0.387367 0.216973 0.488529
0.506465 0.229411 0.506465
0.624833 0.242341 0.524384
0.729949 0.255758 0.542240
0.814364 0.269653 0.559989
0.103956 0.285667 0.477135
0.158455 0.300531 0.495058
0.234062 0.315827 0.512993
0.331532 0.331532 0.530894
0.445959 0.347621 0.548717
0.566415 0.364066 0.566415
0.679504 0.380835 0.583946
0.774823 0.397892 0.601267
0.848129 0.415202 0.618337
0.128684 0.434714 0.537394
0.193350 0.452422 0.555177
0.280065 0.470251 0.572819
0.387013 0.488156 0.590278
0.506092 0.506092 0.607512
0.624483 0.524012 0.624483
0.729655 0.541870 0.641153
0.814138 0.559621 0.657489
0.876682 0.577221 0.673460
0.158256 0.596581 0.596581
0.233794 0.613723 0.613723
0.331201 0.630589 0.630589
0.445590 0.647141 0.647141
0.566049 0.663347 0.663347
0.679179 0.679179 0.679179
0.774562 0.694608 0.694608
0.847936 0.709613 0.709613
0.900497 0.724173 0.724173
0.193117 0.739836 0.653083
0.279765 0.753408 0.669156
0.386659 0.766495 0.684844
0.505719 0.779091 0.700121
0.624133 0.791192 0.714966
0.729360 0.802799 0.729360
0.813912 0.813912 0.743289
0.876521 0.824536 0.756739
0.920132 0.834676 0.769703
0.233527 0.845404 0.705577
0.330871 0.854551 0.720260
0.445221 0.863244 0.734486
0.565682 0.871496 0.748241
0.678853 0.879320 0.761516
0.774301 0.886729 0.774301
0.847744 0.893739 0.786593
0.900363 0.900363 0.798390
0.936167 0.906618 0.809693
0.279464 0.913163 0.753130
0.386305 0.918686 0.766227
0.505345 0.923888 0.778834
0.623783 0.928782 0.790946
0.729066 0.933385 0.802562
0.813686 0.937710 0.813686
0.876359 0.941772 0.824320
0.920022 0.945584 0.834470
0.949160 0.949160 0.844145
0.054485 0.054485 0.406418
0.085525 0.058302 0.423837
0.131782 0.062369 0.441447
0.197652 0.066699 0.459207
0.285613 0.071307 0.477070
0.393522 0.076207 0.494992
0.512927 0.081415 0.512927
0.630875 0.086944 0.530829
0.735016 0.092812 0.548652
0.068344 0.099758 0.465700
0.106390 0.106390 0.483590
0.161934 0.113406 0.501522
0.238730 0.120823 0.519451
0.337288 0.128655 0.537329
0.452357 0.136915 0.555112
0.572755 0.145617 0.572755
0.685109 0.154773 0.590215
0.779302 0.164393 0.607450
0.085408 0.175660 0.525968
0.131612 0.186293 0.543817
0.197415 0.197415 0.561554
0.285309 0.209031 0.579135
0.393166 0.221142 0.596517
0.512554 0.233747 0.613661
0.630527 0.246843 0.630527
0.734726 0.260424 0.647081
0.818019 0.274479 0.663289
0.106248 0.290665 0.585488
0.161731 0.305678 0.602788
0.238458 0.321116 0.619835
0.336954 0.336954 0.636592
0.451987 0.353167 0.653023
0.572390 0.369726 0.669098
0.684787 0.386597 0.684787
0.779045 0.403744 0.700066
0.851241 0.421130 0.714913
0.131441 0.440711 0.642613
0.197179 0.458465 0.658918
0.285005 0.476325 0.674856
0.392810 0.494246 0.690398
0.512181 0.512181 0.705522
0.630180 0.530085 0.720207
0.734435 0.547913 0.734435
0.817797 0.565617 0.748192
0.879292 0.583157 0.761468
0.161529 0.602431 0.695954
0.238187 0.619484 0.710920
0.336621 0.636247 0.725440
0.451617 0.652685 0.739498
0.572024 0.668767 0.753081
0.684465 0.684465 0.766180
0.778788 0.699753 0.778788
0.851052 0.714608 0.790902
0.902659 0.729014 0.802521
0.196942 0.744499 0.744499
0.284701 0.757907 0.757907
0.392454 0.770828 0.770828
0.511808 0.783256 0.783256
0.629832 0.795189 0.795189
0.734143 0.806628 0.806628
0.817574 0.817574 0.817574
0.879134 0.828033 0.828033
0.921904 0.838011 0.838011
0.237917 0.848562 0.787658
0.336288 0.857554 0.799411
0.451248 0.866096 0.810670
0.571659 0.874201 0.821438
0.684142 0.881882 0.831721
0.778531 0.889154 0.841526
0.850862 0.896031 0.850862
0.902528 0.902528 0.859740
0.937607 0.908660 0.868171
0.284397 0.915076 0.825238
0.392098 0.920488 0.835346
0.511436 0.925584 0.844979
0.629484 0.930377 0.854147
0.733852 0.934884 0.862861
0.817352 0.939118 0.871132
0.878975 0.943094 0.878975
0.921797 0.946824 0.886403
0.950323 0.950323 0.893430
0.055755 0.055755 0.514514
0.087450 0.059655 0.532411
0.134596 0.063809 0.550224
0.201544 0.068232 0.567910
0.290611 0.072938 0.585425
0.399352 0.077940 0.602726
0.519013 0.083256 0.619774
0.636531 0.088898 0.636531
0.739735 0.094884 0.652964
0.069912 0.101968 0.574309
0.108729 0.108729 0.591750
0.165268 0.115880 0.608964
0.243186 0.123436 0.625910
0.342756 0.131411 0.642553
0.458400 0.139820 0.658859
0.578707 0.148675 0.674798
0.690342 0.157987 0.690342
0.783465 0.167768 0.705468
0.087331 0.179216 0.632006
0.134422 0.190015 0.648530
0.201304 0.201304 0.664706
0.290304 0.213088 0.680504
0.398994 0.225367 0.695899
0.518640 0.238140 0.710866
0.636186 0.251401 0.725388
0.739448 0.265144 0.739448
0.821619 0.279358 0.753033
0.108584 0.295715 0.686157
0.165062 0.310874 0.701398
0.242912 0.326451 0.716206
0.342420 0.342420 0.730561
0.458030 0.358754 0.744449
0.578343 0.375422 0.757859
0.690023 0.392391 0.770781
0.783211 0.409624 0.783211
0.854300 0.427082 0.795147
0.134248 0.446726 0.735672
0.201064 0.464521 0.749387
0.289996 0.482407 0.762620
0.398636 0.500337 0.775364
0.518267 0.518267 0.787614
0.635840 0.536151 0.799369
0.739160 0.553941 0.810630
0.821400 0.571595 0.821400
0.881855 0.589068 0.831684
0.164857 0.608252 0.779881
0.242637 0.625211 0.791951
0.342084 0.641867 0.803526
0.457659 0.658188 0.814607
0.577979 0.674143 0.825200
0.689704 0.689704 0.835310
0.782958 0.704847 0.844944
0.854114 0.719552 0.854114
0.904779 0.733801 0.862830
0.200825 0.749106 0.818520
0.289689 0.762350 0.828936
0.398279 0.775104 0.838872
0.517895 0.787364 0.848336
0.635495 0.799129 0.857339
0.738872 0.810401 0.865892
0.821181 0.821181 0.874008
0.881699 0.831475 0.881699
0.923641 0.841292 0.888981
0.242363 0.851667 0.851667
0.341748 0.860504 0.860504
0.457289 0.868897 0.868897
0.577615 0.876856 0.876856
0.689384 0.884397 0.884397
0.782704 0.891533 0.891533
0.853928 0.898279 0.898279
0.904651 0.904651 0.904651
0.939018 0.910663 0.910663
0.289382 0.916950 0.879649
0.397921 0.922253 0.887041
0.517522 0.927245 0.894033
0.635149 0.931939 0.900641
0.738584 0.936352 0.906880
0.820961 0.940497 0.912765
0.881543 0.944387 0.918312
0.923535 0.948038 0.923535
0.951461 0.951461 0.928451
0.057051 0.057051 0.621269
0.089414 0.061036 0.638000
0.137459 0.065280 0.654402
0.205494 0.069798 0.670445
0.295660 0.074602 0.686100
0.405211 0.079710 0.701343
0.525093 0.085134 0.716152
0.642150 0.090892 0.730509
0.744399 0.096998 0.744399
0.071513 0.104221 0.676191
0.111112 0.111112 0.691699
0.168657 0.118399 0.706786
0.247699 0.126096 0.721432
0.348266 0.134218 0.735621
0.464456 0.142777 0.749338
0.584636 0.151786 0.762572
0.695527 0.161256 0.775318
0.787570 0.171198 0.787570
0.089293 0.182829 0.726652
0.137282 0.193793 0.740670
0.205251 0.205251 0.754212
0.295350 0.217203 0.767270
0.404852 0.229650 0.779836
0.524720 0.242589 0.791908
0.641807 0.256015 0.803484
0.744115 0.269919 0.814568
0.825162 0.284290 0.825162
0.110965 0.300815 0.771902
0.168448 0.316119 0.784288
0.247421 0.331831 0.796180
0.347927 0.347927 0.807576
0.464084 0.364379 0.818481
0.584274 0.381153 0.828899
0.695211 0.398216 0.838836
0.787320 0.415530 0.848302
0.857307 0.433054 0.857307
0.137106 0.452756 0.811603
0.205007 0.470587 0.822330
0.295039 0.488493 0.832572
0.404492 0.506429 0.842337
0.524348 0.524348 0.851633
0.641464 0.542205 0.860473
0.743831 0.559954 0.868867
0.824947 0.577551 0.876828
0.884370 0.594953 0.884370
0.168239 0.614043 0.845775
0.247143 0.630903 0.854904
0.347589 0.647449 0.863580
0.463713 0.663649 0.871814
0.583911 0.679473 0.879621
0.694895 0.694895 0.887015
0.787070 0.709891 0.894008
0.857124 0.724443 0.900618
0.906858 0.738533 0.906858
0.204764 0.753658 0.874705
0.294729 0.766736 0.882360
0.404133 0.779323 0.889606
0.523976 0.791415 0.896458
0.641120 0.803012 0.902932
0.743546 0.814116 0.909041
0.824731 0.824731 0.914802
0.884217 0.834862 0.920231
0.925342 0.844519 0.925342
0.246866 0.854719 0.898858
0.347250 0.863404 0.905197
0.463342 0.871648 0.911178
0.583548 0.879463 0.916816
0.694578 0.886865 0.922127
0.786820 0.893867 0.927126
0.856941 0.900484 0.931828
0.906732 0.906732 0.936247
0.940398 0.912625 0.940398
0.294419 0.918787 0.918787
0.403773 0.923983 0.923983
0.523604 0.928872 0.928872
0.640777 0.933469 0.933469
0.743262 0.937789 0.937789
0.824515 0.941846 0.941846
0.884064 0.945653 0.945653
0.925238 0.949225 0.949225
0.952574 0.952574 0.952574
