resources/luts/bleach-bypass.cube
TITLE "Bleach Bypass"
LUT_3D_SIZE 17
0.047426 0.047426 0.047426
0.059644 0.049073 0.049073
0.074762 0.050775 0.050775
0.093331 0.052532 0.052532
0.115936 0.054347 0.054347
0.143150 0.056220 0.056220
0.175485 0.058154 0.058154
0.213305 0.060151 0.060151
0.256738 0.062211 0.062211
0.305580 0.064337 0.064337
0.359223 0.066531 0.066531
0.416633 0.068794 0.068794
0.476396 0.071128 0.071128
0.536843 0.073535 0.073535
0.596227 0.076017 0.076017
0.652919 0.078576 0.078576
0.705581 0.081213 0.081213
0.053186 0.064582 0.053186
0.066783 0.066783 0.055022
0.083550 0.069054 0.056917
0.104058 0.071397 0.058874
0.128890 0.073812 0.060893
0.158600 0.076303 0.062978
0.193636 0.078870 0.065128
0.234257 0.081516 0.067347
0.280436 0.084243 0.069636
0.331774 0.087052 0.071996
0.387449 0.089946 0.074430
0.446228 0.092926 0.076940
0.506551 0.095994 0.079527
0.566683 0.099153 0.082193
0.624914 0.102404 0.084940
0.679741 0.105749 0.087770
0.730017 0.109190 0.090686
0.059602 0.087375 0.059602
0.074710 0.090278 0.061645
0.093268 0.093268 0.063753
0.115859 0.096347 0.065928
0.143059 0.099516 0.068172
0.175377 0.102777 0.070487
0.213180 0.106133 0.072874
0.256596 0.109585 0.075335
0.305422 0.113135 0.077873
0.359051 0.116785 0.080488
0.416452 0.120537 0.083184
0.476210 0.124392 0.085961
0.536658 0.128352 0.088822
0.596047 0.132420 0.091769
0.652750 0.136596 0.094803
0.705426 0.140883 0.097927
0.753134 0.145281 0.101142
0.066737 0.117204 0.066737
0.083493 0.120967 0.069006
0.103988 0.124834 0.071347
0.128807 0.128807 0.073761
0.158501 0.132886 0.076250
0.193520 0.137075 0.078816
0.234123 0.141374 0.081460
0.280285 0.145785 0.084185
0.331608 0.150310 0.086993
0.387272 0.154950 0.089885
0.446044 0.159706 0.092863
0.506364 0.164580 0.095930
0.566500 0.169572 0.099087
0.624739 0.174684 0.102336
0.679579 0.179917 0.105679
0.729870 0.185271 0.109118
0.774883 0.190748 0.112654
0.074658 0.155481 0.074658
0.093205 0.160251 0.077175
0.115783 0.165138 0.079769
0.142967 0.170143 0.082443
0.175269 0.175269 0.085198
0.213055 0.180516 0.088036
0.256454 0.185884 0.090959
0.305264 0.191374 0.093969
0.358880 0.196988 0.097068
0.416270 0.202724 0.100259
0.476024 0.208585 0.103542
0.536472 0.214569 0.106919
0.595867 0.220677 0.110394
0.652580 0.226909 0.113967
0.705271 0.233264 0.117640
0.752996 0.239742 0.121415
0.795236 0.246342 0.125295
0.083436 0.203380 0.083436
0.103919 0.209255 0.086221
0.128723 0.215253 0.089090
0.158401 0.221375 0.092045
0.193403 0.227621 0.095087
0.233990 0.233990 0.098219
0.280135 0.240481 0.101443
0.331443 0.247095 0.104760
0.387095 0.253830 0.108173
0.445860 0.260685 0.111683
0.506178 0.267658 0.115292
0.566317 0.274749 0.119002
0.624564 0.281955 0.122815
0.679416 0.289275 0.126733
0.729723 0.296706 0.130757
0.774752 0.304247 0.134889
0.814190 0.311894 0.139131
0.093142 0.261467 0.093142
0.115706 0.268453 0.096217
0.142876 0.275557 0.099382
0.175161 0.282776 0.102640
0.212930 0.290109 0.105992
0.256312 0.297553 0.109440
0.305105 0.305105 0.112985
0.358708 0.312765 0.116631
0.416089 0.320527 0.120379
0.475838 0.328390 0.124229
0.536287 0.336351 0.128186
0.595688 0.344406 0.132249
0.652411 0.352551 0.136420
0.705116 0.360783 0.140702
0.752857 0.369097 0.145096
0.795114 0.377490 0.149603
0.831761 0.385957 0.154225
0.103849 0.329285 0.103849
0.128639 0.337257 0.107236
0.158302 0.345322 0.110719
0.193287 0.353477 0.114301
0.233856 0.361718 0.117984
0.279984 0.370042 0.121768
0.331278 0.378443 0.125657
0.386918 0.386918 0.129652
0.445675 0.395462 0.133755
0.505991 0.404070 0.137966
0.566133 0.412738 0.142289
0.624389 0.421460 0.146724
0.679254 0.430232 0.151273
0.729576 0.439047 0.155937
0.774622 0.447902 0.160717
0.814077 0.456789 0.165615
0.847981 0.465704 0.170633
0.115630 0.405047 0.115630
0.142784 0.413721 0.119350
0.175053 0.422449 0.123172
0.212805 0.431226 0.127100
0.256169 0.440046 0.131133
0.304947 0.448904 0.135275
0.358536 0.457795 0.139527
0.415908 0.466713 0.143890
0.475652 0.475652 0.148367
0.536101 0.484606 0.152957
0.595508 0.493571 0.157663
0.652242 0.502540 0.162487
0.704961 0.511507 0.167428
0.752718 0.520466 0.172489
0.794993 0.529413 0.177670
0.831657 0.538341 0.182973
0.862894 0.547244 0.188397
0.128556 0.485619 0.128556
0.158202 0.494584 0.132629
0.193171 0.503553 0.136810
0.233722 0.512520 0.141103
0.279834 0.521478 0.145507
0.331112 0.530423 0.150025
0.386741 0.539348 0.154657
0.445491 0.548248 0.159406
0.505805 0.557117 0.164272
0.565950 0.565950 0.169257
0.624214 0.574741 0.174361
0.679091 0.583486 0.179587
0.729429 0.592178 0.184933
0.774492 0.600812 0.190402
0.813964 0.609385 0.195994
0.847884 0.617890 0.201709
0.876558 0.626324 0.207548
0.142693 0.566946 0.142693
0.174946 0.575732 0.147138
0.212680 0.584470 0.151698
0.256027 0.593156 0.156372
0.304789 0.601784 0.161164
0.358365 0.610349 0.166073
0.415726 0.618847 0.171101
0.475466 0.627273 0.176250
0.535916 0.635621 0.181519
0.595328 0.643890 0.186910
0.652073 0.652073 0.192424
0.704806 0.660167 0.198060
0.752579 0.668169 0.203820
0.794871 0.676075 0.209704
0.831552 0.683881 0.215712
0.862806 0.691586 0.221843
0.889035 0.699185 0.228098
0.158103 0.644819 0.158103
0.193054 0.652992 0.162937
0.233589 0.661076 0.167890
0.279684 0.669067 0.172962
0.330947 0.676962 0.178154
0.386564 0.684757 0.183468
0.445307 0.692450 0.188903
0.505618 0.700037 0.194462
0.565767 0.707516 0.200143
0.624039 0.714884 0.205948
0.678929 0.722140 0.211877
0.729281 0.729281 0.217930
0.774362 0.736306 0.224106
0.813851 0.743212 0.230406
0.847788 0.749999 0.236829
0.876477 0.756665 0.243375
0.900394 0.763210 0.250042
0.174838 0.715710 0.174838
0.212555 0.722953 0.180074
0.255885 0.730081 0.185432
0.304631 0.737092 0.190913
0.358193 0.743985 0.196516
0.415545 0.750758 0.202242
0.475280 0.757411 0.208092
0.535730 0.763942 0.214066
0.595148 0.770350 0.220164
0.651903 0.776636 0.226386
0.704650 0.782797 0.232730
0.752440 0.788835 0.239198
0.794749 0.794749 0.245788
0.831448 0.800540 0.252499
0.862718 0.806207 0.259330
0.888961 0.811750 0.266281
0.910707 0.817171 0.273348
0.192938 0.777338 0.192938
0.233455 0.783486 0.198586
0.279533 0.789510 0.204358
0.330782 0.795410 0.210253
0.386387 0.801186 0.216272
0.445122 0.806839 0.222415
0.505432 0.812369 0.228681
0.565583 0.817776 0.235071
0.623864 0.823062 0.241583
0.678766 0.828226 0.248217
0.729134 0.833270 0.254972
0.774231 0.838195 0.261847
0.813738 0.843002 0.268840
0.847692 0.847692 0.275950
0.876396 0.852266 0.283176
0.900327 0.856727 0.290515
0.920047 0.861074 0.297964
0.212430 0.828802 0.212430
0.255743 0.833833 0.218494
0.304473 0.838744 0.224682
0.358022 0.843538 0.230993
0.415364 0.848214 0.237428
0.475093 0.852776 0.243984
0.535544 0.857223 0.250662
0.594969 0.861558 0.257461
0.651734 0.865782 0.264379
0.704495 0.869897 0.271415
0.752301 0.873904 0.278568
0.794628 0.877804 0.285835
0.831343 0.881601 0.293214
0.862629 0.885294 0.300704
0.888888 0.888888 0.308301
0.910646 0.892382 0.316004
0.928487 0.895779 0.323809
0.233322 0.870355 0.233322
0.279383 0.874350 0.239800
0.330617 0.878238 0.246401
0.386210 0.882023 0.253124
0.444938 0.885705 0.259966
0.505245 0.889287 0.266927
0.565400 0.892770 0.274006
0.623688 0.896157 0.281200
0.678603 0.899448 0.288508
0.728986 0.902647 0.295928
0.774101 0.905754 0.303457
0.813625 0.908773 0.311094
0.847595 0.911704 0.318834
0.876315 0.914549 0.326676
0.900260 0.917312 0.334616
0.919992 0.919992 0.342650
0.936098 0.922594 0.350776
0.255601 0.903002 0.255601
0.304315 0.906100 0.262487
0.357850 0.909108 0.269491
0.415183 0.912029 0.276612
0.474907 0.914866 0.283848
0.535359 0.917619 0.291197
0.594789 0.920290 0.298657
0.651565 0.922883 0.306225
0.704340 0.925398 0.313900
0.752162 0.927837 0.321677
0.794506 0.930202 0.329555
0.831238 0.932496 0.337530
0.862541 0.934720 0.345598
0.888814 0.936875 0.353756
0.910586 0.938964 0.362000
0.928438 0.940988 0.370327
0.942949 0.942949 0.378731
0.047979 0.047979 0.058328
0.060331 0.049645 0.060331
0.075609 0.051365 0.062397
0.094367 0.053142 0.064529
0.117190 0.054976 0.066729
0.144651 0.056870 0.068998
0.177255 0.058825 0.071338
0.215357 0.060843 0.073752
0.259070 0.062926 0.076241
0.308172 0.065075 0.078806
0.362032 0.067292 0.081450
0.419597 0.069579 0.084175
0.479436 0.071938 0.086982
0.539871 0.074370 0.089874
0.599156 0.076877 0.092852
0.655675 0.079463 0.095918
0.708106 0.082127 0.099075
0.053803 0.065322 0.065322
0.067547 0.067547 0.067547
0.084488 0.069842 0.069842
0.105199 0.072209 0.072209
0.130265 0.074649 0.074649
0.160233 0.077166 0.077166
0.195546 0.079760 0.079760
0.236450 0.082433 0.082433
0.282901 0.085187 0.085187
0.334480 0.088025 0.088025
0.390345 0.090948 0.090948
0.449241 0.093958 0.093958
0.509596 0.097057 0.097057
0.569672 0.100247 0.100247
0.627765 0.103530 0.103530
0.682388 0.106907 0.106907
0.732412 0.110381 0.110381
0.060288 0.088351 0.073089
0.075557 0.091284 0.075557
0.094304 0.094304 0.078101
0.117113 0.097413 0.080723
0.144559 0.100613 0.083426
0.177146 0.103906 0.086211
0.215231 0.107295 0.089079
0.258927 0.110780 0.092034
0.308013 0.114363 0.095076
0.361860 0.118048 0.098208
0.419415 0.121834 0.101431
0.479250 0.125725 0.104748
0.539686 0.129722 0.108160
0.598977 0.133826 0.111670
0.655506 0.138040 0.115279
0.707952 0.142364 0.118989
0.755393 0.146801 0.122801
0.067500 0.118470 0.081698
0.084430 0.122269 0.084430
0.105129 0.126171 0.087245
0.130180 0.130180 0.090145
0.160133 0.134297 0.093131
0.195429 0.138523 0.096206
0.236315 0.142860 0.099370
0.282750 0.147309 0.102628
0.334314 0.151873 0.105979
0.390167 0.156552 0.109427
0.449056 0.161348 0.112972
0.509410 0.166262 0.116618
0.569490 0.171294 0.120365
0.627591 0.176447 0.124215
0.682226 0.181721 0.128171
0.732266 0.187117 0.132234
0.777001 0.192635 0.136405
0.075504 0.157088 0.091222
0.094240 0.161897 0.094240
0.117036 0.166824 0.097347
0.144467 0.171871 0.100546
0.177037 0.177037 0.103837
0.215105 0.182325 0.107223
0.258784 0.187734 0.110706
0.307854 0.193267 0.114288
0.361688 0.198922 0.117970
0.419234 0.204701 0.121754
0.479064 0.210603 0.125643
0.539501 0.216629 0.129638
0.598798 0.222780 0.133740
0.655338 0.229053 0.137951
0.707798 0.235450 0.142273
0.755255 0.241969 0.146707
0.797213 0.248611 0.151256
0.084373 0.205361 0.101733
0.105059 0.211278 0.105059
0.130096 0.217318 0.108480
0.160032 0.223482 0.111999
0.195311 0.229770 0.115617
0.236181 0.236181 0.119336
0.282598 0.242714 0.123158
0.334148 0.249369 0.127085
0.389990 0.256144 0.131118
0.448872 0.263040 0.135260
0.509223 0.270053 0.139511
0.569307 0.277183 0.143874
0.627416 0.284428 0.148350
0.682064 0.291786 0.152940
0.732119 0.299255 0.157646
0.776872 0.306832 0.162469
0.816026 0.314515 0.167410
0.094176 0.263826 0.113304
0.116959 0.270853 0.116959
0.144374 0.277996 0.120715
0.176928 0.285254 0.124575
0.214979 0.292625 0.128541
0.258641 0.300106 0.132614
0.307695 0.307695 0.136795
0.361515 0.315389 0.141087
0.419052 0.323186 0.145491
0.478878 0.331083 0.150008
0.539315 0.339076 0.154640
0.598619 0.347162 0.159388
0.655169 0.355337 0.164254
0.707643 0.363597 0.169238
0.755117 0.371939 0.174342
0.797092 0.380357 0.179567
0.833459 0.388848 0.184913
0.104988 0.331982 0.126007
0.130011 0.339985 0.130011
0.159932 0.348081 0.134123
0.195194 0.356266 0.138345
0.236046 0.364536 0.142677
0.282447 0.372886 0.147122
0.333982 0.381313 0.151681
0.389812 0.389812 0.156355
0.448687 0.398378 0.161146
0.509037 0.407008 0.166055
0.569124 0.415694 0.171083
0.627242 0.424434 0.176231
0.681903 0.433221 0.181499
0.731973 0.442050 0.186890
0.776742 0.450916 0.192403
0.815914 0.459814 0.198040
0.849545 0.468737 0.203799
0.116882 0.407986 0.139909
0.144282 0.416679 0.144282
0.176820 0.425425 0.148768
0.214853 0.434217 0.153369
0.258498 0.443050 0.158086
0.307536 0.451920 0.162919
0.361343 0.460821 0.167871
0.418870 0.469746 0.172943
0.478691 0.478691 0.178135
0.539130 0.487650 0.183448
0.598439 0.496617 0.188883
0.655000 0.505585 0.194441
0.707489 0.514551 0.200122
0.754979 0.523506 0.205927
0.796971 0.532447 0.211855
0.833355 0.541367 0.217907
0.864329 0.550261 0.224083
0.129927 0.488663 0.155073
0.159832 0.497630 0.159832
0.195077 0.506599 0.164708
0.235911 0.515563 0.169704
0.282296 0.524518 0.174819
0.333816 0.533456 0.180055
0.389635 0.542373 0.185413
0.448503 0.551264 0.190892
0.508850 0.560121 0.196495
0.568941 0.568941 0.202221
0.627067 0.577716 0.208071
0.681741 0.586444 0.214044
0.731826 0.595117 0.220142
0.776613 0.603731 0.226363
0.815802 0.612281 0.232707
0.849449 0.620763 0.239174
0.877870 0.629171 0.245764
0.144190 0.569934 0.171552
0.176711 0.578705 0.176711
0.214727 0.587426 0.181991
0.258355 0.596093 0.187393
0.307377 0.604700 0.192918
0.361171 0.613243 0.198565
0.418689 0.621717 0.204336
0.478505 0.630117 0.210231
0.538944 0.638439 0.216250
0.598260 0.646678 0.222392
0.654832 0.654832 0.228658
0.707334 0.662895 0.235047
0.754841 0.670865 0.241559
0.796851 0.678737 0.248193
0.833252 0.686510 0.254947
0.864242 0.694178 0.261822
0.890231 0.701741 0.268814
0.159732 0.647604 0.189390
0.194960 0.655747 0.194960
0.235777 0.663800 0.200652
0.282145 0.671759 0.206468
0.333650 0.679621 0.212408
0.389457 0.687381 0.218472
0.448318 0.695038 0.224659
0.508664 0.702589 0.230970
0.568758 0.710031 0.237404
0.626893 0.717361 0.243960
0.681579 0.724578 0.250638
0.731680 0.731680 0.257436
0.776483 0.738664 0.264354
0.815690 0.745530 0.271389
0.849354 0.752277 0.278541
0.877790 0.758902 0.285808
0.901481 0.765405 0.293187
0.176603 0.718182 0.208616
0.214601 0.725387 0.214601
0.258212 0.732475 0.220710
0.307218 0.739446 0.226942
0.360999 0.746299 0.233298
0.418507 0.753031 0.239777
0.478319 0.759643 0.246377
0.538759 0.766132 0.253099
0.598081 0.772499 0.259941
0.654663 0.778742 0.266902
0.707180 0.784862 0.273980
0.754703 0.790858 0.281174
0.796730 0.796730 0.288481
0.833148 0.802478 0.295901
0.864154 0.808103 0.303430
0.890158 0.813605 0.311066
0.911693 0.818985 0.318806
0.194843 0.779440 0.229242
0.235642 0.785545 0.235642
0.281994 0.791527 0.242165
0.333484 0.797385 0.248810
0.389280 0.803120 0.255576
0.448133 0.808731 0.262461
0.508477 0.814219 0.269465
0.568574 0.819585 0.276585
0.626718 0.824829 0.283821
0.681417 0.829952 0.291170
0.731533 0.834956 0.298629
0.776354 0.839841 0.306197
0.815578 0.844608 0.313872
0.849258 0.849258 0.321649
0.877710 0.853794 0.329526
0.901415 0.858216 0.337501
0.920939 0.862525 0.345568
0.214475 0.830524 0.251259
0.258069 0.835514 0.258069
0.307059 0.840385 0.264997
0.360827 0.845139 0.272044
0.418325 0.849776 0.279206
0.478133 0.854299 0.286483
0.538574 0.858708 0.293873
0.597901 0.863005 0.301372
0.654494 0.867192 0.308979
0.707025 0.871269 0.316691
0.754564 0.875240 0.324505
0.796609 0.879105 0.332418
0.833044 0.882866 0.340427
0.864067 0.886526 0.348528
0.890085 0.890085 0.356718
0.911633 0.893546 0.364992
0.929292 0.896911 0.373347
0.235508 0.871723 0.274638
0.281843 0.875682 0.281843
0.333319 0.879535 0.289161
0.389102 0.883285 0.296590
0.447949 0.886933 0.304129
0.508290 0.890481 0.311775
0.568391 0.893931 0.319524
0.626544 0.897285 0.327375
0.681255 0.900545 0.335323
0.731387 0.903712 0.343366
0.776224 0.906789 0.351500
0.815465 0.909778 0.359720
0.849163 0.912679 0.368024
0.877630 0.915497 0.376407
0.901349 0.918231 0.384865
0.920885 0.920885 0.393393
0.936823 0.923459 0.401986
0.257926 0.904064 0.299322
0.306900 0.907131 0.306900
0.360655 0.910110 0.314584
0.418144 0.913002 0.322371
0.477947 0.915810 0.330257
0.538388 0.918535 0.338241
0.597722 0.921179 0.346317
0.654326 0.923745 0.354483
0.706871 0.926234 0.362734
0.754426 0.928648 0.371067
0.796488 0.930989 0.379478
0.832941 0.933259 0.387962
0.863979 0.935459 0.396514
0.890012 0.937592 0.405130
0.911573 0.939658 0.413805
0.929243 0.941661 0.422533
0.943601 0.943601 0.431311
0.048539 0.048539 0.071549
0.061025 0.050223 0.073969
0.076465 0.051962 0.076465
0.095414 0.053758 0.079037
0.118457 0.055613 0.081688
0.146165 0.057527 0.084420
0.179039 0.059503 0.087235
0.217423 0.061543 0.090134
0.261416 0.063648 0.093120
0.310776 0.065820 0.096194
0.364851 0.068061 0.099359
0.422567 0.070372 0.102616
0.482478 0.072755 0.105967
0.542896 0.075213 0.109414
0.602079 0.077747 0.112959
0.658420 0.080358 0.116604
0.710618 0.083050 0.120351
0.054426 0.066070 0.079993
0.068318 0.068318 0.082673
0.085435 0.070637 0.085435
0.106351 0.073029 0.088280
0.131651 0.075495 0.091211
0.161879 0.078038 0.094229
0.197470 0.080658 0.097336
0.238657 0.083359 0.100534
0.285379 0.086142 0.103825
0.337198 0.089008 0.107211
0.393248 0.091960 0.110693
0.452257 0.095000 0.114274
0.512640 0.098130 0.117956
0.572657 0.101351 0.121740
0.630608 0.104666 0.125629
0.685023 0.108076 0.129623
0.734793 0.111583 0.133724
0.060982 0.089337 0.089337
0.076412 0.092299 0.092299
0.095349 0.095349 0.095349
0.118379 0.098489 0.098489
0.146072 0.101721 0.101721
0.178929 0.105046 0.105046
0.217296 0.108467 0.108467
0.261272 0.111985 0.111985
0.310616 0.115603 0.115603
0.364678 0.119322 0.119322
0.422385 0.123144 0.123144
0.482291 0.127070 0.127070
0.542711 0.131103 0.131103
0.601900 0.135245 0.135245
0.658252 0.139496 0.139496
0.710465 0.143858 0.143858
0.757637 0.148333 0.148333
0.068271 0.119749 0.099655
0.085377 0.123582 0.102921
0.106281 0.127521 0.106281
0.131566 0.131566 0.109737
0.161778 0.135719 0.113291
0.197351 0.139983 0.116945
0.238521 0.144358 0.120701
0.285227 0.148846 0.124561
0.337031 0.153449 0.128526
0.393070 0.158168 0.132598
0.452073 0.163003 0.136780
0.512454 0.167957 0.141071
0.572474 0.173031 0.145474
0.630434 0.178225 0.149991
0.684862 0.183540 0.154623
0.734647 0.188977 0.159371
0.779105 0.194537 0.164236
0.076359 0.158708 0.111019
0.095285 0.163557 0.114610
0.118301 0.168525 0.118301
0.145979 0.173612 0.122094
0.178819 0.178819 0.125992
0.217169 0.184148 0.129996
0.261128 0.189599 0.134108
0.310456 0.195173 0.138329
0.364505 0.200871 0.142661
0.422203 0.206691 0.147105
0.482105 0.212636 0.151664
0.542526 0.218704 0.156338
0.601721 0.224896 0.161128
0.658084 0.231212 0.166037
0.710311 0.237650 0.171064
0.757500 0.244211 0.176212
0.799175 0.250894 0.181480
0.085319 0.207357 0.123501
0.106210 0.213315 0.127438
0.131481 0.219398 0.131481
0.161677 0.225604 0.135632
0.197233 0.231933 0.139893
0.238386 0.238386 0.144266
0.285075 0.244960 0.148752
0.336864 0.251656 0.153352
0.392892 0.258473 0.158068
0.451888 0.265408 0.162901
0.512268 0.272461 0.167853
0.572291 0.279631 0.172924
0.630260 0.286914 0.178116
0.684701 0.294310 0.183428
0.734502 0.301816 0.188863
0.778976 0.309429 0.194420
0.817848 0.317147 0.200101
0.095221 0.266199 0.137170
0.118223 0.273266 0.141472
0.145886 0.280448 0.145886
0.178710 0.287745 0.150413
0.217042 0.295153 0.155056
0.260984 0.302671 0.159814
0.310296 0.310296 0.164690
0.364332 0.318026 0.169685
0.422021 0.325857 0.174800
0.481919 0.333787 0.180036
0.542341 0.341812 0.185393
0.601542 0.349928 0.190872
0.657916 0.358133 0.196474
0.710157 0.366421 0.202200
0.757363 0.374789 0.208049
0.799055 0.383233 0.214022
0.835143 0.391748 0.220119
0.106139 0.334689 0.152090
0.131395 0.342725 0.156774
0.161576 0.350851 0.161576
0.197115 0.359065 0.166495
0.238250 0.367363 0.171534
0.284923 0.375740 0.176692
0.336698 0.384191 0.181972
0.392714 0.392714 0.187373
0.451703 0.401302 0.192897
0.512081 0.409951 0.198544
0.572109 0.418657 0.204315
0.630086 0.427413 0.210209
0.684539 0.436215 0.216228
0.734356 0.445057 0.222369
0.778848 0.453935 0.228635
0.817737 0.462841 0.235024
0.851095 0.471772 0.241535
0.118145 0.410932 0.168316
0.145793 0.419644 0.173398
0.178600 0.428405 0.178600
0.216915 0.437212 0.183924
0.260840 0.446059 0.189370
0.310136 0.454940 0.194939
0.364160 0.463849 0.200631
0.421839 0.472782 0.206447
0.481733 0.481733 0.212386
0.542156 0.490695 0.218449
0.601364 0.499663 0.224636
0.657748 0.508631 0.230947
0.710004 0.517593 0.237380
0.757226 0.526545 0.243936
0.798936 0.535479 0.250613
0.835041 0.544391 0.257411
0.865752 0.553274 0.264328
0.131310 0.491708 0.185893
0.161475 0.500676 0.191383
0.196997 0.509644 0.196997
0.238115 0.518605 0.202734
0.284771 0.527555 0.208595
0.336531 0.536487 0.214579
0.392536 0.545396 0.220687
0.451518 0.554276 0.226919
0.511895 0.563121 0.233275
0.571926 0.571926 0.239753
0.629912 0.580686 0.246353
0.684378 0.589395 0.253074
0.734211 0.598049 0.259916
0.778719 0.606642 0.266876
0.817626 0.615170 0.273954
0.851001 0.623627 0.281147
0.879170 0.632010 0.288454
0.145700 0.572918 0.204853
0.178491 0.581673 0.210759
0.216789 0.590376 0.216789
0.260696 0.599023 0.222942
0.309977 0.607609 0.229219
0.363987 0.616129 0.235619
0.421657 0.624578 0.242141
0.481546 0.632952 0.248786
0.541970 0.641246 0.255551
0.601185 0.649457 0.262436
0.657580 0.657580 0.269439
0.709850 0.665612 0.276559
0.757088 0.673549 0.283794
0.798816 0.681388 0.291143
0.834938 0.689126 0.298602
0.865665 0.696759 0.306170
0.891416 0.704285 0.313843
0.161374 0.650379 0.225213
0.196879 0.658493 0.231535
0.237979 0.666514 0.237979
0.284619 0.674440 0.244546
0.336365 0.682268 0.251235
0.392358 0.689993 0.258044
0.451333 0.697615 0.264972
0.511708 0.705129 0.272018
0.571743 0.712533 0.279180
0.629738 0.719825 0.286457
0.684217 0.727003 0.293845
0.734065 0.734065 0.301344
0.778591 0.741010 0.308951
0.817515 0.747835 0.316663
0.850906 0.754540 0.324476
0.879091 0.761124 0.332389
0.902558 0.767586 0.340398
0.178381 0.720642 0.246967
0.216662 0.727807 0.253700
0.260552 0.734856 0.260552
0.309817 0.741787 0.267524
0.363814 0.748599 0.274612
0.421475 0.755290 0.281816
0.481360 0.761860 0.289134
0.541785 0.768308 0.296563
0.601006 0.774633 0.304101
0.657412 0.780834 0.311747
0.709696 0.786912 0.319496
0.756951 0.792866 0.327346
0.798696 0.798696 0.335294
0.834835 0.804402 0.343336
0.865578 0.809985 0.351470
0.891344 0.815446 0.359690
0.912669 0.820784 0.367994
0.196761 0.781527 0.270091
0.237844 0.787591 0.277221
0.284467 0.793531 0.284467
0.336198 0.799347 0.291826
0.392180 0.805039 0.299295
0.451149 0.810608 0.306873
0.511522 0.816055 0.314556
0.571561 0.821379 0.322342
0.629564 0.826582 0.330228
0.684056 0.831665 0.338211
0.733919 0.836628 0.346287
0.778462 0.841473 0.354453
0.817403 0.846200 0.362704
0.850811 0.850811 0.371037
0.879012 0.855308 0.379447
0.902493 0.859692 0.387931
0.921822 0.863964 0.396483
0.216535 0.832232 0.294532
0.260409 0.837181 0.302041
0.309658 0.842013 0.309658
0.363641 0.846727 0.317379
0.421293 0.851325 0.325202
0.481174 0.855809 0.333124
0.541600 0.860180 0.341141
0.600827 0.864439 0.349250
0.657244 0.868589 0.357447
0.709543 0.872630 0.365728
0.756814 0.876564 0.374090
0.798576 0.880394 0.382528
0.834732 0.884120 0.391036
0.865491 0.887746 0.399612
0.891271 0.891271 0.408250
0.912609 0.894700 0.416945
0.930088 0.898032 0.425691
0.237709 0.873080 0.320215
0.284315 0.877002 0.328075
0.336031 0.880820 0.336031
0.392002 0.884535 0.344082
0.450964 0.888149 0.352224
0.511335 0.891664 0.360452
0.571378 0.895081 0.368764
0.629390 0.898403 0.377153
0.683894 0.901631 0.385617
0.733774 0.904767 0.394151
0.778333 0.907814 0.402750
0.817292 0.910773 0.411409
0.850717 0.913646 0.420123
0.878932 0.916434 0.428888
0.902427 0.919141 0.437697
0.921768 0.921768 0.446545
0.937540 0.924316 0.455428
0.260265 0.905116 0.347036
0.309498 0.908153 0.355210
0.363469 0.911102 0.363469
0.421111 0.913965 0.371809
0.480987 0.916744 0.380226
0.541415 0.919442 0.388716
0.600648 0.922060 0.397274
0.657076 0.924599 0.405896
0.709389 0.927062 0.414575
0.756676 0.929451 0.423308
0.798456 0.931768 0.432090
0.834629 0.934014 0.440914
0.865404 0.936191 0.449776
0.891199 0.938301 0.458669
0.912550 0.940345 0.467589
0.930040 0.942326 0.476530
0.944245 0.944245 0.485486
0.049105 0.049105 0.087488
0.061727 0.050807 0.090395
0.077330 0.052566 0.093388
0.096471 0.054381 0.096471
0.119735 0.056256 0.099643
0.147692 0.058191 0.102909
0.180836 0.060189 0.106268
0.219503 0.062251 0.109724
0.263775 0.064378 0.113278
0.313391 0.066573 0.116932
0.367679 0.068837 0.120687
0.425543 0.071173 0.124547
0.485521 0.073581 0.128512
0.545918 0.076065 0.132583
0.604994 0.078625 0.136764
0.661155 0.081263 0.141055
0.713117 0.083982 0.145458
0.055057 0.066825 0.097615
0.069098 0.069098 0.100821
0.086392 0.071441 0.104121
