resources/luts/bleach-bypass.cube
TITLE "Bleach Bypass"
LUT_3D_SIZE 5
0.047426 0.047426 0.047426
0.115936 0.054347 0.054347
0.256738 0.062211 0.062211
0.476396 0.071128 0.071128
0.705581 0.081213 0.081213
0.074658 0.155481 0.074658
0.175269 0.175269 0.085198
0.358880 0.196988 0.097068
0.595867 0.220677 0.110394
0.795236 0.246342 0.125295
0.115630 0.405047 0.115630
0.256169 0.440046 0.131133
0.475652 0.475652 0.148367
0.704961 0.511507 0.167428
0.862894 0.547244 0.188397
0.174838 0.715710 0.174838
0.358193 0.743985 0.196516
0.595148 0.770350 0.220164
0.794749 0.794749 0.245788
0.910707 0.817171 0.273348
0.255601 0.903002 0.255601
0.474907 0.914866 0.283848
0.704340 0.925398 0.313900
0.862541 0.934720 0.345598
0.942949 0.942949 0.378731
0.049677 0.049677 0.106570
0.121025 0.056906 0.121025
0.266148 0.065116 0.137139
0.488564 0.074416 0.155021
0.715603 0.084924 0.174762
0.078096 0.161989 0.161989
0.182426 0.182426 0.182426
0.370168 0.204811 0.204811
0.607546 0.229172 0.229172
0.803058 0.255501 0.255501
0.120708 0.416843 0.238532
0.265565 0.452087 0.265565
0.487819 0.487819 0.294478
0.714995 0.523675 0.325144
0.868559 0.559289 0.357387
0.181981 0.725521 0.336711
0.369473 0.753157 0.369473
0.606834 0.778858 0.403483
0.802585 0.802585 0.438446
0.914592 0.824340 0.474032
0.264984 0.907188 0.451348
0.487073 0.918585 0.487073
0.714387 0.928693 0.522930
0.868218 0.937631 0.558553
0.945515 0.945515 0.593582
0.052029 0.052029 0.222262
0.126306 0.059579 0.248053
0.275774 0.068146 0.275774
0.500746 0.077843 0.305336
0.725416 0.088789 0.336594
0.081678 0.168714 0.316529
0.189807 0.189807 0.348358
0.381601 0.212862 0.381601
0.619104 0.237895 0.415990
0.810652 0.264881 0.451218
0.125977 0.428736 0.428736
0.275179 0.464185 0.464185
0.500000 0.500000 0.500000
0.724821 0.535815 0.535815
0.874023 0.571264 0.571264
0.189348 0.735119 0.548782
0.380896 0.762105 0.584010
0.618399 0.787138 0.618399
0.810193 0.810193 0.651642
0.918322 0.831286 0.683471
0.274584 0.911211 0.663406
0.499254 0.922157 0.694664
0.724226 0.931854 0.724226
0.873694 0.940421 0.751947
0.947971 0.947971 0.777738
0.054485 0.054485 0.406418
0.131782 0.062369 0.441447
0.285613 0.071307 0.477070
0.512927 0.081415 0.512927
0.735016 0.092812 0.548652
0.085408 0.175660 0.525968
0.197415 0.197415 0.561554
0.393166 0.221142 0.596517
0.630527 0.246843 0.630527
0.818019 0.274479 0.663289
0.131441 0.440711 0.642613
0.285005 0.476325 0.674856
0.512181 0.512181 0.705522
0.734435 0.547913 0.734435
0.879292 0.583157 0.761468
0.196942 0.744499 0.744499
0.392454 0.770828 0.770828
0.629832 0.795189 0.795189
0.817574 0.817574 0.817574
0.921904 0.838011 0.838011
0.284397 0.915076 0.825238
0.511436 0.925584 0.844979
0.733852 0.934884 0.862861
0.878975 0.943094 0.878975
0.950323 0.950323 0.893430
0.057051 0.057051 0.621269
0.137459 0.065280 0.654402
0.295660 0.074602 0.686100
0.525093 0.085134 0.716152
0.744399 0.096998 0.744399
0.089293 0.182829 0.726652
0.205251 0.205251 0.754212
0.404852 0.229650 0.779836
0.641807 0.256015 0.803484
0.825162 0.284290 0.825162
0.137106 0.452756 0.811603
0.295039 0.488493 0.832572
0.524348 0.524348 0.851633
0.743831 0.559954 0.868867
0.884370 0.594953 0.884370
0.204764 0.753658 0.874705
0.404133 0.779323 0.889606
0.641120 0.803012 0.902932
0.824731 0.824731 0.914802
0.925342 0.844519 0.925342
0.294419 0.918787 0.918787
0.523604 0.928872 0.928872
0.743262 0.937789 0.937789
0.884064 0.945653 0.945653
0.952574 0.952574 0.952574
