resources/luts/cool-noir.cube
TITLE "Cool Noir"
LUT_3D_SIZE 5
0.018516 0.019148 0.022304
0.044087 0.025599 0.029819
0.100837 0.034141 0.039768
0.212100 0.045386 0.052867
0.385406 0.060081 0.069985
0.048635 0.087657 0.058583
0.110466 0.114232 0.077410
0.229228 0.147418 0.101672
0.407981 0.187968 0.132513
0.598030 0.236217 0.171039
0.120872 0.314701 0.145596
0.247228 0.378431 0.187158
0.430726 0.445410 0.237504
0.617510 0.512808 0.296788
0.750064 0.577722 0.364315
0.266063 0.658740 0.320485
0.453521 0.709146 0.390644
0.636192 0.751867 0.466474
0.761129 0.787076 0.545037
0.827342 0.815432 0.622945
0.476244 0.845010 0.573658
0.654032 0.860837 0.650489
0.771387 0.872978 0.722327
0.832245 0.882218 0.786855
0.859892 0.889206 0.842760
0.020440 0.021137 0.044022
0.048518 0.028237 0.058442
0.110219 0.037622 0.077226
0.228795 0.049948 0.101437
0.407421 0.066008 0.132216
0.053494 0.095998 0.111821
0.120605 0.124717 0.145274
0.246773 0.160335 0.186764
0.430163 0.203490 0.237032
0.617038 0.254320 0.296241
0.131803 0.335822 0.257569
0.265588 0.400948 0.319913
0.452959 0.468400 0.390013
0.635741 0.535269 0.465805
0.760865 0.598740 0.544359
0.285191 0.676703 0.494258
0.475685 0.724520 0.572984
0.653601 0.764641 0.649845
0.771143 0.797432 0.721738
0.832129 0.823661 0.786335
0.498221 0.850852 0.746192
0.670586 0.865331 0.807752
0.780650 0.876406 0.860464
0.836610 0.884815 0.904285
0.861785 0.891164 0.939827
0.022559 0.023328 0.085152
0.053365 0.031138 0.111566
0.120339 0.041441 0.144954
0.246319 0.054941 0.186370
0.429600 0.072470 0.236562
0.058804 0.105030 0.203603
0.131516 0.136000 0.257070
0.265113 0.174126 0.319341
0.452396 0.219904 0.389382
0.635289 0.273248 0.465137
0.143535 0.357508 0.416438
0.284698 0.423736 0.493583
0.475125 0.491323 0.572310
0.653171 0.557333 0.649201
0.770899 0.619099 0.721148
0.305012 0.693803 0.676110
0.497667 0.739001 0.745626
0.670177 0.776567 0.807259
0.780424 0.807030 0.860049
0.836504 0.831243 0.903945
0.519905 0.856203 0.877039
0.686287 0.869434 0.917822
0.789216 0.879527 0.950647
0.840594 0.887175 0.976582
0.863503 0.892941 0.996776
0.024890 0.025739 0.158708
0.058663 0.034325 0.203183
0.131230 0.045628 0.256572
0.264639 0.060396 0.318770
0.451833 0.079505 0.388751
0.064599 0.114792 0.343433
0.143228 0.148111 0.415791
0.284205 0.188804 0.492908
0.474565 0.237197 0.571636
0.652739 0.292956 0.648557
0.156094 0.379669 0.600025
0.304502 0.446684 0.675483
0.497114 0.514061 0.745059
0.669768 0.578902 0.806766
0.780198 0.638729 0.859634
0.325456 0.710021 0.827057
0.519361 0.752597 0.876651
0.685900 0.787670 0.917506
0.789008 0.815906 0.950396
0.840498 0.838218 0.976385
0.541196 0.861097 0.960596
0.701125 0.873176 0.984360
0.797122 0.882368 1.000000
0.844229 0.889320 1.000000
0.865062 0.894553 1.000000
0.027455 0.028391 0.277703
0.064446 0.037824 0.342839
0.142921 0.050214 0.415144
0.283713 0.066352 0.492233
0.474006 0.087152 0.570961
0.070916 0.125321 0.520885
0.155766 0.161076 0.599359
0.303992 0.204376 0.674855
0.496560 0.255347 0.744492
0.669358 0.313385 0.806272
0.169499 0.402204 0.767967
0.324931 0.469673 0.826591
0.518816 0.536503 0.876263
0.685513 0.599886 0.917190
0.788799 0.657574 0.950144
0.346445 0.725345 0.930058
0.540662 0.765324 0.960365
0.700760 0.797983 0.984180
0.796930 0.824098 1.000000
0.844141 0.844623 1.000000
0.561998 0.865569 1.000000
0.715100 0.876587 1.000000
0.804406 0.884952 1.000000
0.847541 0.891267 1.000000
0.866476 0.896015 1.000000
