resources/luts/cool-noir.cube
TITLE "Cool Noir"
LUT_3D_SIZE 17
0.018516 0.019148 0.022304
0.023053 0.020593 0.023988
0.028664 0.022145 0.025796
0.035583 0.023811 0.027736
0.044087 0.025599 0.029819
0.054492 0.027517 0.032052
0.067155 0.029573 0.034448
0.082467 0.031778 0.037016
0.100837 0.034141 0.039768
0.122669 0.036672 0.042716
0.148329 0.039382 0.045873
0.178094 0.042283 0.049252
0.212100 0.045386 0.052867
0.250284 0.048704 0.056733
0.292334 0.052251 0.060863
0.337661 0.056038 0.065275
0.385406 0.060081 0.069985
0.023642 0.028281 0.028477
0.029391 0.030393 0.030614
0.036479 0.032656 0.032905
0.045185 0.035082 0.035362
0.055831 0.037680 0.037996
0.068780 0.040461 0.040818
0.084424 0.043437 0.043841
0.103173 0.046621 0.047077
0.125430 0.050024 0.050540
0.151552 0.053660 0.054245
0.181803 0.057544 0.058205
0.216299 0.061687 0.062436
0.254951 0.066106 0.066955
0.297414 0.070816 0.071777
0.343069 0.075830 0.076919
0.391027 0.081166 0.082399
0.440194 0.086837 0.088234
0.030136 0.041568 0.036300
0.037395 0.044622 0.039001
0.046308 0.047887 0.041895
0.057202 0.051377 0.044994
0.070441 0.055106 0.048311
0.086422 0.059086 0.051860
0.105556 0.063333 0.055656
0.128243 0.067861 0.059713
0.154830 0.072684 0.064047
0.185568 0.077819 0.068674
0.220554 0.083280 0.073611
0.259668 0.089083 0.078874
0.302537 0.095245 0.084481
0.348507 0.101779 0.090450
0.396665 0.108702 0.096799
0.445893 0.116029 0.103547
0.494975 0.123773 0.110710
0.038334 0.060668 0.046175
0.047458 0.065019 0.049575
0.058603 0.069657 0.053213
0.072138 0.074597 0.057102
0.088462 0.079854 0.061258
0.107987 0.085444 0.065697
0.131107 0.091381 0.070435
0.158163 0.097682 0.075488
0.189391 0.104363 0.080875
0.224864 0.111437 0.086612
0.264436 0.118921 0.092717
0.307702 0.126827 0.099209
0.353976 0.135169 0.106105
0.402316 0.143959 0.113425
0.451591 0.153207 0.121185
0.500577 0.162923 0.129404
0.548078 0.173114 0.138097
0.048635 0.087657 0.058583
0.060036 0.093731 0.062841
0.073873 0.100175 0.067386
0.090545 0.107003 0.072237
0.110466 0.114232 0.077410
0.134025 0.121874 0.082922
0.161553 0.129944 0.088791
0.193270 0.138455 0.095035
0.229228 0.147418 0.101672
0.269253 0.156843 0.108720
0.312906 0.166739 0.116198
0.359471 0.177112 0.124123
0.407981 0.187968 0.132513
0.457285 0.199308 0.141384
0.506159 0.211132 0.150752
0.553417 0.223437 0.160633
0.598030 0.236217 0.171039
0.061502 0.124889 0.074082
0.075645 0.133125 0.079376
0.092672 0.141806 0.085016
0.112993 0.150944 0.091020
0.136995 0.160547 0.097405
0.164998 0.170623 0.104189
0.197207 0.181179 0.111392
0.233648 0.192219 0.119031
0.274119 0.203743 0.127123
0.318150 0.215750 0.135686
0.364993 0.228237 0.144736
0.413656 0.241194 0.154289
0.462973 0.254613 0.164360
0.511719 0.268479 0.174961
0.558721 0.282774 0.186103
0.602972 0.297477 0.197797
0.643705 0.312564 0.210049
0.077456 0.174577 0.093299
0.094842 0.185316 0.099827
0.115569 0.196540 0.106762
0.140019 0.208248 0.114122
0.168500 0.220438 0.121923
0.201200 0.233105 0.130185
0.238121 0.246239 0.138923
0.279033 0.259829 0.148155
0.323432 0.273860 0.157895
0.370540 0.288313 0.168157
0.419340 0.303165 0.178954
0.468654 0.318390 0.190296
0.517256 0.333959 0.202192
0.563987 0.349839 0.214649
0.607866 0.365995 0.227669
0.648157 0.382387 0.241253
0.684401 0.398975 0.255399
0.097057 0.238040 0.116910
0.118195 0.251349 0.124877
0.143096 0.265109 0.133310
0.172058 0.279303 0.142226
0.205249 0.293910 0.151641
0.242648 0.308907 0.161570
0.283994 0.324266 0.172026
0.328750 0.339958 0.183020
0.376109 0.355947 0.194563
0.425030 0.372197 0.206662
0.474325 0.388668 0.219323
0.522768 0.405319 0.232549
0.569216 0.422106 0.246338
0.612712 0.438984 0.260687
0.652554 0.455905 0.275590
0.688315 0.472825 0.291033
0.719833 0.489695 0.307004
0.120872 0.314701 0.145596
0.146228 0.330190 0.155196
0.175673 0.345999 0.165315
0.209355 0.362092 0.175965
0.247228 0.378431 0.187158
0.289000 0.394976 0.198903
0.334103 0.411684 0.211206
0.381699 0.428510 0.224073
0.430726 0.445410 0.237504
0.479984 0.462336 0.251498
0.528252 0.479242 0.266049
0.574404 0.496081 0.281150
0.617510 0.512808 0.296788
0.656896 0.529377 0.312945
0.692171 0.545746 0.329603
0.723199 0.561873 0.346736
0.750064 0.577722 0.364315
0.149415 0.401307 0.179977
0.179344 0.418065 0.191370
0.213517 0.434925 0.203317
0.251860 0.451840 0.215825
0.294051 0.468764 0.228897
0.339490 0.485650 0.242534
0.387309 0.502452 0.256731
0.436425 0.519123 0.271484
0.485631 0.535621 0.286782
0.533709 0.551903 0.302611
0.579552 0.567929 0.318953
0.622257 0.583662 0.335787
0.661184 0.599068 0.353085
0.695970 0.614115 0.370819
0.726510 0.628775 0.388953
0.752908 0.643025 0.407450
0.775419 0.656844 0.426267
0.183072 0.492046 0.220519
0.217735 0.508803 0.233797
0.256544 0.525414 0.247638
0.299146 0.541835 0.262038
0.344908 0.558024 0.276991
0.392936 0.573943 0.292484
0.442125 0.589556 0.308502
0.491262 0.604828 0.325026
0.539135 0.619732 0.342032
0.584657 0.634239 0.359493
0.626954 0.648327 0.377377
0.665416 0.661977 0.395647
0.699713 0.675173 0.414266
0.729766 0.687902 0.433189
0.755699 0.700156 0.452371
0.777783 0.711929 0.471764
0.796377 0.723217 0.491315
0.222008 0.579913 0.267419
0.261278 0.595400 0.282569
0.304283 0.610535 0.298256
0.350357 0.625291 0.314460
0.398578 0.639642 0.331163
0.447825 0.653566 0.348338
0.496876 0.667045 0.365957
0.544530 0.680065 0.383985
0.589720 0.692614 0.402388
0.631599 0.704686 0.421122
0.669592 0.716274 0.440145
0.703399 0.727378 0.459410
0.732967 0.737999 0.478866
0.758439 0.748139 0.498463
0.780101 0.757805 0.518146
0.798318 0.767003 0.537862
0.813496 0.775745 0.557556
0.266063 0.658740 0.320485
0.309461 0.672046 0.337362
0.355835 0.684888 0.354703
0.404234 0.697257 0.372475
0.453521 0.709146 0.390644
0.502471 0.720550 0.409172
0.549892 0.731470 0.428017
0.594737 0.741907 0.447133
0.636192 0.751867 0.466474
0.673712 0.761354 0.485987
0.707028 0.770378 0.505621
0.736112 0.778948 0.525323
0.761129 0.787076 0.545037
0.782372 0.794775 0.564710
0.800218 0.802057 0.584288
0.815072 0.808938 0.603716
0.827342 0.815432 0.622945
0.314679 0.724756 0.379045
0.361340 0.735492 0.397350
0.409903 0.745747 0.415998
0.459214 0.755526 0.434948
0.508046 0.764836 0.454151
0.555219 0.773687 0.473560
0.599710 0.782087 0.493124
0.640733 0.790051 0.512789
0.677776 0.797590 0.532502
0.710600 0.804718 0.552207
0.739204 0.811450 0.571852
0.763767 0.817801 0.591381
0.784599 0.823786 0.610743
0.802077 0.829421 0.629886
0.816613 0.834721 0.648764
0.828610 0.839702 0.667329
0.838452 0.844380 0.685540
0.366870 0.776931 0.441912
0.415581 0.785164 0.461196
0.464899 0.792964 0.480668
0.513598 0.800346 0.500274
0.560510 0.807322 0.519963
0.604635 0.813907 0.539679
0.645220 0.820117 0.559369
0.681783 0.825967 0.578978
0.714116 0.831473 0.598452
0.742241 0.836650 0.617740
0.766356 0.841514 0.636792
0.786780 0.846080 0.655561
0.803898 0.850364 0.674002
0.818120 0.854379 0.692074
0.829850 0.858140 0.709739
0.839466 0.861661 0.726965
0.847311 0.864956 0.743721
0.421267 0.816310 0.507436
0.470577 0.822381 0.527141
0.519126 0.828099 0.546854
0.565763 0.833478 0.566520
0.609514 0.838534 0.586086
0.649653 0.843283 0.605498
0.685734 0.847740 0.624706
0.717576 0.851920 0.643660
0.745225 0.855837 0.662315
0.768896 0.859505 0.680626
0.788918 0.862939 0.698554
0.805680 0.866151 0.716063
0.819594 0.869154 0.733121
0.831061 0.871961 0.749699
0.840456 0.874582 0.765774
0.848117 0.877030 0.781326
0.854339 0.879315 0.796339
0.476244 0.845010 0.573658
0.524629 0.849360 0.593174
0.570978 0.853438 0.612517
0.614343 0.857259 0.631639
0.654032 0.860837 0.650489
0.689628 0.864185 0.669023
0.720980 0.867316 0.687199
0.748156 0.870243 0.704979
0.771387 0.872978 0.722327
0.791012 0.875532 0.739213
0.807424 0.877917 0.755611
0.821035 0.880142 0.771498
0.832245 0.882218 0.786855
0.841423 0.884153 0.801668
0.848904 0.885958 0.815927
0.854977 0.887640 0.829626
0.859892 0.889206 0.842760
0.018980 0.019627 0.026470
0.023627 0.021108 0.028460
0.029373 0.022698 0.030595
0.036456 0.024404 0.032885
0.045157 0.026235 0.035340
0.055798 0.028199 0.037973
0.068739 0.030305 0.040793
0.084375 0.032562 0.043814
0.103115 0.034981 0.047048
0.125361 0.037571 0.050509
0.151471 0.040345 0.054212
0.181710 0.043313 0.058170
0.216195 0.046488 0.062399
0.254835 0.049882 0.066915
0.297288 0.053509 0.071734
0.342935 0.057382 0.076873
0.390888 0.061515 0.082350
0.024230 0.028982 0.033759
0.030117 0.031144 0.036278
0.037372 0.033461 0.038977
0.046280 0.035944 0.041869
0.057167 0.038603 0.044966
0.070399 0.041449 0.048281
0.086372 0.044494 0.051829
0.105497 0.047751 0.055622
0.128172 0.051232 0.059677
0.154748 0.054951 0.064009
0.185475 0.058921 0.068633
0.220448 0.063157 0.073567
0.259551 0.067672 0.078827
0.302410 0.072484 0.084431
0.348373 0.077605 0.090397
0.396525 0.083053 0.096743
0.445753 0.088842 0.103487
0.030880 0.042582 0.042972
0.038311 0.045706 0.046147
0.047430 0.049047 0.049545
0.058568 0.052616 0.053180
0.072096 0.056429 0.057067
0.088411 0.060498 0.061221
0.107926 0.064838 0.065657
0.131036 0.069465 0.070393
0.158080 0.074392 0.075443
0.189296 0.079636 0.080827
0.224756 0.085212 0.086561
0.264318 0.091135 0.092663
0.307574 0.097421 0.099151
0.353840 0.104086 0.106044
0.402177 0.111144 0.113360
0.451451 0.118611 0.121116
0.500439 0.126500 0.129331
0.039271 0.062114 0.054566
0.048606 0.066562 0.058548
0.060001 0.071300 0.062803
0.073829 0.076346 0.067346
0.090494 0.081714 0.072194
0.110404 0.087420 0.077364
0.133952 0.093479 0.082873
0.161468 0.099908 0.088739
0.193174 0.106720 0.094979
0.229120 0.113932 0.101613
0.269134 0.121558 0.108658
0.312777 0.129610 0.116132
0.359335 0.138103 0.124053
0.407841 0.147048 0.132439
0.457145 0.156454 0.141305
0.506021 0.166330 0.150669
0.553286 0.176685 0.160546
0.049809 0.089680 0.069075
0.061465 0.095877 0.074038
0.075601 0.102450 0.079329
0.092619 0.109413 0.084966
0.112930 0.116780 0.090966
0.136921 0.124566 0.097348
0.164912 0.132785 0.104129
0.197109 0.141448 0.111328
0.233538 0.150566 0.118963
0.273998 0.160150 0.127051
0.318020 0.170208 0.135610
0.364857 0.180744 0.144656
0.413515 0.191764 0.154205
0.462833 0.203269 0.164271
0.511582 0.215257 0.174867
0.558590 0.227724 0.186005
0.602850 0.240663 0.197694
0.062963 0.127637 0.087108
0.077411 0.136023 0.093245
0.094788 0.144858 0.099770
0.115505 0.154152 0.106701
0.139943 0.163915 0.114056
0.168413 0.174154 0.121854
0.201100 0.184874 0.130112
0.238010 0.196078 0.138846
0.278911 0.207767 0.148074
0.323301 0.219937 0.157809
0.370403 0.232585 0.168067
0.419199 0.245700 0.178859
0.468514 0.259273 0.190196
0.517119 0.273286 0.202088
0.563858 0.287722 0.214539
0.607746 0.302559 0.227554
0.648047 0.317769 0.241134
0.079259 0.178170 0.109329
0.097002 0.189074 0.116843
0.118130 0.200462 0.124806
0.143020 0.212334 0.133236
0.171970 0.224687 0.142148
0.205148 0.237513 0.151558
0.242536 0.250804 0.161482
0.283870 0.264546 0.171933
0.328618 0.278722 0.182923
0.375971 0.293313 0.194461
0.424890 0.308295 0.206556
0.474185 0.323640 0.219212
0.522632 0.339319 0.232433
0.569087 0.355297 0.246217
0.612593 0.371537 0.260562
0.652446 0.388001 0.275459
0.688219 0.404645 0.290898
0.099261 0.242508 0.136423
0.120805 0.255972 0.145515
0.146150 0.269882 0.155111
0.175583 0.284218 0.165226
0.209253 0.298961 0.175871
0.247114 0.314084 0.187060
0.288876 0.329560 0.198800
0.333971 0.345356 0.211098
0.381561 0.361438 0.223960
0.430585 0.377768 0.237386
0.479845 0.394305 0.251375
0.528117 0.411007 0.265922
0.574277 0.427830 0.281018
0.617392 0.444728 0.296651
0.656790 0.461654 0.312804
0.692076 0.478562 0.329458
0.723117 0.495404 0.346586
0.123531 0.319924 0.169039
0.149335 0.335525 0.179881
0.179253 0.351434 0.191269
0.213413 0.367615 0.203212
0.251745 0.384029 0.215715
0.293926 0.400634 0.228782
0.339356 0.417387 0.242414
0.387170 0.434244 0.256607
0.436284 0.451158 0.271355
0.485491 0.468082 0.286648
0.533574 0.484971 0.302472
0.579425 0.501777 0.318810
0.622140 0.518454 0.335640
0.661079 0.534960 0.352935
0.695877 0.551252 0.370665
0.726429 0.567289 0.388796
0.752838 0.583034 0.407289
0.152576 0.406984 0.207699
0.182980 0.423782 0.220407
0.217630 0.440665 0.233680
0.256427 0.457589 0.247516
0.299019 0.474505 0.261912
0.344774 0.491368 0.276860
0.392797 0.508130 0.292348
0.441984 0.524748 0.308362
0.491123 0.541177 0.324882
0.539001 0.557376 0.341884
0.584532 0.573307 0.359341
0.626838 0.588932 0.377221
0.665312 0.604219 0.395489
0.699621 0.619138 0.414104
0.729686 0.633662 0.433025
0.755631 0.647767 0.452206
0.777725 0.661435 0.471596
0.186763 0.497750 0.252693
0.221902 0.514463 0.267291
0.261161 0.531014 0.282437
0.304155 0.547361 0.298118
0.350222 0.563463 0.314319
0.398439 0.579281 0.331017
0.447684 0.594782 0.348188
0.496737 0.609932 0.365803
0.544397 0.624704 0.383829
0.589595 0.639071 0.402228
0.631485 0.653013 0.420960
0.669490 0.666510 0.439981
0.703308 0.679549 0.459243
0.732888 0.692118 0.478698
0.758372 0.704208 0.498294
0.780044 0.715816 0.517976
0.798270 0.726940 0.537692
0.226229 0.585210 0.303957
0.265944 0.600581 0.320342
0.309332 0.615590 0.337215
0.355699 0.630211 0.354552
0.404095 0.644419 0.372320
0.453381 0.658194 0.390486
0.502333 0.671519 0.409011
0.549760 0.684380 0.427854
0.594614 0.696768 0.446968
0.636079 0.708676 0.466307
0.673611 0.720100 0.485819
0.706939 0.731039 0.505452
0.736035 0.741496 0.525153
0.761063 0.751474 0.544868
0.782317 0.760980 0.564541
0.800171 0.770023 0.584120
0.815033 0.778611 0.603550
0.270777 0.663310 0.360972
0.314550 0.676460 0.378889
0.361204 0.689142 0.397191
0.409763 0.701349 0.415837
0.459073 0.713073 0.434783
0.507908 0.724313 0.453985
0.555088 0.735069 0.473393
0.599587 0.745343 0.492955
0.640621 0.755141 0.512620
0.677676 0.764470 0.532332
0.710513 0.773339 0.552038
0.739128 0.781757 0.571683
0.763703 0.789738 0.591214
0.784544 0.797294 0.610577
0.802032 0.804438 0.629723
0.816575 0.811186 0.648602
0.828579 0.817552 0.667171
0.319806 0.728456 0.422702
0.366733 0.739029 0.441747
0.415441 0.749121 0.461030
0.464759 0.758740 0.480500
0.513461 0.767893 0.500105
0.560380 0.776589 0.519793
0.604514 0.784840 0.539510
0.645109 0.792658 0.559200
0.681685 0.800056 0.578809
0.714030 0.807048 0.598285
0.742167 0.813649 0.617575
0.766293 0.819874 0.636629
0.786727 0.825738 0.655401
0.803854 0.831258 0.673845
0.818083 0.836448 0.691920
0.829819 0.841324 0.709589
0.839441 0.845902 0.726819
0.372287 0.779776 0.487624
0.421127 0.787861 0.507266
0.470437 0.795517 0.526971
0.518990 0.802759 0.546684
0.565634 0.809601 0.566351
0.609394 0.816057 0.585918
0.649544 0.822143 0.605332
0.685637 0.827875 0.624542
0.717491 0.833268 0.643499
0.745152 0.838337 0.662156
0.768834 0.843098 0.680470
0.788866 0.847566 0.698402
0.805637 0.851757 0.715914
0.819558 0.855684 0.732976
0.831031 0.859362 0.749559
0.840432 0.862805 0.765638
0.848097 0.866026 0.781195
0.426819 0.818412 0.553852
0.476104 0.824362 0.573489
0.524494 0.829963 0.593006
0.570850 0.835231 0.612352
0.614225 0.840181 0.631475
0.653924 0.844829 0.650328
0.689532 0.849190 0.668865
0.720896 0.853279 0.687045
0.748084 0.857110 0.704828
0.771326 0.860697 0.722180
0.790961 0.864054 0.739070
0.807382 0.867194 0.755472
0.821000 0.870129 0.771363
0.832216 0.872871 0.786725
0.841400 0.875433 0.801543
0.848885 0.877824 0.815807
0.854961 0.880055 0.829510
0.481760 0.846519 0.619342
0.529970 0.850775 0.638373
0.576026 0.854764 0.657116
0.619006 0.858501 0.675527
0.658249 0.861999 0.693566
0.693371 0.865272 0.711196
0.724246 0.868332 0.728384
0.750963 0.871193 0.745099
0.773770 0.873865 0.761318
0.793013 0.876361 0.777018
0.809089 0.878690 0.792183
0.822411 0.880863 0.806801
0.833373 0.882890 0.820861
0.842345 0.884780 0.834359
0.849653 0.886542 0.847293
0.855584 0.888184 0.859663
0.860382 0.889714 0.871474
0.019455 0.020118 0.031390
0.024215 0.021635 0.033738
0.030099 0.023264 0.036255
0.037350 0.025012 0.038953
0.046252 0.026887 0.041843
0.057133 0.028898 0.044938
0.070358 0.031054 0.048252
0.086322 0.033365 0.051797
0.105437 0.035841 0.055589
0.128102 0.038492 0.059641
0.154667 0.041331 0.063970
0.185381 0.044368 0.068592
0.220342 0.047616 0.073523
0.259434 0.051087 0.078781
0.302283 0.054796 0.084382
0.348238 0.058756 0.090345
0.396386 0.062980 0.096687
0.024833 0.029699 0.039982
0.030861 0.031913 0.042946
0.038287 0.034285 0.046119
0.047401 0.036827 0.049515
0.058533 0.039548 0.053148
0.072053 0.042460 0.057033
0.088361 0.045576 0.061184
0.107866 0.048908 0.065618
0.130965 0.052468 0.070351
0.157997 0.056270 0.075398
0.189201 0.060329 0.080779
0.224649 0.064658 0.086510
0.264199 0.069272 0.092609
0.307446 0.074187 0.099094
0.353705 0.079418 0.105983
0.402037 0.084980 0.113295
0.451310 0.090889 0.121048
0.031642 0.043619 0.050810
0.039247 0.046816 0.054533
0.048576 0.050232 0.058513
0.059965 0.053883 0.062765
0.073786 0.057781 0.067306
0.090442 0.061941 0.072151
0.110342 0.066377 0.077318
0.133879 0.071104 0.082824
0.161384 0.076137 0.088687
0.193077 0.081491 0.094924
0.229011 0.087183 0.101554
0.269014 0.093228 0.108595
0.312648 0.099641 0.116066
0.359199 0.106438 0.123983
0.407701 0.113634 0.132364
0.457004 0.121242 0.141227
0.505884 0.129277 0.150587
0.040231 0.063593 0.064384
0.049779 0.068137 0.069033
0.061429 0.072979 0.073994
0.075557 0.078132 0.079282
0.092566 0.083613 0.084916
0.112867 0.089438 0.090913
0.136847 0.095620 0.097291
0.164827 0.102178 0.104069
0.197011 0.109124 0.111264
0.233428 0.116475 0.118895
0.273878 0.124244 0.126980
0.317890 0.132445 0.135534
0.364720 0.141090 0.144576
0.413375 0.150190 0.154121
0.462693 0.159755 0.164182
0.511445 0.169793 0.174774
0.558460 0.180310 0.185907
0.051010 0.091743 0.081292
0.062926 0.098067 0.087056
0.077365 0.104770 0.093190
0.094734 0.111868 0.099712
0.115441 0.119376 0.106639
0.139868 0.127308 0.113991
0.168326 0.135676 0.121785
0.201001 0.144493 0.130039
0.237899 0.153768 0.138769
0.278789 0.163512 0.147992
0.323170 0.173732 0.157723
0.370265 0.184433 0.167976
0.419059 0.195617 0.178764
0.468374 0.207286 0.190097
0.516983 0.219437 0.201983
0.563728 0.232066 0.214430
0.607625 0.245163 0.227440
0.064457 0.130435 0.102186
0.079213 0.138972 0.109266
0.096947 0.147962 0.116777
0.118065 0.157415 0.124736
0.142943 0.167339 0.133161
0.171881 0.177741 0.142069
0.205048 0.188625 0.151475
0.242423 0.199993 0.161395
0.283747 0.211846 0.171841
0.328487 0.224179 0.182826
0.375834 0.236987 0.194360
0.424749 0.250259 0.206449
0.474045 0.263983 0.219101
0.522496 0.278143 0.232317
0.568958 0.292717 0.246096
0.612474 0.307684 0.260436
0.652338 0.323015 0.275329
0.081101 0.181819 0.127748
0.099204 0.192887 0.136347
0.120738 0.204440 0.145435
0.146072 0.216475 0.155026
0.175493 0.228990 0.165136
0.209151 0.241975 0.175777
0.247000 0.255421 0.186961
0.288751 0.269312 0.198696
0.333838 0.283632 0.210990
0.381423 0.298359 0.223847
0.430445 0.313467 0.237268
0.479705 0.328929 0.251252
0.527982 0.344713 0.265794
0.574149 0.360785 0.280886
0.617274 0.377105 0.296514
0.656683 0.393635 0.312663
0.691982 0.410331 0.329312
0.101508 0.247030 0.158646
0.123463 0.260647 0.168948
0.149256 0.274703 0.179786
0.179161 0.289180 0.191169
0.213310 0.304055 0.203107
0.251630 0.319301 0.215605
0.293800 0.334890 0.228668
0.339223 0.350787 0.242294
0.387031 0.366958 0.256482
0.436143 0.383363 0.271225
0.485352 0.399961 0.286514
0.533440 0.416709 0.302334
0.579299 0.433563 0.318668
0.622024 0.450475 0.335493
0.660973 0.467400 0.352784
0.695784 0.484291 0.370510
0.726348 0.501101 0.388638
0.126239 0.325185 0.195451
0.152495 0.340895 0.207592
0.182887 0.356901 0.220296
0.217525 0.373165 0.233563
0.256311 0.389648 0.247395
0.298893 0.406309 0.261786
0.344640 0.423102 0.276729
0.392657 0.439984 0.292213
0.441844 0.456906 0.308222
0.490984 0.473824 0.324738
0.538868 0.490690 0.341736
0.584406 0.507457 0.359189
0.626723 0.524081 0.377066
0.665208 0.540519 0.395330
0.699529 0.556728 0.413943
0.729606 0.572670 0.432861
0.755563 0.588309 0.452040
0.155789 0.412676 0.238534
0.186669 0.429508 0.252570
0.221795 0.446411 0.267163
0.261043 0.463337 0.282304
0.304028 0.480240 0.297981
0.350087 0.497074 0.314177
0.398299 0.513792 0.330871
0.447543 0.530351 0.348039
0.496599 0.546706 0.365650
0.544264 0.562819 0.383672
0.589471 0.578649 0.402068
0.631371 0.594164 0.420797
0.669387 0.609329 0.439816
0.703218 0.624116 0.459077
0.732810 0.638500 0.478530
0.758305 0.652459 0.498125
0.779987 0.665975 0.517807
0.190508 0.503442 0.287951
0.226121 0.520104 0.303819
0.265825 0.536591 0.320199
0.309204 0.552858 0.337068
0.355564 0.568868 0.354401
0.403955 0.584583 0.372165
0.453240 0.599968 0.390328
0.502195 0.614993 0.408850
0.549628 0.629630 0.427690
0.594491 0.643855 0.446803
0.635966 0.657647 0.466139
0.673510 0.670990 0.485650
0.706850 0.683870 0.505283
0.735958 0.696278 0.524984
0.760997 0.708205 0.544698
0.782261 0.719648 0.564373
0.800125 0.730607 0.583952
0.230502 0.590468 0.343326
0.270657 0.605720 0.360820
0.314420 0.620601 0.378734
0.361067 0.635084 0.397032
0.409622 0.649147 0.415675
0.458933 0.662770 0.434619
0.507771 0.675939 0.453819
0.554956 0.688640 0.473225
0.599465 0.700866 0.492786
0.640509 0.712610 0.512450
0.677576 0.723869 0.532162
0.710425 0.734644 0.551869
0.739052 0.744938 0.571514
0.763638 0.754755 0.591046
0.784490 0.764103 0.610411
0.801987 0.772990 0.629559
0.816537 0.781426 0.648441
0.275537 0.667828 0.403781
0.319675 0.680820 0.422539
0.366597 0.693341 0.441582
0.415300 0.705384 0.460863
0.464619 0.716944 0.480331
0.513324 0.728020 0.499936
0.560249 0.738612 0.519624
0.604393 0.748724 0.539340
0.644999 0.758361 0.559031
0.681587 0.767533 0.578641
0.713944 0.776247 0.598118
0.742092 0.784516 0.617410
0.766230 0.792351 0.636467
0.786674 0.799766 0.655241
0.803809 0.806774 0.673688
0.818046 0.813390 0.691766
0.829789 0.819630 0.709439
0.324968 0.732101 0.467932
0.372150 0.742510 0.487456
0.420986 0.752441 0.507097
0.470297 0.761900 0.526801
0.518854 0.770897 0.546515
0.565505 0.779441 0.566182
0.609274 0.787543 0.585750
0.649435 0.795217 0.605166
0.685540 0.802475 0.624378
0.717407 0.809333 0.643337
0.745079 0.815804 0.661997
0.768772 0.821905 0.680314
0.788813 0.827651 0.698249
0.805593 0.833056 0.715766
0.819522 0.838138 0.732831
0.831002 0.842912 0.749418
0.840408 0.847391 0.765502
0.377725 0.782570 0.533980
0.426679 0.790508 0.553683
0.475964 0.798023 0.573321
0.524358 0.805127 0.592839
0.570722 0.811836 0.612186
0.614106 0.818165 0.631312
0.653816 0.824129 0.650167
0.689437 0.829744 0.668707
0.720813 0.835025 0.686890
0.748012 0.839987 0.704676
0.771265 0.844647 0.722032
0.790909 0.849020 0.738927
0.807339 0.853119 0.755333
0.820965 0.856960 0.771229
0.832187 0.860557 0.786595
0.841376 0.863923 0.801418
0.848865 0.867071 0.815687
0.432376 0.820473 0.599905
0.481620 0.826302 0.619178
0.529835 0.831788 0.638210
0.575899 0.836947 0.656956
0.618889 0.841793 0.675370
0.658143 0.846341 0.693413
0.693277 0.850608 0.711047
0.724164 0.854608 0.728238
0.750893 0.858355 0.744958
0.773710 0.861862 0.761180
0.792963 0.865144 0.776885
0.809048 0.868213 0.792055
0.822376 0.871081 0.806677
0.833345 0.873761 0.820743
0.842322 0.876263 0.834246
0.849634 0.878599 0.847184
0.855569 0.880778 0.859559
0.487262 0.847995 0.663700
0.535283 0.852159 0.681984
0.581034 0.856061 0.699882
0.623622 0.859715 0.717358
0.662415 0.863135 0.734381
0.697060 0.866334 0.750922
0.727458 0.869326 0.766959
0.753721 0.872121 0.782471
0.776108 0.874732 0.797443
0.794974 0.877170 0.811863
0.810720 0.879445 0.825724
0.823756 0.881568 0.839021
0.834477 0.883547 0.851754
0.843245 0.885393 0.863925
0.850385 0.887113 0.875539
0.856177 0.888716 0.886602
0.860861 0.890209 0.897126
0.019942 0.020621 0.037193
0.024817 0.022176 0.039958
0.030842 0.023844 0.042919
0.038264 0.025634 0.046091
0.047372 0.027554 0.049485
0.058498 0.029613 0.053116
0.072011 0.031821 0.056998
0.088310 0.034187 0.061147
0.107805 0.036721 0.065579
0.130893 0.039435 0.070309
0.157914 0.042339 0.075354
0.189106 0.045446 0.080731
0.224542 0.048769 0.086459
0.264081 0.052320 0.092555
0.307318 0.056112 0.099036
0.353569 0.060160 0.105922
0.401897 0.064478 0.113231
0.025450 0.030434 0.047300
0.031622 0.032700 0.050779
0.039223 0.035129 0.054499
