resources/luts/cool-noir.cube
TITLE "Cool Noir"
LUT_3D_SIZE 9
0.018516 0.019148 0.022304
0.028664 0.022145 0.025796
0.044087 0.025599 0.029819
0.067155 0.029573 0.034448
0.100837 0.034141 0.039768
0.148329 0.039382 0.045873
0.212100 0.045386 0.052867
0.292334 0.052251 0.060863
0.385406 0.060081 0.069985
0.030136 0.041568 0.036300
0.046308 0.047887 0.041895
0.070441 0.055106 0.048311
0.105556 0.063333 0.055656
0.154830 0.072684 0.064047
0.220554 0.083280 0.073611
0.302537 0.095245 0.084481
0.396665 0.108702 0.096799
0.494975 0.123773 0.110710
0.048635 0.087657 0.058583
0.073873 0.100175 0.067386
0.110466 0.114232 0.077410
0.161553 0.129944 0.088791
0.229228 0.147418 0.101672
0.312906 0.166739 0.116198
0.407981 0.187968 0.132513
0.506159 0.211132 0.150752
0.598030 0.236217 0.171039
0.077456 0.174577 0.093299
0.115569 0.196540 0.106762
0.168500 0.220438 0.121923
0.238121 0.246239 0.138923
0.323432 0.273860 0.157895
0.419340 0.303165 0.178954
0.517256 0.333959 0.202192
0.607866 0.365995 0.227669
0.684401 0.398975 0.255399
0.120872 0.314701 0.145596
0.175673 0.345999 0.165315
0.247228 0.378431 0.187158
0.334103 0.411684 0.211206
0.430726 0.445410 0.237504
0.528252 0.479242 0.266049
0.617510 0.512808 0.296788
0.692171 0.545746 0.329603
0.750064 0.577722 0.364315
0.183072 0.492046 0.220519
0.256544 0.525414 0.247638
0.344908 0.558024 0.276991
0.442125 0.589556 0.308502
0.539135 0.619732 0.342032
0.626954 0.648327 0.377377
0.699713 0.675173 0.414266
0.755699 0.700156 0.452371
0.796377 0.723217 0.491315
0.266063 0.658740 0.320485
0.355835 0.684888 0.354703
0.453521 0.709146 0.390644
0.549892 0.731470 0.428017
0.636192 0.751867 0.466474
0.707028 0.770378 0.505621
0.761129 0.787076 0.545037
0.800218 0.802057 0.584288
0.827342 0.815432 0.622945
0.366870 0.776931 0.441912
0.464899 0.792964 0.480668
0.560510 0.807322 0.519963
0.645220 0.820117 0.559369
0.714116 0.831473 0.598452
0.766356 0.841514 0.636792
0.803898 0.850364 0.674002
0.829850 0.858140 0.709739
0.847311 0.864956 0.743721
0.476244 0.845010 0.573658
0.570978 0.853438 0.612517
0.654032 0.860837 0.650489
0.720980 0.867316 0.687199
0.771387 0.872978 0.722327
0.807424 0.877917 0.755611
0.832245 0.882218 0.786855
0.848904 0.885958 0.815927
0.859892 0.889206 0.842760
0.019455 0.020118 0.031390
0.030099 0.023264 0.036255
0.046252 0.026887 0.041843
0.070358 0.031054 0.048252
0.105437 0.035841 0.055589
0.154667 0.041331 0.063970
0.220342 0.047616 0.073523
0.302283 0.054796 0.084382
0.396386 0.062980 0.096687
0.031642 0.043619 0.050810
0.048576 0.050232 0.058513
0.073786 0.057781 0.067306
0.110342 0.066377 0.077318
0.161384 0.076137 0.088687
0.229011 0.087183 0.101554
0.312648 0.099641 0.116066
0.407701 0.113634 0.132364
0.505884 0.129277 0.150587
0.051010 0.091743 0.081292
0.077365 0.104770 0.093190
0.115441 0.119376 0.106639
0.168326 0.135676 0.121785
0.237899 0.153768 0.138769
0.323170 0.173732 0.157723
0.419059 0.195617 0.178764
0.516983 0.219437 0.201983
0.607625 0.245163 0.227440
0.081101 0.181819 0.127748
0.120738 0.204440 0.145435
0.175493 0.228990 0.165136
0.247000 0.255421 0.186961
0.333838 0.283632 0.210990
0.430445 0.313467 0.237268
0.527982 0.344713 0.265794
0.617274 0.377105 0.296514
0.691982 0.410331 0.329312
0.126239 0.325185 0.195451
0.182887 0.356901 0.220296
0.256311 0.389648 0.247395
0.344640 0.423102 0.276729
0.441844 0.456906 0.308222
0.538868 0.490690 0.341736
0.626723 0.524081 0.377066
0.699529 0.556728 0.413943
0.755563 0.588309 0.452040
0.190508 0.503442 0.287951
0.265825 0.536591 0.320199
0.355564 0.568868 0.354401
0.453240 0.599968 0.390328
0.549628 0.629630 0.427690
0.635966 0.657647 0.466139
0.706850 0.683870 0.505283
0.760997 0.708205 0.544698
0.800125 0.730607 0.583952
0.275537 0.667828 0.403781
0.366597 0.693341 0.441582
0.464619 0.716944 0.480331
0.560249 0.738612 0.519624
0.644999 0.758361 0.559031
0.713944 0.776247 0.598118
0.766230 0.792351 0.636467
0.803809 0.806774 0.673688
0.829789 0.819630 0.709439
0.377725 0.782570 0.533980
0.475964 0.798023 0.573321
0.570722 0.811836 0.612186
0.653816 0.824129 0.650167
0.720813 0.835025 0.686890
0.771265 0.844647 0.722032
0.807339 0.853119 0.755333
0.832187 0.860557 0.786595
0.848865 0.867071 0.815687
0.487262 0.847995 0.663700
0.581034 0.856061 0.699882
0.662415 0.863135 0.734381
0.727458 0.869326 0.766959
0.776108 0.874732 0.797443
0.810720 0.879445 0.825724
0.834477 0.883547 0.851754
0.850385 0.887113 0.875539
0.860861 0.890209 0.897126
0.020440 0.021137 0.044022
0.031603 0.024438 0.050748
0.048518 0.028237 0.058442
0.073700 0.032606 0.067225
0.110219 0.037622 0.077226
0.161215 0.043371 0.088583
0.228795 0.049948 0.101437
0.312390 0.057457 0.115933
0.407421 0.066008 0.132216
0.033220 0.045767 0.070718
0.050949 0.052686 0.081196
0.077275 0.060577 0.093081
0.115313 0.069555 0.106517
0.168151 0.079738 0.121647
0.237677 0.091250 0.138615
0.322909 0.104215 0.157551
0.418778 0.118756 0.178574
0.516710 0.134985 0.201774
0.053494 0.095998 0.111821
0.081007 0.109547 0.127605
0.120605 0.124717 0.145274
0.175313 0.141615 0.164958
0.246773 0.160335 0.186764
0.333573 0.180947 0.210774
0.430163 0.203490 0.237032
0.527712 0.227963 0.265539
0.617038 0.254320 0.296241
0.084900 0.189283 0.172646
0.126100 0.212562 0.195247
0.182701 0.237759 0.220072
0.256079 0.264809 0.247152
0.344371 0.293592 0.276467
0.441562 0.323932 0.307942
0.538600 0.355600 0.341439
0.626492 0.388312 0.376755
0.699346 0.421744 0.413620
0.131803 0.335822 0.257569
0.190317 0.367922 0.287682
0.265588 0.400948 0.319913
0.355292 0.434562 0.354099
0.452959 0.468400 0.390013
0.549363 0.502092 0.427364
0.635741 0.535269 0.465805
0.706672 0.567588 0.504944
0.760865 0.598740 0.544359
0.198160 0.514776 0.366988
0.275295 0.547666 0.403462
0.366323 0.579576 0.441252
0.464338 0.610214 0.479995
0.559989 0.639338 0.519285
0.644779 0.666760 0.558693
0.713772 0.692349 0.597785
0.766103 0.716030 0.636141
0.803720 0.737775 0.673373
0.285191 0.676703 0.494258
0.377449 0.701574 0.533641
0.475685 0.724520 0.572984
0.570465 0.745532 0.611855
0.653601 0.764641 0.649845
0.720646 0.781911 0.686580
0.771143 0.797432 0.721738
0.807254 0.811309 0.755055
0.832129 0.823661 0.786335
0.388658 0.788009 0.625809
0.486984 0.802892 0.663383
0.580781 0.816175 0.699578
0.662205 0.827980 0.734092
0.727297 0.838429 0.766687
0.775991 0.847647 0.797190
0.810638 0.855755 0.825490
0.834421 0.862868 0.851540
0.850348 0.869092 0.875344
0.498221 0.850852 0.746192
0.590928 0.858569 0.778042
0.670586 0.865331 0.807752
0.733727 0.871245 0.835235
0.780650 0.876406 0.860464
0.813877 0.880903 0.883460
0.836610 0.884815 0.904285
0.851798 0.888214 0.923035
0.861785 0.891164 0.939827
0.021474 0.022206 0.061433
0.033179 0.025669 0.070634
0.050887 0.029653 0.081100
0.077185 0.034233 0.092973
0.115184 0.039487 0.106394
0.167977 0.045507 0.121510
0.237455 0.052389 0.138461
0.322647 0.060239 0.157380
0.418497 0.069170 0.178384
0.034874 0.048014 0.097672
0.053430 0.055251 0.111693
0.080913 0.063498 0.127461
0.120472 0.072871 0.145114
0.175133 0.083492 0.164780
0.246546 0.095484 0.186567
0.333308 0.108971 0.210558
0.429882 0.124072 0.236797
0.527441 0.140899 0.265285
0.056090 0.100425 0.152034
0.084801 0.114512 0.172461
0.125962 0.130256 0.195043
0.182516 0.147764 0.219849
0.255846 0.167120 0.246910
0.344103 0.188386 0.276206
0.441280 0.211586 0.307663
0.538333 0.236707 0.341143
0.626261 0.263683 0.376444
0.088856 0.196972 0.229440
0.131659 0.220906 0.257319
0.190126 0.246742 0.287414
0.265351 0.274397 0.319627
0.355021 0.303731 0.353797
0.452677 0.334551 0.389697
0.549099 0.366608 0.427037
0.635515 0.399602 0.465471
0.706494 0.433199 0.504606
0.137567 0.346600 0.331851
0.197964 0.379050 0.366681
0.275052 0.412315 0.403142
0.366049 0.446047 0.440923
0.464057 0.479877 0.479659
0.559728 0.513434 0.518946
0.644558 0.546357 0.558354
0.713599 0.578312 0.597451
0.765976 0.609006 0.635816
0.206027 0.526036 0.454935
0.284945 0.558628 0.493920
0.377173 0.590137 0.533302
0.475405 0.620285 0.572647
0.570208 0.648849 0.611524
0.653386 0.675661 0.649523
0.720479 0.700608 0.686271
0.771021 0.723632 0.721443
0.807168 0.744722 0.754777
0.295019 0.685363 0.586877
0.388380 0.709583 0.625481
0.486705 0.731872 0.663065
0.580529 0.752232 0.699273
0.661995 0.770708 0.733803
0.727135 0.787374 0.766416
0.775873 0.802323 0.796937
0.810556 0.815669 0.825256
0.834366 0.827531 0.851326
0.399656 0.793250 0.712052
0.497944 0.807576 0.745909
0.590680 0.820344 0.777777
0.670382 0.831674 0.807505
0.733571 0.841692 0.835009
0.780537 0.850520 0.860257
0.813799 0.858277 0.883272
0.836557 0.865076 0.904115
0.851763 0.871022 0.922882
0.509106 0.853587 0.817779
0.600652 0.860967 0.844462
0.678544 0.867430 0.868892
0.739787 0.873077 0.891107
0.785018 0.878003 0.911182
0.816903 0.882293 0.929221
0.838648 0.886023 0.945349
0.853145 0.889263 0.959702
0.862665 0.892074 0.972425
0.022559 0.023328 0.085152
0.034831 0.026960 0.097559
0.053365 0.031138 0.111566
0.080819 0.035937 0.127318
0.120339 0.041441 0.144954
0.174954 0.047742 0.164602
0.246319 0.054941 0.186370
0.333043 0.063145 0.210342
0.429600 0.072470 0.236562
0.036607 0.050366 0.133513
0.056023 0.057933 0.151868
0.084703 0.066549 0.172276
0.125824 0.076332 0.194839
0.182331 0.087404 0.219626
0.255614 0.099890 0.246667
0.343835 0.113912 0.275945
0.440999 0.129588 0.307383
0.538065 0.147023 0.340847
0.058804 0.105030 0.203603
0.088754 0.119667 0.229210
0.131516 0.136000 0.257070
0.189936 0.154127 0.287146
0.265113 0.174126 0.319341
0.354750 0.196047 0.353495
0.452396 0.219904 0.389382
0.548835 0.245665 0.426711
0.635289 0.273248 0.465137
0.092976 0.204884 0.298629
0.137419 0.229470 0.331559
0.197767 0.255936 0.366374
0.274810 0.284179 0.402822
0.365776 0.314043 0.440593
0.463776 0.345313 0.479323
0.559467 0.377724 0.518607
0.644337 0.410962 0.558016
0.713426 0.444682 0.597117
0.143535 0.357508 0.416438
0.205826 0.390272 0.454603
0.284698 0.423736 0.493583
0.376898 0.457543 0.532963
0.475125 0.491323 0.572310
0.569951 0.524703 0.611193
0.653171 0.557333 0.649201
0.720312 0.588891 0.685961
0.770899 0.619099 0.721148
0.214109 0.537207 0.547314
0.294768 0.569465 0.586542
0.388103 0.600540 0.625152
0.486427 0.630172 0.662747
0.580276 0.658157 0.698968
0.661785 0.684346 0.733514
0.726974 0.708644 0.766144
0.775756 0.731010 0.796683
0.810474 0.751448 0.825022
0.305012 0.693803 0.676110
0.399376 0.717370 0.711753
0.497667 0.739001 0.745626
0.590431 0.758715 0.777511
0.670177 0.776567 0.807259
0.733414 0.792638 0.834782
0.780424 0.807030 0.860049
0.813721 0.819858 0.883083
0.836504 0.831243 0.903945
0.410704 0.798297 0.788595
0.508831 0.812081 0.817539
0.600408 0.824346 0.844242
0.678345 0.835217 0.868691
0.739636 0.844817 0.890925
0.784910 0.853268 0.911018
0.816828 0.860688 0.929074
0.838597 0.867186 0.945218
0.853112 0.872864 0.959586
0.519905 0.856203 0.877039
0.610199 0.863259 0.898483
0.686287 0.869434 0.917822
0.745642 0.874827 0.935166
0.789216 0.879527 0.950647
0.819800 0.883619 0.964404
0.840594 0.887175 0.976582
0.854430 0.890263 0.987326
0.863503 0.892941 0.996776
0.023696 0.024504 0.116958
0.036562 0.028314 0.133364
0.055956 0.032694 0.151701
0.084605 0.037723 0.172092
0.125686 0.043487 0.194636
0.182146 0.050081 0.219403
0.255382 0.057608 0.246425
0.343567 0.066180 0.275683
0.440717 0.075914 0.307104
0.038422 0.052825 0.180046
0.058733 0.060736 0.203393
0.088652 0.069735 0.228980
0.131373 0.079942 0.256821
0.189745 0.091480 0.286878
0.264876 0.104474 0.319056
0.354479 0.119045 0.353194
0.452115 0.135307 0.389066
0.548570 0.153360 0.426385
0.061638 0.109817 0.267511
0.092869 0.125018 0.298354
0.137270 0.141950 0.331268
0.197571 0.160705 0.366067
0.274569 0.181354 0.402502
0.365502 0.203933 0.440264
0.463496 0.228442 0.478987
0.559206 0.254833 0.518268
0.644116 0.283008 0.557678
0.097263 0.213018 0.379157
0.143382 0.238251 0.416115
0.205624 0.265335 0.454271
0.284452 0.294149 0.493245
0.376622 0.324517 0.532623
0.474845 0.356207 0.571973
0.569694 0.388936 0.610862
0.652955 0.422378 0.648879
0.720144 0.456178 0.685651
0.149710 0.368536 0.507557
0.213902 0.401576 0.546975
0.294517 0.435197 0.586206
0.387825 0.469037 0.624824
0.486148 0.502722 0.662429
0.580023 0.535886 0.698664
0.661575 0.568186 0.733225
0.726812 0.599313 0.765872
0.775638 0.629008 0.796430
0.222403 0.548277 0.638652
0.304757 0.580165 0.675797
0.399097 0.610776 0.711454
0.497390 0.639870 0.745343
0.590182 0.667258 0.777246
0.669973 0.692813 0.807013
0.733258 0.716457 0.834555
0.780311 0.738166 0.859842
0.813642 0.757957 0.882894
0.315160 0.702023 0.757197
0.410424 0.724933 0.788336
0.508557 0.745909 0.817300
0.600164 0.764983 0.844022
0.678146 0.782219 0.868491
0.739485 0.797708 0.890743
0.784801 0.811556 0.910854
0.816752 0.823880 0.928927
0.838547 0.834804 0.945087
0.421790 0.803156 0.853190
0.519633 0.816411 0.876845
0.609959 0.828188 0.898308
0.686094 0.838613 0.917664
0.745496 0.847810 0.935025
0.789112 0.855898 0.950521
0.819728 0.862993 0.964293
0.840546 0.869201 0.976484
0.854398 0.874623 0.987240
0.530606 0.858704 0.924209
0.619561 0.865450 0.940875
0.693814 0.871349 0.955727
0.751296 0.876496 0.968906
0.793249 0.880981 0.980558
0.822573 0.884883 0.990826
0.842454 0.888273 0.999849
0.855655 0.891216 1.000000
0.864302 0.893767 1.000000
0.024890 0.025739 0.158708
0.038375 0.029734 0.179854
0.058663 0.034325 0.203183
0.088550 0.039593 0.228750
0.131230 0.045628 0.256572
0.189555 0.052527 0.286610
0.264639 0.060396 0.318770
0.354208 0.069349 0.352892
0.451833 0.079505 0.388751
0.040322 0.055397 0.238619
0.061565 0.063664 0.267255
0.092763 0.073059 0.298080
0.137122 0.083704 0.330976
0.197375 0.095723 0.365760
0.274327 0.109239 0.402183
0.365228 0.124373 0.439934
0.463215 0.141233 0.478651
0.558945 0.159913 0.517929
0.064599 0.114792 0.343433
0.097152 0.130569 0.378846
0.143228 0.148111 0.415791
0.205422 0.167503 0.453938
0.284205 0.188804 0.492908
0.376346 0.212041 0.532284
0.474565 0.237197 0.571636
0.569437 0.264208 0.610530
0.652739 0.292956 0.648557
0.101722 0.221375 0.468052
0.149551 0.247246 0.507219
0.213695 0.274934 0.546637
0.294266 0.304298 0.585871
0.387547 0.335144 0.624496
0.485870 0.367221 0.662111
0.579769 0.400230 0.698359
0.661365 0.433835 0.732935
0.726650 0.467673 0.765600
0.156094 0.379669 0.600025
0.222191 0.412946 0.638327
0.304502 0.446684 0.675483
0.398818 0.480512 0.711154
0.497114 0.514061 0.745059
0.589934 0.546968 0.776981
0.669768 0.578902 0.806766
0.733101 0.609570 0.834327
0.780198 0.638729 0.859634
0.230907 0.559232 0.723715
0.314902 0.590717 0.756920
0.410144 0.620837 0.788078
0.508282 0.649370 0.817060
0.599920 0.676147 0.843801
0.677947 0.701059 0.868290
0.739334 0.724047 0.890561
0.784692 0.745100 0.910690
0.816677 0.764250 0.928780
0.325456 0.710021 0.827057
0.421509 0.732272 0.852977
0.519361 0.752597 0.876651
0.609720 0.771038 0.898133
0.685900 0.787670 0.917506
0.745351 0.802589 0.934884
0.789008 0.815906 0.950396
0.819656 0.827740 0.964181
0.840498 0.838218 0.976385
0.432899 0.807831 0.905424
0.530336 0.820570 0.924057
0.619326 0.831874 0.940740
0.693626 0.841868 0.955607
0.751155 0.850675 0.968800
0.793149 0.858413 0.980464
0.822504 0.865195 0.990744
0.842408 0.871126 0.999776
0.855625 0.876302 1.000000
0.541196 0.861097 0.960596
0.628731 0.867543 0.973216
0.701125 0.873176 0.984360
0.756750 0.878090 0.994169
0.797122 0.882368 1.000000
0.825227 0.886089 1.000000
0.844229 0.889320 1.000000
0.856824 0.892123 1.000000
0.865062 0.894553 1.000000
0.026142 0.027033 0.212013
0.040273 0.031222 0.238382
0.061492 0.036034 0.266999
0.092657 0.041552 0.297806
0.136974 0.047869 0.330685
0.197179 0.055085 0.365454
0.274085 0.063309 0.401863
0.364955 0.072657 0.439605
0.462934 0.083250 0.478315
0.042312 0.058085 0.309544
0.064522 0.066722 0.343136
0.097042 0.076528 0.378534
0.143075 0.087626 0.415468
0.205221 0.100139 0.453606
0.283959 0.114192 0.492570
0.376070 0.129900 0.531945
0.474286 0.147368 0.571299
0.569179 0.166684 0.610199
0.067690 0.119958 0.429232
0.101607 0.136324 0.467717
0.149392 0.154485 0.506880
0.213488 0.174521 0.546298
0.294016 0.196478 0.585535
0.387270 0.220371 0.624167
0.485591 0.246167 0.661793
0.579516 0.273784 0.698054
0.661154 0.303084 0.732646
0.106358 0.229951 0.560626
0.155930 0.256451 0.599692
0.221978 0.284727 0.638002
0.304247 0.314619 0.675169
0.398539 0.345913 0.710855
0.496837 0.378342 0.744776
0.589685 0.411593 0.776715
0.669563 0.445319 0.806519
0.732945 0.479151 0.834100
0.162690 0.390897 0.688349
0.230689 0.424370 0.723421
0.314643 0.458180 0.756643
0.409863 0.491955 0.787819
0.508007 0.525325 0.816821
0.599675 0.557938 0.843581
0.677748 0.589473 0.868089
0.739182 0.619652 0.890379
0.784583 0.648253 0.910526
0.239618 0.570062 0.798634
0.325193 0.601111 0.826824
0.421228 0.630715 0.852763
0.519088 0.658667 0.876457
0.609480 0.684821 0.897957
0.685707 0.709083 0.917348
0.745205 0.731413 0.934743
0.788903 0.751814 0.950270
0.819584 0.770330 0.964070
0.335887 0.717795 0.884535
0.432617 0.739389 0.905255
0.530067 0.759068 0.923905
0.619091 0.776885 0.940604
0.693438 0.792924 0.955486
0.751014 0.807285 0.968693
0.793049 0.820085 0.980370
0.822435 0.831445 0.990661
0.842361 0.841489 0.999703
0.444017 0.812325 0.946225
0.540929 0.824563 0.960480
0.628501 0.835409 0.973114
0.700943 0.844986 0.984270
0.756614 0.853417 0.994090
0.797026 0.860818 1.000000
0.825161 0.867300 1.000000
0.844185 0.872964 1.000000
0.856795 0.877904 1.000000
0.551664 0.863383 0.987992
0.637705 0.869543 0.997361
0.708220 0.874921 1.000000
0.762010 0.879610 1.000000
0.800839 0.883691 1.000000
0.827766 0.887238 1.000000
0.845923 0.890317 1.000000
0.857937 0.892988 1.000000
0.865787 0.895302 1.000000
0.027455 0.028391 0.277703
0.042260 0.032783 0.309264
0.064446 0.037824 0.342839
0.096931 0.043603 0.378223
0.142921 0.050214 0.415144
0.205019 0.057760 0.453274
0.283713 0.066352 0.492233
0.375795 0.076109 0.531606
0.474006 0.087152 0.570961
0.044395 0.060895 0.391503
0.067610 0.069915 0.428905
0.101492 0.080146 0.467383
0.149234 0.091710 0.506542
0.213281 0.104733 0.545959
0.293765 0.119335 0.585200
0.386992 0.135630 0.623839
0.485313 0.153717 0.661475
0.579263 0.173676 0.697748
0.070916 0.125321 0.520885
0.106238 0.142286 0.560288
0.155766 0.161076 0.599359
0.221766 0.181761 0.637677
0.303992 0.204376 0.674855
0.398260 0.228921 0.710555
0.496560 0.255347 0.744492
0.589436 0.283554 0.776449
0.669358 0.313385 0.806272
0.111175 0.238744 0.651363
0.162521 0.265861 0.688040
0.230471 0.294706 0.723127
0.314384 0.325102 0.756365
0.409583 0.356814 0.787560
0.507732 0.389559 0.816581
0.599431 0.423012 0.843361
0.677548 0.456815 0.867887
0.739031 0.490599 0.890196
0.169499 0.402204 0.767967
0.239395 0.435833 0.798382
0.324931 0.469673 0.826591
0.420947 0.503352 0.852550
0.518816 0.536503 0.876263
0.609240 0.568783 0.897781
0.685513 0.599886 0.917190
0.745058 0.629552 0.934601
0.788799 0.657574 0.950144
0.248531 0.580754 0.861441
0.335622 0.611339 0.884347
0.432336 0.640401 0.905086
0.529797 0.667756 0.923754
0.618856 0.693275 0.940469
0.693250 0.716884 0.955365
0.750873 0.738556 0.968586
0.792949 0.758311 0.980276
0.822366 0.776202 0.990578
0.346445 0.725345 0.930058
0.443736 0.746285 0.946095
0.540662 0.765324 0.960365
0.628271 0.782527 0.973012
0.700760 0.797983 0.984180
0.756479 0.811801 0.994011
0.796930 0.824098 1.000000
0.825095 0.834997 1.000000
0.844141 0.844623 1.000000
0.455130 0.816645 0.977241
0.551400 0.828397 0.987906
0.637480 0.838797 0.997285
0.708043 0.847972 1.000000
0.761879 0.856040 1.000000
0.800747 0.863117 1.000000
0.827703 0.869310 1.000000
0.845882 0.874718 1.000000
0.857910 0.879433 1.000000
0.561998 0.865569 1.000000
0.646478 0.871452 1.000000
0.715100 0.876587 1.000000
0.767079 0.881060 1.000000
0.804406 0.884952 1.000000
0.830195 0.888333 1.000000
0.847541 0.891267 1.000000
0.858999 0.893811 1.000000
0.866476 0.896015 1.000000
