resources/luts/golden-hour.cube
TITLE "Golden Hour"
LUT_3D_SIZE 9
0.000000 0.000000 0.000000
0.173262 0.000000 0.000000
0.318868 0.000000 0.000000
0.455587 0.000000 0.000000
0.586837 0.000000 0.000000
0.714164 0.000000 0.000000
0.838451 0.000000 0.000000
0.960264 0.000000 0.000000
1.000000 0.000000 0.000000
0.000000 0.141694 0.000000
0.173262 0.141694 0.000000
0.318868 0.141694 0.000000
0.455587 0.141694 0.000000
0.586837 0.141694 0.000000
0.714164 0.141694 0.000000
0.838451 0.141694 0.000000
0.960264 0.141694 0.000000
1.000000 0.141694 0.000000
0.000000 0.269967 0.000000
0.173262 0.269967 0.000000
0.318868 0.269967 0.000000
0.455587 0.269967 0.000000
0.586837 0.269967 0.000000
0.714164 0.269967 0.000000
0.838451 0.269967 0.000000
0.960264 0.269967 0.000000
1.000000 0.269967 0.000000
0.000000 0.393618 0.000000
0.173262 0.393618 0.000000
0.318868 0.393618 0.000000
0.455587 0.393618 0.000000
0.586837 0.393618 0.000000
0.714164 0.393618 0.000000
0.838451 0.393618 0.000000
0.960264 0.393618 0.000000
1.000000 0.393618 0.000000
0.000000 0.514361 0.000000
0.173262 0.514361 0.000000
0.318868 0.514361 0.000000
0.455587 0.514361 0.000000
0.586837 0.514361 0.000000
0.714164 0.514361 0.000000
0.838451 0.514361 0.000000
0.960264 0.514361 0.000000
1.000000 0.514361 0.000000
0.000000 0.632987 0.000000
0.173262 0.632987 0.000000
0.318868 0.632987 0.000000
0.455587 0.632987 0.000000
0.586837 0.632987 0.000000
0.714164 0.632987 0.000000
0.838451 0.632987 0.000000
0.960264 0.632987 0.000000
1.000000 0.632987 0.000000
0.000000 0.749951 0.000000
0.173262 0.749951 0.000000
0.318868 0.749951 0.000000
0.455587 0.749951 0.000000
0.586837 0.749951 0.000000
0.714164 0.749951 0.000000
0.838451 0.749951 0.000000
0.960264 0.749951 0.000000
1.000000 0.749951 0.000000
0.000000 0.865553 0.000000
0.173262 0.865553 0.000000
0.318868 0.865553 0.000000
0.455587 0.865553 0.000000
0.586837 0.865553 0.000000
0.714164 0.865553 0.000000
0.838451 0.865553 0.000000
0.960264 0.865553 0.000000
1.000000 0.865553 0.000000
0.000000 0.980000 0.000000
0.173262 0.980000 0.000000
0.318868 0.980000 0.000000
0.455587 0.980000 0.000000
0.586837 0.980000 0.000000
0.714164 0.980000 0.000000
0.838451 0.980000 0.000000
0.960264 0.980000 0.000000
1.000000 0.980000 0.000000
0.000000 0.000000 0.079864
0.173262 0.000000 0.079864
0.318868 0.000000 0.079864
0.455587 0.000000 0.079864
0.586837 0.000000 0.079864
0.714164 0.000000 0.079864
0.838451 0.000000 0.079864
0.960264 0.000000 0.079864
1.000000 0.000000 0.079864
0.000000 0.141694 0.079864
0.173262 0.141694 0.079864
0.318868 0.141694 0.079864
0.455587 0.141694 0.079864
0.586837 0.141694 0.079864
0.714164 0.141694 0.079864
0.838451 0.141694 0.079864
0.960264 0.141694 0.079864
1.000000 0.141694 0.079864
0.000000 0.269967 0.079864
0.173262 0.269967 0.079864
0.318868 0.269967 0.079864
0.455587 0.269967 0.079864
0.586837 0.269967 0.079864
0.714164 0.269967 0.079864
0.838451 0.269967 0.079864
0.960264 0.269967 0.079864
1.000000 0.269967 0.079864
0.000000 0.393618 0.079864
0.173262 0.393618 0.079864
0.318868 0.393618 0.079864
0.455587 0.393618 0.079864
0.586837 0.393618 0.079864
0.714164 0.393618 0.079864
0.838451 0.393618 0.079864
0.960264 0.393618 0.079864
1.000000 0.393618 0.079864
0.000000 0.514361 0.079864
0.173262 0.514361 0.079864
0.318868 0.514361 0.079864
0.455587 0.514361 0.079864
0.586837 0.514361 0.079864
0.714164 0.514361 0.079864
0.838451 0.514361 0.079864
0.960264 0.514361 0.079864
1.000000 0.514361 0.079864
0.000000 0.632987 0.079864
0.173262 0.632987 0.079864
0.318868 0.632987 0.079864
0.455587 0.632987 0.079864
0.586837 0.632987 0.079864
0.714164 0.632987 0.079864
0.838451 0.632987 0.079864
0.960264 0.632987 0.079864
1.000000 0.632987 0.079864
0.000000 0.749951 0.079864
0.173262 0.749951 0.079864
0.318868 0.749951 0.079864
0.455587 0.749951 0.079864
0.586837 0.749951 0.079864
0.714164 0.749951 0.079864
0.838451 0.749951 0.079864
0.960264 0.749951 0.079864
1.000000 0.749951 0.079864
0.000000 0.865553 0.079864
0.173262 0.865553 0.079864
0.318868 0.865553 0.079864
0.455587 0.865553 0.079864
0.586837 0.865553 0.079864
0.714164 0.865553 0.079864
0.838451 0.865553 0.079864
0.960264 0.865553 0.079864
1.000000 0.865553 0.079864
0.000000 0.980000 0.079864
0.173262 0.980000 0.079864
0.318868 0.980000 0.079864
0.455587 0.980000 0.079864
0.586837 0.980000 0.079864
0.714164 0.980000 0.079864
0.838451 0.980000 0.079864
0.960264 0.980000 0.079864
1.000000 0.980000 0.079864
0.000000 0.000000 0.173583
0.173262 0.000000 0.173583
0.318868 0.000000 0.173583
0.455587 0.000000 0.173583
0.586837 0.000000 0.173583
0.714164 0.000000 0.173583
0.838451 0.000000 0.173583
0.960264 0.000000 0.173583
1.000000 0.000000 0.173583
0.000000 0.141694 0.173583
0.173262 0.141694 0.173583
0.318868 0.141694 0.173583
0.455587 0.141694 0.173583
0.586837 0.141694 0.173583
0.714164 0.141694 0.173583
0.838451 0.141694 0.173583
0.960264 0.141694 0.173583
1.000000 0.141694 0.173583
0.000000 0.269967 0.173583
0.173262 0.269967 0.173583
0.318868 0.269967 0.173583
0.455587 0.269967 0.173583
0.586837 0.269967 0.173583
0.714164 0.269967 0.173583
0.838451 0.269967 0.173583
0.960264 0.269967 0.173583
1.000000 0.269967 0.173583
0.000000 0.393618 0.173583
0.173262 0.393618 0.173583
0.318868 0.393618 0.173583
0.455587 0.393618 0.173583
0.586837 0.393618 0.173583
0.714164 0.393618 0.173583
0.838451 0.393618 0.173583
0.960264 0.393618 0.173583
1.000000 0.393618 0.173583
0.000000 0.514361 0.173583
0.173262 0.514361 0.173583
0.318868 0.514361 0.173583
0.455587 0.514361 0.173583
0.586837 0.514361 0.173583
0.714164 0.514361 0.173583
0.838451 0.514361 0.173583
0.960264 0.514361 0.173583
1.000000 0.514361 0.173583
0.000000 0.632987 0.173583
0.173262 0.632987 0.173583
0.318868 0.632987 0.173583
0.455587 0.632987 0.173583
0.586837 0.632987 0.173583
0.714164 0.632987 0.173583
0.838451 0.632987 0.173583
0.960264 0.632987 0.173583
1.000000 0.632987 0.173583
0.000000 0.749951 0.173583
0.173262 0.749951 0.173583
0.318868 0.749951 0.173583
0.455587 0.749951 0.173583
0.586837 0.749951 0.173583
0.714164 0.749951 0.173583
0.838451 0.749951 0.173583
0.960264 0.749951 0.173583
1.000000 0.749951 0.173583
0.000000 0.865553 0.173583
0.173262 0.865553 0.173583
0.318868 0.865553 0.173583
0.455587 0.865553 0.173583
0.586837 0.865553 0.173583
0.714164 0.865553 0.173583
0.838451 0.865553 0.173583
0.960264 0.865553 0.173583
1.000000 0.865553 0.173583
0.000000 0.980000 0.173583
0.173262 0.980000 0.173583
0.318868 0.980000 0.173583
0.455587 0.980000 0.173583
0.586837 0.980000 0.173583
0.714164 0.980000 0.173583
0.838451 0.980000 0.173583
0.960264 0.980000 0.173583
1.000000 0.980000 0.173583
0.000000 0.000000 0.273356
0.173262 0.000000 0.273356
0.318868 0.000000 0.273356
0.455587 0.000000 0.273356
0.586837 0.000000 0.273356
0.714164 0.000000 0.273356
0.838451 0.000000 0.273356
0.960264 0.000000 0.273356
1.000000 0.000000 0.273356
0.000000 0.141694 0.273356
0.173262 0.141694 0.273356
0.318868 0.141694 0.273356
0.455587 0.141694 0.273356
0.586837 0.141694 0.273356
0.714164 0.141694 0.273356
0.838451 0.141694 0.273356
0.960264 0.141694 0.273356
1.000000 0.141694 0.273356
0.000000 0.269967 0.273356
0.173262 0.269967 0.273356
0.318868 0.269967 0.273356
0.455587 0.269967 0.273356
0.586837 0.269967 0.273356
0.714164 0.269967 0.273356
0.838451 0.269967 0.273356
0.960264 0.269967 0.273356
1.000000 0.269967 0.273356
0.000000 0.393618 0.273356
0.173262 0.393618 0.273356
0.318868 0.393618 0.273356
0.455587 0.393618 0.273356
0.586837 0.393618 0.273356
0.714164 0.393618 0.273356
0.838451 0.393618 0.273356
0.960264 0.393618 0.273356
1.000000 0.393618 0.273356
0.000000 0.514361 0.273356
0.173262 0.514361 0.273356
0.318868 0.514361 0.273356
0.455587 0.514361 0.273356
0.586837 0.514361 0.273356
0.714164 0.514361 0.273356
0.838451 0.514361 0.273356
0.960264 0.514361 0.273356
1.000000 0.514361 0.273356
0.000000 0.632987 0.273356
0.173262 0.632987 0.273356
0.318868 0.632987 0.273356
0.455587 0.632987 0.273356
0.586837 0.632987 0.273356
0.714164 0.632987 0.273356
0.838451 0.632987 0.273356
0.960264 0.632987 0.273356
1.000000 0.632987 0.273356
0.000000 0.749951 0.273356
0.173262 0.749951 0.273356
0.318868 0.749951 0.273356
0.455587 0.749951 0.273356
0.586837 0.749951 0.273356
0.714164 0.749951 0.273356
0.838451 0.749951 0.273356
0.960264 0.749951 0.273356
1.000000 0.749951 0.273356
0.000000 0.865553 0.273356
0.173262 0.865553 0.273356
0.318868 0.865553 0.273356
0.455587 0.865553 0.273356
0.586837 0.865553 0.273356
0.714164 0.865553 0.273356
0.838451 0.865553 0.273356
0.960264 0.865553 0.273356
1.000000 0.865553 0.273356
0.000000 0.980000 0.273356
0.173262 0.980000 0.273356
0.318868 0.980000 0.273356
0.455587 0.980000 0.273356
0.586837 0.980000 0.273356
0.714164 0.980000 0.273356
0.838451 0.980000 0.273356
0.960264 0.980000 0.273356
1.000000 0.980000 0.273356
0.000000 0.000000 0.377277
0.173262 0.000000 0.377277
0.318868 0.000000 0.377277
0.455587 0.000000 0.377277
0.586837 0.000000 0.377277
0.714164 0.000000 0.377277
0.838451 0.000000 0.377277
0.960264 0.000000 0.377277
1.000000 0.000000 0.377277
0.000000 0.141694 0.377277
0.173262 0.141694 0.377277
0.318868 0.141694 0.377277
0.455587 0.141694 0.377277
0.586837 0.141694 0.377277
0.714164 0.141694 0.377277
0.838451 0.141694 0.377277
0.960264 0.141694 0.377277
1.000000 0.141694 0.377277
0.000000 0.269967 0.377277
0.173262 0.269967 0.377277
0.318868 0.269967 0.377277
0.455587 0.269967 0.377277
0.586837 0.269967 0.377277
0.714164 0.269967 0.377277
0.838451 0.269967 0.377277
0.960264 0.269967 0.377277
1.000000 0.269967 0.377277
0.000000 0.393618 0.377277
0.173262 0.393618 0.377277
0.318868 0.393618 0.377277
0.455587 0.393618 0.377277
0.586837 0.393618 0.377277
0.714164 0.393618 0.377277
0.838451 0.393618 0.377277
0.960264 0.393618 0.377277
1.000000 0.393618 0.377277
0.000000 0.514361 0.377277
0.173262 0.514361 0.377277
0.318868 0.514361 0.377277
0.455587 0.514361 0.377277
0.586837 0.514361 0.377277
0.714164 0.514361 0.377277
0.838451 0.514361 0.377277
0.960264 0.514361 0.377277
1.000000 0.514361 0.377277
0.000000 0.632987 0.377277
0.173262 0.632987 0.377277
0.318868 0.632987 0.377277
0.455587 0.632987 0.377277
0.586837 0.632987 0.377277
0.714164 0.632987 0.377277
0.838451 0.632987 0.377277
0.960264 0.632987 0.377277
1.000000 0.632987 0.377277
0.000000 0.749951 0.377277
0.173262 0.749951 0.377277
0.318868 0.749951 0.377277
0.455587 0.749951 0.377277
0.586837 0.749951 0.377277
0.714164 0.749951 0.377277
0.838451 0.749951 0.377277
0.960264 0.749951 0.377277
1.000000 0.749951 0.377277
0.000000 0.865553 0.377277
0.173262 0.865553 0.377277
0.318868 0.865553 0.377277
0.455587 0.865553 0.377277
0.586837 0.865553 0.377277
0.714164 0.865553 0.377277
0.838451 0.865553 0.377277
0.960264 0.865553 0.377277
1.000000 0.865553 0.377277
0.000000 0.980000 0.377277
0.173262 0.980000 0.377277
0.318868 0.980000 0.377277
0.455587 0.980000 0.377277
0.586837 0.980000 0.377277
0.714164 0.980000 0.377277
0.838451 0.980000 0.377277
0.960264 0.980000 0.377277
1.000000 0.980000 0.377277
0.000000 0.000000 0.484395
0.173262 0.000000 0.484395
0.318868 0.000000 0.484395
0.455587 0.000000 0.484395
0.586837 0.000000 0.484395
0.714164 0.000000 0.484395
0.838451 0.000000 0.484395
0.960264 0.000000 0.484395
1.000000 0.000000 0.484395
0.000000 0.141694 0.484395
0.173262 0.141694 0.484395
0.318868 0.141694 0.484395
0.455587 0.141694 0.484395
0.586837 0.141694 0.484395
0.714164 0.141694 0.484395
0.838451 0.141694 0.484395
0.960264 0.141694 0.484395
1.000000 0.141694 0.484395
0.000000 0.269967 0.484395
0.173262 0.269967 0.484395
0.318868 0.269967 0.484395
0.455587 0.269967 0.484395
0.586837 0.269967 0.484395
0.714164 0.269967 0.484395
0.838451 0.269967 0.484395
0.960264 0.269967 0.484395
1.000000 0.269967 0.484395
0.000000 0.393618 0.484395
0.173262 0.393618 0.484395
0.318868 0.393618 0.484395
0.455587 0.393618 0.484395
0.586837 0.393618 0.484395
0.714164 0.393618 0.484395
0.838451 0.393618 0.484395
0.960264 0.393618 0.484395
1.000000 0.393618 0.484395
0.000000 0.514361 0.484395
0.173262 0.514361 0.484395
0.318868 0.514361 0.484395
0.455587 0.514361 0.484395
0.586837 0.514361 0.484395
0.714164 0.514361 0.484395
0.838451 0.514361 0.484395
0.960264 0.514361 0.484395
1.000000 0.514361 0.484395
0.000000 0.632987 0.484395
0.173262 0.632987 0.484395
0.318868 0.632987 0.484395
0.455587 0.632987 0.484395
0.586837 0.632987 0.484395
0.714164 0.632987 0.484395
0.838451 0.632987 0.484395
0.960264 0.632987 0.484395
1.000000 0.632987 0.484395
0.000000 0.749951 0.484395
0.173262 0.749951 0.484395
0.318868 0.749951 0.484395
0.455587 0.749951 0.484395
0.586837 0.749951 0.484395
0.714164 0.749951 0.484395
0.838451 0.749951 0.484395
0.960264 0.749951 0.484395
1.000000 0.749951 0.484395
0.000000 0.865553 0.484395
0.173262 0.865553 0.484395
0.318868 0.865553 0.484395
0.455587 0.865553 0.484395
0.586837 0.865553 0.484395
0.714164 0.865553 0.484395
0.838451 0.865553 0.484395
0.960264 0.865553 0.484395
1.000000 0.865553 0.484395
0.000000 0.980000 0.484395
0.173262 0.980000 0.484395
0.318868 0.980000 0.484395
0.455587 0.980000 0.484395
0.586837 0.980000 0.484395
0.714164 0.980000 0.484395
0.838451 0.980000 0.484395
0.960264 0.980000 0.484395
1.000000 0.980000 0.484395
0.000000 0.000000 0.594131
0.173262 0.000000 0.594131
0.318868 0.000000 0.594131
0.455587 0.000000 0.594131
0.586837 0.000000 0.594131
0.714164 0.000000 0.594131
0.838451 0.000000 0.594131
0.960264 0.000000 0.594131
1.000000 0.000000 0.594131
0.000000 0.141694 0.594131
0.173262 0.141694 0.594131
0.318868 0.141694 0.594131
0.455587 0.141694 0.594131
0.586837 0.141694 0.594131
0.714164 0.141694 0.594131
0.838451 0.141694 0.594131
0.960264 0.141694 0.594131
1.000000 0.141694 0.594131
0.000000 0.269967 0.594131
0.173262 0.269967 0.594131
0.318868 0.269967 0.594131
0.455587 0.269967 0.594131
0.586837 0.269967 0.594131
0.714164 0.269967 0.594131
0.838451 0.269967 0.594131
0.960264 0.269967 0.594131
1.000000 0.269967 0.594131
0.000000 0.393618 0.594131
0.173262 0.393618 0.594131
0.318868 0.393618 0.594131
0.455587 0.393618 0.594131
0.586837 0.393618 0.594131
0.714164 0.393618 0.594131
0.838451 0.393618 0.594131
0.960264 0.393618 0.594131
1.000000 0.393618 0.594131
0.000000 0.514361 0.594131
0.173262 0.514361 0.594131
0.318868 0.514361 0.594131
0.455587 0.514361 0.594131
0.586837 0.514361 0.594131
0.714164 0.514361 0.594131
0.838451 0.514361 0.594131
0.960264 0.514361 0.594131
1.000000 0.514361 0.594131
0.000000 0.632987 0.594131
0.173262 0.632987 0.594131
0.318868 0.632987 0.594131
0.455587 0.632987 0.594131
0.586837 0.632987 0.594131
0.714164 0.632987 0.594131
0.838451 0.632987 0.594131
0.960264 0.632987 0.594131
1.000000 0.632987 0.594131
0.000000 0.749951 0.594131
0.173262 0.749951 0.594131
0.318868 0.749951 0.594131
0.455587 0.749951 0.594131
0.586837 0.749951 0.594131
0.714164 0.749951 0.594131
0.838451 0.749951 0.594131
0.960264 0.749951 0.594131
1.000000 0.749951 0.594131
0.000000 0.865553 0.594131
0.173262 0.865553 0.594131
0.318868 0.865553 0.594131
0.455587 0.865553 0.594131
0.586837 0.865553 0.594131
0.714164 0.865553 0.594131
0.838451 0.865553 0.594131
0.960264 0.865553 0.594131
1.000000 0.865553 0.594131
0.000000 0.980000 0.594131
0.173262 0.980000 0.594131
0.318868 0.980000 0.594131
0.455587 0.980000 0.594131
0.586837 0.980000 0.594131
0.714164 0.980000 0.594131
0.838451 0.980000 0.594131
0.960264 0.980000 0.594131
1.000000 0.980000 0.594131
0.000000 0.000000 0.706095
0.173262 0.000000 0.706095
0.318868 0.000000 0.706095
0.455587 0.000000 0.706095
0.586837 0.000000 0.706095
0.714164 0.000000 0.706095
0.838451 0.000000 0.706095
0.960264 0.000000 0.706095
1.000000 0.000000 0.706095
0.000000 0.141694 0.706095
0.173262 0.141694 0.706095
0.318868 0.141694 0.706095
0.455587 0.141694 0.706095
0.586837 0.141694 0.706095
0.714164 0.141694 0.706095
0.838451 0.141694 0.706095
0.960264 0.141694 0.706095
1.000000 0.141694 0.706095
0.000000 0.269967 0.706095
0.173262 0.269967 0.706095
0.318868 0.269967 0.706095
0.455587 0.269967 0.706095
0.586837 0.269967 0.706095
0.714164 0.269967 0.706095
0.838451 0.269967 0.706095
0.960264 0.269967 0.706095
1.000000 0.269967 0.706095
0.000000 0.393618 0.706095
0.173262 0.393618 0.706095
0.318868 0.393618 0.706095
0.455587 0.393618 0.706095
0.586837 0.393618 0.706095
0.714164 0.393618 0.706095
0.838451 0.393618 0.706095
0.960264 0.393618 0.706095
1.000000 0.393618 0.706095
0.000000 0.514361 0.706095
0.173262 0.514361 0.706095
0.318868 0.514361 0.706095
0.455587 0.514361 0.706095
0.586837 0.514361 0.706095
0.714164 0.514361 0.706095
0.838451 0.514361 0.706095
0.960264 0.514361 0.706095
1.000000 0.514361 0.706095
0.000000 0.632987 0.706095
0.173262 0.632987 0.706095
0.318868 0.632987 0.706095
0.455587 0.632987 0.706095
0.586837 0.632987 0.706095
0.714164 0.632987 0.706095
0.838451 0.632987 0.706095
0.960264 0.632987 0.706095
1.000000 0.632987 0.706095
0.000000 0.749951 0.706095
0.173262 0.749951 0.706095
0.318868 0.749951 0.706095
0.455587 0.749951 0.706095
0.586837 0.749951 0.706095
0.714164 0.749951 0.706095
0.838451 0.749951 0.706095
0.960264 0.749951 0.706095
1.000000 0.749951 0.706095
0.000000 0.865553 0.706095
0.173262 0.865553 0.706095
0.318868 0.865553 0.706095
0.455587 0.865553 0.706095
0.586837 0.865553 0.706095
0.714164 0.865553 0.706095
0.838451 0.865553 0.706095
0.960264 0.865553 0.706095
1.000000 0.865553 0.706095
0.000000 0.980000 0.706095
0.173262 0.980000 0.706095
0.318868 0.980000 0.706095
0.455587 0.980000 0.706095
0.586837 0.980000 0.706095
0.714164 0.980000 0.706095
0.838451 0.980000 0.706095
0.960264 0.980000 0.706095
1.000000 0.980000 0.706095
0.000000 0.000000 0.820000
0.173262 0.000000 0.820000
0.318868 0.000000 0.820000
0.455587 0.000000 0.820000
0.586837 0.000000 0.820000
0.714164 0.000000 0.820000
0.838451 0.000000 0.820000
0.960264 0.000000 0.820000
1.000000 0.000000 0.820000
0.000000 0.141694 0.820000
0.173262 0.141694 0.820000
0.318868 0.141694 0.820000
0.455587 0.141694 0.820000
0.586837 0.141694 0.820000
0.714164 0.141694 0.820000
0.838451 0.141694 0.820000
0.960264 0.141694 0.820000
1.000000 0.141694 0.820000
0.000000 0.269967 0.820000
0.173262 0.269967 0.820000
0.318868 0.269967 0.820000
0.455587 0.269967 0.820000
0.586837 0.269967 0.820000
0.714164 0.269967 0.820000
0.838451 0.269967 0.820000
0.960264 0.269967 0.820000
1.000000 0.269967 0.820000
0.000000 0.393618 0.820000
0.173262 0.393618 0.820000
0.318868 0.393618 0.820000
0.455587 0.393618 0.820000
0.586837 0.393618 0.820000
0.714164 0.393618 0.820000
0.838451 0.393618 0.820000
0.960264 0.393618 0.820000
1.000000 0.393618 0.820000
0.000000 0.514361 0.820000
0.173262 0.514361 0.820000
0.318868 0.514361 0.820000
0.455587 0.514361 0.820000
0.586837 0.514361 0.820000
0.714164 0.514361 0.820000
0.838451 0.514361 0.820000
0.960264 0.514361 0.820000
1.000000 0.514361 0.820000
0.000000 0.632987 0.820000
0.173262 0.632987 0.820000
0.318868 0.632987 0.820000
0.455587 0.632987 0.820000
0.586837 0.632987 0.820000
0.714164 0.632987 0.820000
0.838451 0.632987 0.820000
0.960264 0.632987 0.820000
1.000000 0.632987 0.820000
0.000000 0.749951 0.820000
0.173262 0.749951 0.820000
0.318868 0.749951 0.820000
0.455587 0.749951 0.820000
0.586837 0.749951 0.820000
0.714164 0.749951 0.820000
0.838451 0.749951 0.820000
0.960264 0.749951 0.820000
1.000000 0.749951 0.820000
0.000000 0.865553 0.820000
0.173262 0.865553 0.820000
0.318868 0.865553 0.820000
0.455587 0.865553 0.820000
0.586837 0.865553 0.820000
0.714164 0.865553 0.820000
0.838451 0.865553 0.820000
0.960264 0.865553 0.820000
1.000000 0.865553 0.820000
0.000000 0.980000 0.820000
0.173262 0.980000 0.820000
0.318868 0.980000 0.820000
0.455587 0.980000 0.820000
0.586837 0.980000 0.820000
0.714164 0.980000 0.820000
0.838451 0.980000 0.820000
0.960264 0.980000 0.820000
1.000000 0.980000 0.820000
