resources/luts/golden-hour.cube
TITLE "Golden Hour"
LUT_3D_SIZE 17
0.000000 0.000000 0.000000
0.094145 0.000000 0.000000
0.173262 0.000000 0.000000
0.247551 0.000000 0.000000
0.318868 0.000000 0.000000
0.388054 0.000000 0.000000
0.455587 0.000000 0.000000
0.521776 0.000000 0.000000
0.586837 0.000000 0.000000
0.650926 0.000000 0.000000
0.714164 0.000000 0.000000
0.776647 0.000000 0.000000
0.838451 0.000000 0.000000
0.899639 0.000000 0.000000
0.960264 0.000000 0.000000
1.000000 0.000000 0.000000
1.000000 0.000000 0.000000
0.000000 0.074369 0.000000
0.094145 0.074369 0.000000
0.173262 0.074369 0.000000
0.247551 0.074369 0.000000
0.318868 0.074369 0.000000
0.388054 0.074369 0.000000
0.455587 0.074369 0.000000
0.521776 0.074369 0.000000
0.586837 0.074369 0.000000
0.650926 0.074369 0.000000
0.714164 0.074369 0.000000
0.776647 0.074369 0.000000
0.838451 0.074369 0.000000
0.899639 0.074369 0.000000
0.960264 0.074369 0.000000
1.000000 0.074369 0.000000
1.000000 0.074369 0.000000
0.000000 0.141694 0.000000
0.094145 0.141694 0.000000
0.173262 0.141694 0.000000
0.247551 0.141694 0.000000
0.318868 0.141694 0.000000
0.388054 0.141694 0.000000
0.455587 0.141694 0.000000
0.521776 0.141694 0.000000
0.586837 0.141694 0.000000
0.650926 0.141694 0.000000
0.714164 0.141694 0.000000
0.776647 0.141694 0.000000
0.838451 0.141694 0.000000
0.899639 0.141694 0.000000
0.960264 0.141694 0.000000
1.000000 0.141694 0.000000
1.000000 0.141694 0.000000
0.000000 0.206594 0.000000
0.094145 0.206594 0.000000
0.173262 0.206594 0.000000
0.247551 0.206594 0.000000
0.318868 0.206594 0.000000
0.388054 0.206594 0.000000
0.455587 0.206594 0.000000
0.521776 0.206594 0.000000
0.586837 0.206594 0.000000
0.650926 0.206594 0.000000
0.714164 0.206594 0.000000
0.776647 0.206594 0.000000
0.838451 0.206594 0.000000
0.899639 0.206594 0.000000
0.960264 0.206594 0.000000
1.000000 0.206594 0.000000
1.000000 0.206594 0.000000
0.000000 0.269967 0.000000
0.094145 0.269967 0.000000
0.173262 0.269967 0.000000
0.247551 0.269967 0.000000
0.318868 0.269967 0.000000
0.388054 0.269967 0.000000
0.455587 0.269967 0.000000
0.521776 0.269967 0.000000
0.586837 0.269967 0.000000
0.650926 0.269967 0.000000
0.714164 0.269967 0.000000
0.776647 0.269967 0.000000
0.838451 0.269967 0.000000
0.899639 0.269967 0.000000
0.960264 0.269967 0.000000
1.000000 0.269967 0.000000
1.000000 0.269967 0.000000
0.000000 0.332228 0.000000
0.094145 0.332228 0.000000
0.173262 0.332228 0.000000
0.247551 0.332228 0.000000
0.318868 0.332228 0.000000
0.388054 0.332228 0.000000
0.455587 0.332228 0.000000
0.521776 0.332228 0.000000
0.586837 0.332228 0.000000
0.650926 0.332228 0.000000
0.714164 0.332228 0.000000
0.776647 0.332228 0.000000
0.838451 0.332228 0.000000
0.899639 0.332228 0.000000
0.960264 0.332228 0.000000
1.000000 0.332228 0.000000
1.000000 0.332228 0.000000
0.000000 0.393618 0.000000
0.094145 0.393618 0.000000
0.173262 0.393618 0.000000
0.247551 0.393618 0.000000
0.318868 0.393618 0.000000
0.388054 0.393618 0.000000
0.455587 0.393618 0.000000
0.521776 0.393618 0.000000
0.586837 0.393618 0.000000
0.650926 0.393618 0.000000
0.714164 0.393618 0.000000
0.776647 0.393618 0.000000
0.838451 0.393618 0.000000
0.899639 0.393618 0.000000
0.960264 0.393618 0.000000
1.000000 0.393618 0.000000
1.000000 0.393618 0.000000
0.000000 0.454293 0.000000
0.094145 0.454293 0.000000
0.173262 0.454293 0.000000
0.247551 0.454293 0.000000
0.318868 0.454293 0.000000
0.388054 0.454293 0.000000
0.455587 0.454293 0.000000
0.521776 0.454293 0.000000
0.586837 0.454293 0.000000
0.650926 0.454293 0.000000
0.714164 0.454293 0.000000
0.776647 0.454293 0.000000
0.838451 0.454293 0.000000
0.899639 0.454293 0.000000
0.960264 0.454293 0.000000
1.000000 0.454293 0.000000
1.000000 0.454293 0.000000
0.000000 0.514361 0.000000
0.094145 0.514361 0.000000
0.173262 0.514361 0.000000
0.247551 0.514361 0.000000
0.318868 0.514361 0.000000
0.388054 0.514361 0.000000
0.455587 0.514361 0.000000
0.521776 0.514361 0.000000
0.586837 0.514361 0.000000
0.650926 0.514361 0.000000
0.714164 0.514361 0.000000
0.776647 0.514361 0.000000
0.838451 0.514361 0.000000
0.899639 0.514361 0.000000
0.960264 0.514361 0.000000
1.000000 0.514361 0.000000
1.000000 0.514361 0.000000
0.000000 0.573905 0.000000
0.094145 0.573905 0.000000
0.173262 0.573905 0.000000
0.247551 0.573905 0.000000
0.318868 0.573905 0.000000
0.388054 0.573905 0.000000
0.455587 0.573905 0.000000
0.521776 0.573905 0.000000
0.586837 0.573905 0.000000
0.650926 0.573905 0.000000
0.714164 0.573905 0.000000
0.776647 0.573905 0.000000
0.838451 0.573905 0.000000
0.899639 0.573905 0.000000
0.960264 0.573905 0.000000
1.000000 0.573905 0.000000
1.000000 0.573905 0.000000
0.000000 0.632987 0.000000
0.094145 0.632987 0.000000
0.173262 0.632987 0.000000
0.247551 0.632987 0.000000
0.318868 0.632987 0.000000
0.388054 0.632987 0.000000
0.455587 0.632987 0.000000
0.521776 0.632987 0.000000
0.586837 0.632987 0.000000
0.650926 0.632987 0.000000
0.714164 0.632987 0.000000
0.776647 0.632987 0.000000
0.838451 0.632987 0.000000
0.899639 0.632987 0.000000
0.960264 0.632987 0.000000
1.000000 0.632987 0.000000
1.000000 0.632987 0.000000
0.000000 0.691655 0.000000
0.094145 0.691655 0.000000
0.173262 0.691655 0.000000
0.247551 0.691655 0.000000
0.318868 0.691655 0.000000
0.388054 0.691655 0.000000
0.455587 0.691655 0.000000
0.521776 0.691655 0.000000
0.586837 0.691655 0.000000
0.650926 0.691655 0.000000
0.714164 0.691655 0.000000
0.776647 0.691655 0.000000
0.838451 0.691655 0.000000
0.899639 0.691655 0.000000
0.960264 0.691655 0.000000
1.000000 0.691655 0.000000
1.000000 0.691655 0.000000
0.000000 0.749951 0.000000
0.094145 0.749951 0.000000
0.173262 0.749951 0.000000
0.247551 0.749951 0.000000
0.318868 0.749951 0.000000
0.388054 0.749951 0.000000
0.455587 0.749951 0.000000
0.521776 0.749951 0.000000
0.586837 0.749951 0.000000
0.650926 0.749951 0.000000
0.714164 0.749951 0.000000
0.776647 0.749951 0.000000
0.838451 0.749951 0.000000
0.899639 0.749951 0.000000
0.960264 0.749951 0.000000
1.000000 0.749951 0.000000
1.000000 0.749951 0.000000
0.000000 0.807908 0.000000
0.094145 0.807908 0.000000
0.173262 0.807908 0.000000
0.247551 0.807908 0.000000
0.318868 0.807908 0.000000
0.388054 0.807908 0.000000
0.455587 0.807908 0.000000
0.521776 0.807908 0.000000
0.586837 0.807908 0.000000
0.650926 0.807908 0.000000
0.714164 0.807908 0.000000
0.776647 0.807908 0.000000
0.838451 0.807908 0.000000
0.899639 0.807908 0.000000
0.960264 0.807908 0.000000
1.000000 0.807908 0.000000
1.000000 0.807908 0.000000
0.000000 0.865553 0.000000
0.094145 0.865553 0.000000
0.173262 0.865553 0.000000
0.247551 0.865553 0.000000
0.318868 0.865553 0.000000
0.388054 0.865553 0.000000
0.455587 0.865553 0.000000
0.521776 0.865553 0.000000
0.586837 0.865553 0.000000
0.650926 0.865553 0.000000
0.714164 0.865553 0.000000
0.776647 0.865553 0.000000
0.838451 0.865553 0.000000
0.899639 0.865553 0.000000
0.960264 0.865553 0.000000
1.000000 0.865553 0.000000
1.000000 0.865553 0.000000
0.000000 0.922910 0.000000
0.094145 0.922910 0.000000
0.173262 0.922910 0.000000
0.247551 0.922910 0.000000
0.318868 0.922910 0.000000
0.388054 0.922910 0.000000
0.455587 0.922910 0.000000
0.521776 0.922910 0.000000
0.586837 0.922910 0.000000
0.650926 0.922910 0.000000
0.714164 0.922910 0.000000
0.776647 0.922910 0.000000
0.838451 0.922910 0.000000
0.899639 0.922910 0.000000
0.960264 0.922910 0.000000
1.000000 0.922910 0.000000
1.000000 0.922910 0.000000
0.000000 0.980000 0.000000
0.094145 0.980000 0.000000
0.173262 0.980000 0.000000
0.247551 0.980000 0.000000
0.318868 0.980000 0.000000
0.388054 0.980000 0.000000
0.455587 0.980000 0.000000
0.521776 0.980000 0.000000
0.586837 0.980000 0.000000
0.650926 0.980000 0.000000
0.714164 0.980000 0.000000
0.776647 0.980000 0.000000
0.838451 0.980000 0.000000
0.899639 0.980000 0.000000
0.960264 0.980000 0.000000
1.000000 0.980000 0.000000
1.000000 0.980000 0.000000
0.000000 0.000000 0.036745
0.094145 0.000000 0.036745
0.173262 0.000000 0.036745
0.247551 0.000000 0.036745
0.318868 0.000000 0.036745
0.388054 0.000000 0.036745
0.455587 0.000000 0.036745
0.521776 0.000000 0.036745
0.586837 0.000000 0.036745
0.650926 0.000000 0.036745
0.714164 0.000000 0.036745
0.776647 0.000000 0.036745
0.838451 0.000000 0.036745
0.899639 0.000000 0.036745
0.960264 0.000000 0.036745
1.000000 0.000000 0.036745
1.000000 0.000000 0.036745
0.000000 0.074369 0.036745
0.094145 0.074369 0.036745
0.173262 0.074369 0.036745
0.247551 0.074369 0.036745
0.318868 0.074369 0.036745
0.388054 0.074369 0.036745
0.455587 0.074369 0.036745
0.521776 0.074369 0.036745
0.586837 0.074369 0.036745
0.650926 0.074369 0.036745
0.714164 0.074369 0.036745
0.776647 0.074369 0.036745
0.838451 0.074369 0.036745
0.899639 0.074369 0.036745
0.960264 0.074369 0.036745
1.000000 0.074369 0.036745
1.000000 0.074369 0.036745
0.000000 0.141694 0.036745
0.094145 0.141694 0.036745
0.173262 0.141694 0.036745
0.247551 0.141694 0.036745
0.318868 0.141694 0.036745
0.388054 0.141694 0.036745
0.455587 0.141694 0.036745
0.521776 0.141694 0.036745
0.586837 0.141694 0.036745
0.650926 0.141694 0.036745
0.714164 0.141694 0.036745
0.776647 0.141694 0.036745
0.838451 0.141694 0.036745
0.899639 0.141694 0.036745
0.960264 0.141694 0.036745
1.000000 0.141694 0.036745
1.000000 0.141694 0.036745
0.000000 0.206594 0.036745
0.094145 0.206594 0.036745
0.173262 0.206594 0.036745
0.247551 0.206594 0.036745
0.318868 0.206594 0.036745
0.388054 0.206594 0.036745
0.455587 0.206594 0.036745
0.521776 0.206594 0.036745
0.586837 0.206594 0.036745
0.650926 0.206594 0.036745
0.714164 0.206594 0.036745
0.776647 0.206594 0.036745
0.838451 0.206594 0.036745
0.899639 0.206594 0.036745
0.960264 0.206594 0.036745
1.000000 0.206594 0.036745
1.000000 0.206594 0.036745
0.000000 0.269967 0.036745
0.094145 0.269967 0.036745
0.173262 0.269967 0.036745
0.247551 0.269967 0.036745
0.318868 0.269967 0.036745
0.388054 0.269967 0.036745
0.455587 0.269967 0.036745
0.521776 0.269967 0.036745
0.586837 0.269967 0.036745
0.650926 0.269967 0.036745
0.714164 0.269967 0.036745
0.776647 0.269967 0.036745
0.838451 0.269967 0.036745
0.899639 0.269967 0.036745
0.960264 0.269967 0.036745
1.000000 0.269967 0.036745
1.000000 0.269967 0.036745
0.000000 0.332228 0.036745
0.094145 0.332228 0.036745
0.173262 0.332228 0.036745
0.247551 0.332228 0.036745
0.318868 0.332228 0.036745
0.388054 0.332228 0.036745
0.455587 0.332228 0.036745
0.521776 0.332228 0.036745
0.586837 0.332228 0.036745
0.650926 0.332228 0.036745
0.714164 0.332228 0.036745
0.776647 0.332228 0.036745
0.838451 0.332228 0.036745
0.899639 0.332228 0.036745
0.960264 0.332228 0.036745
1.000000 0.332228 0.036745
1.000000 0.332228 0.036745
0.000000 0.393618 0.036745
0.094145 0.393618 0.036745
0.173262 0.393618 0.036745
0.247551 0.393618 0.036745
0.318868 0.393618 0.036745
0.388054 0.393618 0.036745
0.455587 0.393618 0.036745
0.521776 0.393618 0.036745
0.586837 0.393618 0.036745
0.650926 0.393618 0.036745
0.714164 0.393618 0.036745
0.776647 0.393618 0.036745
0.838451 0.393618 0.036745
0.899639 0.393618 0.036745
0.960264 0.393618 0.036745
1.000000 0.393618 0.036745
1.000000 0.393618 0.036745
0.000000 0.454293 0.036745
0.094145 0.454293 0.036745
0.173262 0.454293 0.036745
0.247551 0.454293 0.036745
0.318868 0.454293 0.036745
0.388054 0.454293 0.036745
0.455587 0.454293 0.036745
0.521776 0.454293 0.036745
0.586837 0.454293 0.036745
0.650926 0.454293 0.036745
0.714164 0.454293 0.036745
0.776647 0.454293 0.036745
0.838451 0.454293 0.036745
0.899639 0.454293 0.036745
0.960264 0.454293 0.036745
1.000000 0.454293 0.036745
1.000000 0.454293 0.036745
0.000000 0.514361 0.036745
0.094145 0.514361 0.036745
0.173262 0.514361 0.036745
0.247551 0.514361 0.036745
0.318868 0.514361 0.036745
0.388054 0.514361 0.036745
0.455587 0.514361 0.036745
0.521776 0.514361 0.036745
0.586837 0.514361 0.036745
0.650926 0.514361 0.036745
0.714164 0.514361 0.036745
0.776647 0.514361 0.036745
0.838451 0.514361 0.036745
0.899639 0.514361 0.036745
0.960264 0.514361 0.036745
1.000000 0.514361 0.036745
1.000000 0.514361 0.036745
0.000000 0.573905 0.036745
0.094145 0.573905 0.036745
0.173262 0.573905 0.036745
0.247551 0.573905 0.036745
0.318868 0.573905 0.036745
0.388054 0.573905 0.036745
0.455587 0.573905 0.036745
0.521776 0.573905 0.036745
0.586837 0.573905 0.036745
0.650926 0.573905 0.036745
0.714164 0.573905 0.036745
0.776647 0.573905 0.036745
0.838451 0.573905 0.036745
0.899639 0.573905 0.036745
0.960264 0.573905 0.036745
1.000000 0.573905 0.036745
1.000000 0.573905 0.036745
0.000000 0.632987 0.036745
0.094145 0.632987 0.036745
0.173262 0.632987 0.036745
0.247551 0.632987 0.036745
0.318868 0.632987 0.036745
0.388054 0.632987 0.036745
0.455587 0.632987 0.036745
0.521776 0.632987 0.036745
0.586837 0.632987 0.036745
0.650926 0.632987 0.036745
0.714164 0.632987 0.036745
0.776647 0.632987 0.036745
0.838451 0.632987 0.036745
0.899639 0.632987 0.036745
0.960264 0.632987 0.036745
1.000000 0.632987 0.036745
1.000000 0.632987 0.036745
0.000000 0.691655 0.036745
0.094145 0.691655 0.036745
0.173262 0.691655 0.036745
0.247551 0.691655 0.036745
0.318868 0.691655 0.036745
0.388054 0.691655 0.036745
0.455587 0.691655 0.036745
0.521776 0.691655 0.036745
0.586837 0.691655 0.036745
0.650926 0.691655 0.036745
0.714164 0.691655 0.036745
0.776647 0.691655 0.036745
0.838451 0.691655 0.036745
0.899639 0.691655 0.036745
0.960264 0.691655 0.036745
1.000000 0.691655 0.036745
1.000000 0.691655 0.036745
0.000000 0.749951 0.036745
0.094145 0.749951 0.036745
0.173262 0.749951 0.036745
0.247551 0.749951 0.036745
0.318868 0.749951 0.036745
0.388054 0.749951 0.036745
0.455587 0.749951 0.036745
0.521776 0.749951 0.036745
0.586837 0.749951 0.036745
0.650926 0.749951 0.036745
0.714164 0.749951 0.036745
0.776647 0.749951 0.036745
0.838451 0.749951 0.036745
0.899639 0.749951 0.036745
0.960264 0.749951 0.036745
1.000000 0.749951 0.036745
1.000000 0.749951 0.036745
0.000000 0.807908 0.036745
0.094145 0.807908 0.036745
0.173262 0.807908 0.036745
0.247551 0.807908 0.036745
0.318868 0.807908 0.036745
0.388054 0.807908 0.036745
0.455587 0.807908 0.036745
0.521776 0.807908 0.036745
0.586837 0.807908 0.036745
0.650926 0.807908 0.036745
0.714164 0.807908 0.036745
0.776647 0.807908 0.036745
0.838451 0.807908 0.036745
0.899639 0.807908 0.036745
0.960264 0.807908 0.036745
1.000000 0.807908 0.036745
1.000000 0.807908 0.036745
0.000000 0.865553 0.036745
0.094145 0.865553 0.036745
0.173262 0.865553 0.036745
0.247551 0.865553 0.036745
0.318868 0.865553 0.036745
0.388054 0.865553 0.036745
0.455587 0.865553 0.036745
0.521776 0.865553 0.036745
0.586837 0.865553 0.036745
0.650926 0.865553 0.036745
0.714164 0.865553 0.036745
0.776647 0.865553 0.036745
0.838451 0.865553 0.036745
0.899639 0.865553 0.036745
0.960264 0.865553 0.036745
1.000000 0.865553 0.036745
1.000000 0.865553 0.036745
0.000000 0.922910 0.036745
0.094145 0.922910 0.036745
0.173262 0.922910 0.036745
0.247551 0.922910 0.036745
0.318868 0.922910 0.036745
0.388054 0.922910 0.036745
0.455587 0.922910 0.036745
0.521776 0.922910 0.036745
0.586837 0.922910 0.036745
0.650926 0.922910 0.036745
0.714164 0.922910 0.036745
0.776647 0.922910 0.036745
0.838451 0.922910 0.036745
0.899639 0.922910 0.036745
0.960264 0.922910 0.036745
1.000000 0.922910 0.036745
1.000000 0.922910 0.036745
0.000000 0.980000 0.036745
0.094145 0.980000 0.036745
0.173262 0.980000 0.036745
0.247551 0.980000 0.036745
0.318868 0.980000 0.036745
0.388054 0.980000 0.036745
0.455587 0.980000 0.036745
0.521776 0.980000 0.036745
0.586837 0.980000 0.036745
0.650926 0.980000 0.036745
0.714164 0.980000 0.036745
0.776647 0.980000 0.036745
0.838451 0.980000 0.036745
0.899639 0.980000 0.036745
0.960264 0.980000 0.036745
1.000000 0.980000 0.036745
1.000000 0.980000 0.036745
0.000000 0.000000 0.079864
0.094145 0.000000 0.079864
0.173262 0.000000 0.079864
0.247551 0.000000 0.079864
0.318868 0.000000 0.079864
0.388054 0.000000 0.079864
0.455587 0.000000 0.079864
0.521776 0.000000 0.079864
0.586837 0.000000 0.079864
0.650926 0.000000 0.079864
0.714164 0.000000 0.079864
0.776647 0.000000 0.079864
0.838451 0.000000 0.079864
0.899639 0.000000 0.079864
0.960264 0.000000 0.079864
1.000000 0.000000 0.079864
1.000000 0.000000 0.079864
0.000000 0.074369 0.079864
0.094145 0.074369 0.079864
0.173262 0.074369 0.079864
0.247551 0.074369 0.079864
0.318868 0.074369 0.079864
0.388054 0.074369 0.079864
0.455587 0.074369 0.079864
0.521776 0.074369 0.079864
0.586837 0.074369 0.079864
0.650926 0.074369 0.079864
0.714164 0.074369 0.079864
0.776647 0.074369 0.079864
0.838451 0.074369 0.079864
0.899639 0.074369 0.079864
0.960264 0.074369 0.079864
1.000000 0.074369 0.079864
1.000000 0.074369 0.079864
0.000000 0.141694 0.079864
0.094145 0.141694 0.079864
0.173262 0.141694 0.079864
0.247551 0.141694 0.079864
0.318868 0.141694 0.079864
0.388054 0.141694 0.079864
0.455587 0.141694 0.079864
0.521776 0.141694 0.079864
0.586837 0.141694 0.079864
0.650926 0.141694 0.079864
0.714164 0.141694 0.079864
0.776647 0.141694 0.079864
0.838451 0.141694 0.079864
0.899639 0.141694 0.079864
0.960264 0.141694 0.079864
1.000000 0.141694 0.079864
1.000000 0.141694 0.079864
0.000000 0.206594 0.079864
0.094145 0.206594 0.079864
0.173262 0.206594 0.079864
0.247551 0.206594 0.079864
0.318868 0.206594 0.079864
0.388054 0.206594 0.079864
0.455587 0.206594 0.079864
0.521776 0.206594 0.079864
0.586837 0.206594 0.079864
0.650926 0.206594 0.079864
0.714164 0.206594 0.079864
0.776647 0.206594 0.079864
0.838451 0.206594 0.079864
0.899639 0.206594 0.079864
0.960264 0.206594 0.079864
1.000000 0.206594 0.079864
1.000000 0.206594 0.079864
0.000000 0.269967 0.079864
0.094145 0.269967 0.079864
0.173262 0.269967 0.079864
0.247551 0.269967 0.079864
0.318868 0.269967 0.079864
0.388054 0.269967 0.079864
0.455587 0.269967 0.079864
0.521776 0.269967 0.079864
0.586837 0.269967 0.079864
0.650926 0.269967 0.079864
0.714164 0.269967 0.079864
0.776647 0.269967 0.079864
0.838451 0.269967 0.079864
0.899639 0.269967 0.079864
0.960264 0.269967 0.079864
1.000000 0.269967 0.079864
1.000000 0.269967 0.079864
0.000000 0.332228 0.079864
0.094145 0.332228 0.079864
0.173262 0.332228 0.079864
0.247551 0.332228 0.079864
0.318868 0.332228 0.079864
0.388054 0.332228 0.079864
0.455587 0.332228 0.079864
0.521776 0.332228 0.079864
0.586837 0.332228 0.079864
0.650926 0.332228 0.079864
0.714164 0.332228 0.079864
0.776647 0.332228 0.079864
0.838451 0.332228 0.079864
0.899639 0.332228 0.079864
0.960264 0.332228 0.079864
1.000000 0.332228 0.079864
1.000000 0.332228 0.079864
0.000000 0.393618 0.079864
0.094145 0.393618 0.079864
0.173262 0.393618 0.079864
0.247551 0.393618 0.079864
0.318868 0.393618 0.079864
0.388054 0.393618 0.079864
0.455587 0.393618 0.079864
0.521776 0.393618 0.079864
0.586837 0.393618 0.079864
0.650926 0.393618 0.079864
0.714164 0.393618 0.079864
0.776647 0.393618 0.079864
0.838451 0.393618 0.079864
0.899639 0.393618 0.079864
0.960264 0.393618 0.079864
1.000000 0.393618 0.079864
1.000000 0.393618 0.079864
0.000000 0.454293 0.079864
0.094145 0.454293 0.079864
0.173262 0.454293 0.079864
0.247551 0.454293 0.079864
0.318868 0.454293 0.079864
0.388054 0.454293 0.079864
0.455587 0.454293 0.079864
0.521776 0.454293 0.079864
0.586837 0.454293 0.079864
0.650926 0.454293 0.079864
0.714164 0.454293 0.079864
0.776647 0.454293 0.079864
0.838451 0.454293 0.079864
0.899639 0.454293 0.079864
0.960264 0.454293 0.079864
1.000000 0.454293 0.079864
1.000000 0.454293 0.079864
0.000000 0.514361 0.079864
0.094145 0.514361 0.079864
0.173262 0.514361 0.079864
0.247551 0.514361 0.079864
0.318868 0.514361 0.079864
0.388054 0.514361 0.079864
0.455587 0.514361 0.079864
0.521776 0.514361 0.079864
0.586837 0.514361 0.079864
0.650926 0.514361 0.079864
0.714164 0.514361 0.079864
0.776647 0.514361 0.079864
0.838451 0.514361 0.079864
0.899639 0.514361 0.079864
0.960264 0.514361 0.079864
1.000000 0.514361 0.079864
1.000000 0.514361 0.079864
0.000000 0.573905 0.079864
0.094145 0.573905 0.079864
0.173262 0.573905 0.079864
0.247551 0.573905 0.079864
0.318868 0.573905 0.079864
0.388054 0.573905 0.079864
0.455587 0.573905 0.079864
0.521776 0.573905 0.079864
0.586837 0.573905 0.079864
0.650926 0.573905 0.079864
0.714164 0.573905 0.079864
0.776647 0.573905 0.079864
0.838451 0.573905 0.079864
0.899639 0.573905 0.079864
0.960264 0.573905 0.079864
1.000000 0.573905 0.079864
1.000000 0.573905 0.079864
0.000000 0.632987 0.079864
0.094145 0.632987 0.079864
0.173262 0.632987 0.079864
0.247551 0.632987 0.079864
0.318868 0.632987 0.079864
0.388054 0.632987 0.079864
0.455587 0.632987 0.079864
0.521776 0.632987 0.079864
0.586837 0.632987 0.079864
0.650926 0.632987 0.079864
0.714164 0.632987 0.079864
0.776647 0.632987 0.079864
0.838451 0.632987 0.079864
0.899639 0.632987 0.079864
0.960264 0.632987 0.079864
1.000000 0.632987 0.079864
1.000000 0.632987 0.079864
0.000000 0.691655 0.079864
0.094145 0.691655 0.079864
0.173262 0.691655 0.079864
0.247551 0.691655 0.079864
0.318868 0.691655 0.079864
0.388054 0.691655 0.079864
0.455587 0.691655 0.079864
0.521776 0.691655 0.079864
0.586837 0.691655 0.079864
0.650926 0.691655 0.079864
0.714164 0.691655 0.079864
0.776647 0.691655 0.079864
0.838451 0.691655 0.079864
0.899639 0.691655 0.079864
0.960264 0.691655 0.079864
1.000000 0.691655 0.079864
1.000000 0.691655 0.079864
0.000000 0.749951 0.079864
0.094145 0.749951 0.079864
0.173262 0.749951 0.079864
0.247551 0.749951 0.079864
0.318868 0.749951 0.079864
0.388054 0.749951 0.079864
0.455587 0.749951 0.079864
0.521776 0.749951 0.079864
0.586837 0.749951 0.079864
0.650926 0.749951 0.079864
0.714164 0.749951 0.079864
0.776647 0.749951 0.079864
0.838451 0.749951 0.079864
0.899639 0.749951 0.079864
0.960264 0.749951 0.079864
1.000000 0.749951 0.079864
1.000000 0.749951 0.079864
0.000000 0.807908 0.079864
0.094145 0.807908 0.079864
0.173262 0.807908 0.079864
0.247551 0.807908 0.079864
0.318868 0.807908 0.079864
0.388054 0.807908 0.079864
0.455587 0.807908 0.079864
0.521776 0.807908 0.079864
0.586837 0.807908 0.079864
0.650926 0.807908 0.079864
0.714164 0.807908 0.079864
0.776647 0.807908 0.079864
0.838451 0.807908 0.079864
0.899639 0.807908 0.079864
0.960264 0.807908 0.079864
1.000000 0.807908 0.079864
1.000000 0.807908 0.079864
0.000000 0.865553 0.079864
0.094145 0.865553 0.079864
0.173262 0.865553 0.079864
0.247551 0.865553 0.079864
0.318868 0.865553 0.079864
0.388054 0.865553 0.079864
0.455587 0.865553 0.079864
0.521776 0.865553 0.079864
0.586837 0.865553 0.079864
0.650926 0.865553 0.079864
0.714164 0.865553 0.079864
0.776647 0.865553 0.079864
0.838451 0.865553 0.079864
0.899639 0.865553 0.079864
0.960264 0.865553 0.079864
1.000000 0.865553 0.079864
1.000000 0.865553 0.079864
0.000000 0.922910 0.079864
0.094145 0.922910 0.079864
0.173262 0.922910 0.079864
0.247551 0.922910 0.079864
0.318868 0.922910 0.079864
0.388054 0.922910 0.079864
0.455587 0.922910 0.079864
0.521776 0.922910 0.079864
0.586837 0.922910 0.079864
0.650926 0.922910 0.079864
0.714164 0.922910 0.079864
0.776647 0.922910 0.079864
0.838451 0.922910 0.079864
0.899639 0.922910 0.079864
0.960264 0.922910 0.079864
1.000000 0.922910 0.079864
1.000000 0.922910 0.079864
0.000000 0.980000 0.079864
0.094145 0.980000 0.079864
0.173262 0.980000 0.079864
0.247551 0.980000 0.079864
0.318868 0.980000 0.079864
0.388054 0.980000 0.079864
0.455587 0.980000 0.079864
0.521776 0.980000 0.079864
0.586837 0.980000 0.079864
0.650926 0.980000 0.079864
0.714164 0.980000 0.079864
0.776647 0.980000 0.079864
0.838451 0.980000 0.079864
0.899639 0.980000 0.079864
0.960264 0.980000 0.079864
1.000000 0.980000 0.079864
1.000000 0.980000 0.079864
0.000000 0.000000 0.125769
0.094145 0.000000 0.125769
0.173262 0.000000 0.125769
0.247551 0.000000 0.125769
0.318868 0.000000 0.125769
0.388054 0.000000 0.125769
0.455587 0.000000 0.125769
0.521776 0.000000 0.125769
0.586837 0.000000 0.125769
0.650926 0.000000 0.125769
0.714164 0.000000 0.125769
0.776647 0.000000 0.125769
0.838451 0.000000 0.125769
0.899639 0.000000 0.125769
0.960264 0.000000 0.125769
1.000000 0.000000 0.125769
1.000000 0.000000 0.125769
0.000000 0.074369 0.125769
0.094145 0.074369 0.125769
0.173262 0.074369 0.125769
