resources/luts/golden-hour.cube
TITLE "Golden Hour"
LUT_3D_SIZE 5
0.000000 0.000000 0.000000
0.318868 0.000000 0.000000
0.586837 0.000000 0.000000
0.838451 0.000000 0.000000
1.000000 0.000000 0.000000
0.000000 0.269967 0.000000
0.318868 0.269967 0.000000
0.586837 0.269967 0.000000
0.838451 0.269967 0.000000
1.000000 0.269967 0.000000
0.000000 0.514361 0.000000
0.318868 0.514361 0.000000
0.586837 0.514361 0.000000
0.838451 0.514361 0.000000
1.000000 0.514361 0.000000
0.000000 0.749951 0.000000
0.318868 0.749951 0.000000
0.586837 0.749951 0.000000
0.838451 0.749951 0.000000
1.000000 0.749951 0.000000
0.000000 0.980000 0.000000
0.318868 0.980000 0.000000
0.586837 0.980000 0.000000
0.838451 0.980000 0.000000
1.000000 0.980000 0.000000
0.000000 0.000000 0.173583
0.318868 0.000000 0.173583
0.586837 0.000000 0.173583
0.838451 0.000000 0.173583
1.000000 0.000000 0.173583
0.000000 0.269967 0.173583
0.318868 0.269967 0.173583
0.586837 0.269967 0.173583
0.838451 0.269967 0.173583
1.000000 0.269967 0.173583
0.000000 0.514361 0.173583
0.318868 0.514361 0.173583
0.586837 0.514361 0.173583
0.838451 0.514361 0.173583
1.000000 0.514361 0.173583
0.000000 0.749951 0.173583
0.318868 0.749951 0.173583
0.586837 0.749951 0.173583
0.838451 0.749951 0.173583
1.000000 0.749951 0.173583
0.000000 0.980000 0.173583
0.318868 0.980000 0.173583
0.586837 0.980000 0.173583
0.838451 0.980000 0.173583
1.000000 0.980000 0.173583
0.000000 0.000000 0.377277
0.318868 0.000000 0.377277
0.586837 0.000000 0.377277
0.838451 0.000000 0.377277
1.000000 0.000000 0.377277
0.000000 0.269967 0.377277
0.318868 0.269967 0.377277
0.586837 0.269967 0.377277
0.838451 0.269967 0.377277
1.000000 0.269967 0.377277
0.000000 0.514361 0.377277
0.318868 0.514361 0.377277
0.586837 0.514361 0.377277
0.838451 0.514361 0.377277
1.000000 0.514361 0.377277
0.000000 0.749951 0.377277
0.318868 0.749951 0.377277
0.586837 0.749951 0.377277
0.838451 0.749951 0.377277
1.000000 0.749951 0.377277
0.000000 0.980000 0.377277
0.318868 0.980000 0.377277
0.586837 0.980000 0.377277
0.838451 0.980000 0.377277
1.000000 0.980000 0.377277
0.000000 0.000000 0.594131
0.318868 0.000000 0.594131
0.586837 0.000000 0.594131
0.838451 0.000000 0.594131
1.000000 0.000000 0.594131
0.000000 0.269967 0.594131
0.318868 0.269967 0.594131
0.586837 0.269967 0.594131
0.838451 0.269967 0.594131
1.000000 0.269967 0.594131
0.000000 0.514361 0.594131
0.318868 0.514361 0.594131
0.586837 0.514361 0.594131
0.838451 0.514361 0.594131
1.000000 0.514361 0.594131
0.000000 0.749951 0.594131
0.318868 0.749951 0.594131
0.586837 0.749951 0.594131
0.838451 0.749951 0.594131
1.000000 0.749951 0.594131
0.000000 0.980000 0.594131
0.318868 0.980000 0.594131
0.586837 0.980000 0.594131
0.838451 0.980000 0.594131
1.000000 0.980000 0.594131
0.000000 0.000000 0.820000
0.318868 0.000000 0.820000
0.586837 0.000000 0.820000
0.838451 0.000000 0.820000
1.000000 0.000000 0.820000
0.000000 0.269967 0.820000
0.318868 0.269967 0.820000
0.586837 0.269967 0.820000
0.838451 0.269967 0.820000
1.000000 0.269967 0.820000
0.000000 0.514361 0.820000
0.318868 0.514361 0.820000
0.586837 0.514361 0.820000
0.838451 0.514361 0.820000
1.000000 0.514361 0.820000
0.000000 0.749951 0.820000
0.318868 0.749951 0.820000
0.586837 0.749951 0.820000
0.838451 0.749951 0.820000
1.000000 0.749951 0.820000
0.000000 0.980000 0.820000
0.318868 0.980000 0.820000
0.586837 0.980000 0.820000
0.838451 0.980000 0.820000
1.000000 0.980000 0.820000
