resources/luts/moonlight.cube
TITLE "Moonlight"
LUT_3D_SIZE 9
0.040000 0.040000 0.040000
0.115034 0.040000 0.040000
0.206512 0.040000 0.040000
0.305430 0.040000 0.040000
0.409513 0.040000 0.040000
0.517613 0.040000 0.040000
0.629026 0.040000 0.040000
0.743272 0.040000 0.040000
0.860000 0.040000 0.040000
0.040000 0.143644 0.040000
0.115034 0.143644 0.040000
0.206512 0.143644 0.040000
0.305430 0.143644 0.040000
0.409513 0.143644 0.040000
0.517613 0.143644 0.040000
0.629026 0.143644 0.040000
0.743272 0.143644 0.040000
0.860000 0.143644 0.040000
0.040000 0.254598 0.040000
0.115034 0.254598 0.040000
0.206512 0.254598 0.040000
0.305430 0.254598 0.040000
0.409513 0.254598 0.040000
0.517613 0.254598 0.040000
0.629026 0.254598 0.040000
0.743272 0.254598 0.040000
0.860000 0.254598 0.040000
0.040000 0.368489 0.040000
0.115034 0.368489 0.040000
0.206512 0.368489 0.040000
0.305430 0.368489 0.040000
0.409513 0.368489 0.040000
0.517613 0.368489 0.040000
0.629026 0.368489 0.040000
0.743272 0.368489 0.040000
0.860000 0.368489 0.040000
0.040000 0.484331 0.040000
0.115034 0.484331 0.040000
0.206512 0.484331 0.040000
0.305430 0.484331 0.040000
0.409513 0.484331 0.040000
0.517613 0.484331 0.040000
0.629026 0.484331 0.040000
0.743272 0.484331 0.040000
0.860000 0.484331 0.040000
0.040000 0.601645 0.040000
0.115034 0.601645 0.040000
0.206512 0.601645 0.040000
0.305430 0.601645 0.040000
0.409513 0.601645 0.040000
0.517613 0.601645 0.040000
0.629026 0.601645 0.040000
0.743272 0.601645 0.040000
0.860000 0.601645 0.040000
0.040000 0.720146 0.040000
0.115034 0.720146 0.040000
0.206512 0.720146 0.040000
0.305430 0.720146 0.040000
0.409513 0.720146 0.040000
0.517613 0.720146 0.040000
0.629026 0.720146 0.040000
0.743272 0.720146 0.040000
0.860000 0.720146 0.040000
0.040000 0.839643 0.040000
0.115034 0.839643 0.040000
0.206512 0.839643 0.040000
0.305430 0.839643 0.040000
0.409513 0.839643 0.040000
0.517613 0.839643 0.040000
0.629026 0.839643 0.040000
0.743272 0.839643 0.040000
0.860000 0.839643 0.040000
0.040000 0.960000 0.040000
0.115034 0.960000 0.040000
0.206512 0.960000 0.040000
0.305430 0.960000 0.040000
0.409513 0.960000 0.040000
0.517613 0.960000 0.040000
0.629026 0.960000 0.040000
0.743272 0.960000 0.040000
0.860000 0.960000 0.040000
0.040000 0.040000 0.212360
0.115034 0.040000 0.212360
0.206512 0.040000 0.212360
0.305430 0.040000 0.212360
0.409513 0.040000 0.212360
0.517613 0.040000 0.212360
0.629026 0.040000 0.212360
0.743272 0.040000 0.212360
0.860000 0.040000 0.212360
0.040000 0.143644 0.212360
0.115034 0.143644 0.212360
0.206512 0.143644 0.212360
0.305430 0.143644 0.212360
0.409513 0.143644 0.212360
0.517613 0.143644 0.212360
0.629026 0.143644 0.212360
0.743272 0.143644 0.212360
0.860000 0.143644 0.212360
0.040000 0.254598 0.212360
0.115034 0.254598 0.212360
0.206512 0.254598 0.212360
0.305430 0.254598 0.212360
0.409513 0.254598 0.212360
0.517613 0.254598 0.212360
0.629026 0.254598 0.212360
0.743272 0.254598 0.212360
0.860000 0.254598 0.212360
0.040000 0.368489 0.212360
0.115034 0.368489 0.212360
0.206512 0.368489 0.212360
0.305430 0.368489 0.212360
0.409513 0.368489 0.212360
0.517613 0.368489 0.212360
0.629026 0.368489 0.212360
0.743272 0.368489 0.212360
0.860000 0.368489 0.212360
0.040000 0.484331 0.212360
0.115034 0.484331 0.212360
0.206512 0.484331 0.212360
0.305430 0.484331 0.212360
0.409513 0.484331 0.212360
0.517613 0.484331 0.212360
0.629026 0.484331 0.212360
0.743272 0.484331 0.212360
0.860000 0.484331 0.212360
0.040000 0.601645 0.212360
0.115034 0.601645 0.212360
0.206512 0.601645 0.212360
0.305430 0.601645 0.212360
0.409513 0.601645 0.212360
0.517613 0.601645 0.212360
0.629026 0.601645 0.212360
0.743272 0.601645 0.212360
0.860000 0.601645 0.212360
0.040000 0.720146 0.212360
0.115034 0.720146 0.212360
0.206512 0.720146 0.212360
0.305430 0.720146 0.212360
0.409513 0.720146 0.212360
0.517613 0.720146 0.212360
0.629026 0.720146 0.212360
0.743272 0.720146 0.212360
0.860000 0.720146 0.212360
0.040000 0.839643 0.212360
0.115034 0.839643 0.212360
0.206512 0.839643 0.212360
0.305430 0.839643 0.212360
0.409513 0.839643 0.212360
0.517613 0.839643 0.212360
0.629026 0.839643 0.212360
0.743272 0.839643 0.212360
0.860000 0.839643 0.212360
0.040000 0.960000 0.212360
0.115034 0.960000 0.212360
0.206512 0.960000 0.212360
0.305430 0.960000 0.212360
0.409513 0.960000 0.212360
0.517613 0.960000 0.212360
0.629026 0.960000 0.212360
0.743272 0.960000 0.212360
0.860000 0.960000 0.212360
0.040000 0.040000 0.361636
0.115034 0.040000 0.361636
0.206512 0.040000 0.361636
0.305430 0.040000 0.361636
0.409513 0.040000 0.361636
0.517613 0.040000 0.361636
0.629026 0.040000 0.361636
0.743272 0.040000 0.361636
0.860000 0.040000 0.361636
0.040000 0.143644 0.361636
0.115034 0.143644 0.361636
0.206512 0.143644 0.361636
0.305430 0.143644 0.361636
0.409513 0.143644 0.361636
0.517613 0.143644 0.361636
0.629026 0.143644 0.361636
0.743272 0.143644 0.361636
0.860000 0.143644 0.361636
0.040000 0.254598 0.361636
0.115034 0.254598 0.361636
0.206512 0.254598 0.361636
0.305430 0.254598 0.361636
0.409513 0.254598 0.361636
0.517613 0.254598 0.361636
0.629026 0.254598 0.361636
0.743272 0.254598 0.361636
0.860000 0.254598 0.361636
0.040000 0.368489 0.361636
0.115034 0.368489 0.361636
0.206512 0.368489 0.361636
0.305430 0.368489 0.361636
0.409513 0.368489 0.361636
0.517613 0.368489 0.361636
0.629026 0.368489 0.361636
0.743272 0.368489 0.361636
0.860000 0.368489 0.361636
0.040000 0.484331 0.361636
0.115034 0.484331 0.361636
0.206512 0.484331 0.361636
0.305430 0.484331 0.361636
0.409513 0.484331 0.361636
0.517613 0.484331 0.361636
0.629026 0.484331 0.361636
0.743272 0.484331 0.361636
0.860000 0.484331 0.361636
0.040000 0.601645 0.361636
0.115034 0.601645 0.361636
0.206512 0.601645 0.361636
0.305430 0.601645 0.361636
0.409513 0.601645 0.361636
0.517613 0.601645 0.361636
0.629026 0.601645 0.361636
0.743272 0.601645 0.361636
0.860000 0.601645 0.361636
0.040000 0.720146 0.361636
0.115034 0.720146 0.361636
0.206512 0.720146 0.361636
0.305430 0.720146 0.361636
0.409513 0.720146 0.361636
0.517613 0.720146 0.361636
0.629026 0.720146 0.361636
0.743272 0.720146 0.361636
0.860000 0.720146 0.361636
0.040000 0.839643 0.361636
0.115034 0.839643 0.361636
0.206512 0.839643 0.361636
0.305430 0.839643 0.361636
0.409513 0.839643 0.361636
0.517613 0.839643 0.361636
0.629026 0.839643 0.361636
0.743272 0.839643 0.361636
0.860000 0.839643 0.361636
0.040000 0.960000 0.361636
0.115034 0.960000 0.361636
0.206512 0.960000 0.361636
0.305430 0.960000 0.361636
0.409513 0.960000 0.361636
0.517613 0.960000 0.361636
0.629026 0.960000 0.361636
0.743272 0.960000 0.361636
0.860000 0.960000 0.361636
0.040000 0.040000 0.503283
0.115034 0.040000 0.503283
0.206512 0.040000 0.503283
0.305430 0.040000 0.503283
0.409513 0.040000 0.503283
0.517613 0.040000 0.503283
0.629026 0.040000 0.503283
0.743272 0.040000 0.503283
0.860000 0.040000 0.503283
0.040000 0.143644 0.503283
0.115034 0.143644 0.503283
0.206512 0.143644 0.503283
0.305430 0.143644 0.503283
0.409513 0.143644 0.503283
0.517613 0.143644 0.503283
0.629026 0.143644 0.503283
0.743272 0.143644 0.503283
0.860000 0.143644 0.503283
0.040000 0.254598 0.503283
0.115034 0.254598 0.503283
0.206512 0.254598 0.503283
0.305430 0.254598 0.503283
0.409513 0.254598 0.503283
0.517613 0.254598 0.503283
0.629026 0.254598 0.503283
0.743272 0.254598 0.503283
0.860000 0.254598 0.503283
0.040000 0.368489 0.503283
0.115034 0.368489 0.503283
0.206512 0.368489 0.503283
0.305430 0.368489 0.503283
0.409513 0.368489 0.503283
0.517613 0.368489 0.503283
0.629026 0.368489 0.503283
0.743272 0.368489 0.503283
0.860000 0.368489 0.503283
0.040000 0.484331 0.503283
0.115034 0.484331 0.503283
0.206512 0.484331 0.503283
0.305430 0.484331 0.503283
0.409513 0.484331 0.503283
0.517613 0.484331 0.503283
0.629026 0.484331 0.503283
0.743272 0.484331 0.503283
0.860000 0.484331 0.503283
0.040000 0.601645 0.503283
0.115034 0.601645 0.503283
0.206512 0.601645 0.503283
0.305430 0.601645 0.503283
0.409513 0.601645 0.503283
0.517613 0.601645 0.503283
0.629026 0.601645 0.503283
0.743272 0.601645 0.503283
0.860000 0.601645 0.503283
0.040000 0.720146 0.503283
0.115034 0.720146 0.503283
0.206512 0.720146 0.503283
0.305430 0.720146 0.503283
0.409513 0.720146 0.503283
0.517613 0.720146 0.503283
0.629026 0.720146 0.503283
0.743272 0.720146 0.503283
0.860000 0.720146 0.503283
0.040000 0.839643 0.503283
0.115034 0.839643 0.503283
0.206512 0.839643 0.503283
0.305430 0.839643 0.503283
0.409513 0.839643 0.503283
0.517613 0.839643 0.503283
0.629026 0.839643 0.503283
0.743272 0.839643 0.503283
0.860000 0.839643 0.503283
0.040000 0.960000 0.503283
0.115034 0.960000 0.503283
0.206512 0.960000 0.503283
0.305430 0.960000 0.503283
0.409513 0.960000 0.503283
0.517613 0.960000 0.503283
0.629026 0.960000 0.503283
0.743272 0.960000 0.503283
0.860000 0.960000 0.503283
0.040000 0.040000 0.640193
0.115034 0.040000 0.640193
0.206512 0.040000 0.640193
0.305430 0.040000 0.640193
0.409513 0.040000 0.640193
0.517613 0.040000 0.640193
0.629026 0.040000 0.640193
0.743272 0.040000 0.640193
0.860000 0.040000 0.640193
0.040000 0.143644 0.640193
0.115034 0.143644 0.640193
0.206512 0.143644 0.640193
0.305430 0.143644 0.640193
0.409513 0.143644 0.640193
0.517613 0.143644 0.640193
0.629026 0.143644 0.640193
0.743272 0.143644 0.640193
0.860000 0.143644 0.640193
0.040000 0.254598 0.640193
0.115034 0.254598 0.640193
0.206512 0.254598 0.640193
0.305430 0.254598 0.640193
0.409513 0.254598 0.640193
0.517613 0.254598 0.640193
0.629026 0.254598 0.640193
0.743272 0.254598 0.640193
0.860000 0.254598 0.640193
0.040000 0.368489 0.640193
0.115034 0.368489 0.640193
0.206512 0.368489 0.640193
0.305430 0.368489 0.640193
0.409513 0.368489 0.640193
0.517613 0.368489 0.640193
0.629026 0.368489 0.640193
0.743272 0.368489 0.640193
0.860000 0.368489 0.640193
0.040000 0.484331 0.640193
0.115034 0.484331 0.640193
0.206512 0.484331 0.640193
0.305430 0.484331 0.640193
0.409513 0.484331 0.640193
0.517613 0.484331 0.640193
0.629026 0.484331 0.640193
0.743272 0.484331 0.640193
0.860000 0.484331 0.640193
0.040000 0.601645 0.640193
0.115034 0.601645 0.640193
0.206512 0.601645 0.640193
0.305430 0.601645 0.640193
0.409513 0.601645 0.640193
0.517613 0.601645 0.640193
0.629026 0.601645 0.640193
0.743272 0.601645 0.640193
0.860000 0.601645 0.640193
0.040000 0.720146 0.640193
0.115034 0.720146 0.640193
0.206512 0.720146 0.640193
0.305430 0.720146 0.640193
0.409513 0.720146 0.640193
0.517613 0.720146 0.640193
0.629026 0.720146 0.640193
0.743272 0.720146 0.640193
0.860000 0.720146 0.640193
0.040000 0.839643 0.640193
0.115034 0.839643 0.640193
0.206512 0.839643 0.640193
0.305430 0.839643 0.640193
0.409513 0.839643 0.640193
0.517613 0.839643 0.640193
0.629026 0.839643 0.640193
0.743272 0.839643 0.640193
0.860000 0.839643 0.640193
0.040000 0.960000 0.640193
0.115034 0.960000 0.640193
0.206512 0.960000 0.640193
0.305430 0.960000 0.640193
0.409513 0.960000 0.640193
0.517613 0.960000 0.640193
0.629026 0.960000 0.640193
0.743272 0.960000 0.640193
0.860000 0.960000 0.640193
0.040000 0.040000 0.773686
0.115034 0.040000 0.773686
0.206512 0.040000 0.773686
0.305430 0.040000 0.773686
0.409513 0.040000 0.773686
0.517613 0.040000 0.773686
0.629026 0.040000 0.773686
0.743272 0.040000 0.773686
0.860000 0.040000 0.773686
0.040000 0.143644 0.773686
0.115034 0.143644 0.773686
0.206512 0.143644 0.773686
0.305430 0.143644 0.773686
0.409513 0.143644 0.773686
0.517613 0.143644 0.773686
0.629026 0.143644 0.773686
0.743272 0.143644 0.773686
0.860000 0.143644 0.773686
0.040000 0.254598 0.773686
0.115034 0.254598 0.773686
0.206512 0.254598 0.773686
0.305430 0.254598 0.773686
0.409513 0.254598 0.773686
0.517613 0.254598 0.773686
0.629026 0.254598 0.773686
0.743272 0.254598 0.773686
0.860000 0.254598 0.773686
0.040000 0.368489 0.773686
0.115034 0.368489 0.773686
0.206512 0.368489 0.773686
0.305430 0.368489 0.773686
0.409513 0.368489 0.773686
0.517613 0.368489 0.773686
0.629026 0.368489 0.773686
0.743272 0.368489 0.773686
0.860000 0.368489 0.773686
0.040000 0.484331 0.773686
0.115034 0.484331 0.773686
0.206512 0.484331 0.773686
0.305430 0.484331 0.773686
0.409513 0.484331 0.773686
0.517613 0.484331 0.773686
0.629026 0.484331 0.773686
0.743272 0.484331 0.773686
0.860000 0.484331 0.773686
0.040000 0.601645 0.773686
0.115034 0.601645 0.773686
0.206512 0.601645 0.773686
0.305430 0.601645 0.773686
0.409513 0.601645 0.773686
0.517613 0.601645 0.773686
0.629026 0.601645 0.773686
0.743272 0.601645 0.773686
0.860000 0.601645 0.773686
0.040000 0.720146 0.773686
0.115034 0.720146 0.773686
0.206512 0.720146 0.773686
0.305430 0.720146 0.773686
0.409513 0.720146 0.773686
0.517613 0.720146 0.773686
0.629026 0.720146 0.773686
0.743272 0.720146 0.773686
0.860000 0.720146 0.773686
0.040000 0.839643 0.773686
0.115034 0.839643 0.773686
0.206512 0.839643 0.773686
0.305430 0.839643 0.773686
0.409513 0.839643 0.773686
0.517613 0.839643 0.773686
0.629026 0.839643 0.773686
0.743272 0.839643 0.773686
0.860000 0.839643 0.773686
0.040000 0.960000 0.773686
0.115034 0.960000 0.773686
0.206512 0.960000 0.773686
0.305430 0.960000 0.773686
0.409513 0.960000 0.773686
0.517613 0.960000 0.773686
0.629026 0.960000 0.773686
0.743272 0.960000 0.773686
0.860000 0.960000 0.773686
0.040000 0.040000 0.904516
0.115034 0.040000 0.904516
0.206512 0.040000 0.904516
0.305430 0.040000 0.904516
0.409513 0.040000 0.904516
0.517613 0.040000 0.904516
0.629026 0.040000 0.904516
0.743272 0.040000 0.904516
0.860000 0.040000 0.904516
0.040000 0.143644 0.904516
0.115034 0.143644 0.904516
0.206512 0.143644 0.904516
0.305430 0.143644 0.904516
0.409513 0.143644 0.904516
0.517613 0.143644 0.904516
0.629026 0.143644 0.904516
0.743272 0.143644 0.904516
0.860000 0.143644 0.904516
0.040000 0.254598 0.904516
0.115034 0.254598 0.904516
0.206512 0.254598 0.904516
0.305430 0.254598 0.904516
0.409513 0.254598 0.904516
0.517613 0.254598 0.904516
0.629026 0.254598 0.904516
0.743272 0.254598 0.904516
0.860000 0.254598 0.904516
0.040000 0.368489 0.904516
0.115034 0.368489 0.904516
0.206512 0.368489 0.904516
0.305430 0.368489 0.904516
0.409513 0.368489 0.904516
0.517613 0.368489 0.904516
0.629026 0.368489 0.904516
0.743272 0.368489 0.904516
0.860000 0.368489 0.904516
0.040000 0.484331 0.904516
0.115034 0.484331 0.904516
0.206512 0.484331 0.904516
0.305430 0.484331 0.904516
0.409513 0.484331 0.904516
0.517613 0.484331 0.904516
0.629026 0.484331 0.904516
0.743272 0.484331 0.904516
0.860000 0.484331 0.904516
0.040000 0.601645 0.904516
0.115034 0.601645 0.904516
0.206512 0.601645 0.904516
0.305430 0.601645 0.904516
0.409513 0.601645 0.904516
0.517613 0.601645 0.904516
0.629026 0.601645 0.904516
0.743272 0.601645 0.904516
0.860000 0.601645 0.904516
0.040000 0.720146 0.904516
0.115034 0.720146 0.904516
0.206512 0.720146 0.904516
0.305430 0.720146 0.904516
0.409513 0.720146 0.904516
0.517613 0.720146 0.904516
0.629026 0.720146 0.904516
0.743272 0.720146 0.904516
0.860000 0.720146 0.904516
0.040000 0.839643 0.904516
0.115034 0.839643 0.904516
0.206512 0.839643 0.904516
0.305430 0.839643 0.904516
0.409513 0.839643 0.904516
0.517613 0.839643 0.904516
0.629026 0.839643 0.904516
0.743272 0.839643 0.904516
0.860000 0.839643 0.904516
0.040000 0.960000 0.904516
0.115034 0.960000 0.904516
0.206512 0.960000 0.904516
0.305430 0.960000 0.904516
0.409513 0.960000 0.904516
0.517613 0.960000 0.904516
0.629026 0.960000 0.904516
0.743272 0.960000 0.904516
0.860000 0.960000 0.904516
0.040000 0.040000 1.000000
0.115034 0.040000 1.000000
0.206512 0.040000 1.000000
0.305430 0.040000 1.000000
0.409513 0.040000 1.000000
0.517613 0.040000 1.000000
0.629026 0.040000 1.000000
0.743272 0.040000 1.000000
0.860000 0.040000 1.000000
0.040000 0.143644 1.000000
0.115034 0.143644 1.000000
0.206512 0.143644 1.000000
0.305430 0.143644 1.000000
0.409513 0.143644 1.000000
0.517613 0.143644 1.000000
0.629026 0.143644 1.000000
0.743272 0.143644 1.000000
0.860000 0.143644 1.000000
0.040000 0.254598 1.000000
0.115034 0.254598 1.000000
0.206512 0.254598 1.000000
0.305430 0.254598 1.000000
0.409513 0.254598 1.000000
0.517613 0.254598 1.000000
0.629026 0.254598 1.000000
0.743272 0.254598 1.000000
0.860000 0.254598 1.000000
0.040000 0.368489 1.000000
0.115034 0.368489 1.000000
0.206512 0.368489 1.000000
0.305430 0.368489 1.000000
0.409513 0.368489 1.000000
0.517613 0.368489 1.000000
0.629026 0.368489 1.000000
0.743272 0.368489 1.000000
0.860000 0.368489 1.000000
0.040000 0.484331 1.000000
0.115034 0.484331 1.000000
0.206512 0.484331 1.000000
0.305430 0.484331 1.000000
0.409513 0.484331 1.000000
0.517613 0.484331 1.000000
0.629026 0.484331 1.000000
0.743272 0.484331 1.000000
0.860000 0.484331 1.000000
0.040000 0.601645 1.000000
0.115034 0.601645 1.000000
0.206512 0.601645 1.000000
0.305430 0.601645 1.000000
0.409513 0.601645 1.000000
0.517613 0.601645 1.000000
0.629026 0.601645 1.000000
0.743272 0.601645 1.000000
0.860000 0.601645 1.000000
0.040000 0.720146 1.000000
0.115034 0.720146 1.000000
0.206512 0.720146 1.000000
0.305430 0.720146 1.000000
0.409513 0.720146 1.000000
0.517613 0.720146 1.000000
0.629026 0.720146 1.000000
0.743272 0.720146 1.000000
0.860000 0.720146 1.000000
0.040000 0.839643 1.000000
0.115034 0.839643 1.000000
0.206512 0.839643 1.000000
0.305430 0.839643 1.000000
0.409513 0.839643 1.000000
0.517613 0.839643 1.000000
0.629026 0.839643 1.000000
0.743272 0.839643 1.000000
0.860000 0.839643 1.000000
0.040000 0.960000 1.000000
0.115034 0.960000 1.000000
0.206512 0.960000 1.000000
0.305430 0.960000 1.000000
0.409513 0.960000 1.000000
0.517613 0.960000 1.000000
0.629026 0.960000 1.000000
0.743272 0.960000 1.000000
0.860000 0.960000 1.000000
0.040000 0.040000 1.000000
0.115034 0.040000 1.000000
0.206512 0.040000 1.000000
0.305430 0.040000 1.000000
0.409513 0.040000 1.000000
0.517613 0.040000 1.000000
0.629026 0.040000 1.000000
0.743272 0.040000 1.000000
0.860000 0.040000 1.000000
0.040000 0.143644 1.000000
0.115034 0.143644 1.000000
0.206512 0.143644 1.000000
0.305430 0.143644 1.000000
0.409513 0.143644 1.000000
0.517613 0.143644 1.000000
0.629026 0.143644 1.000000
0.743272 0.143644 1.000000
0.860000 0.143644 1.000000
0.040000 0.254598 1.000000
0.115034 0.254598 1.000000
0.206512 0.254598 1.000000
0.305430 0.254598 1.000000
0.409513 0.254598 1.000000
0.517613 0.254598 1.000000
0.629026 0.254598 1.000000
0.743272 0.254598 1.000000
0.860000 0.254598 1.000000
0.040000 0.368489 1.000000
0.115034 0.368489 1.000000
0.206512 0.368489 1.000000
0.305430 0.368489 1.000000
0.409513 0.368489 1.000000
0.517613 0.368489 1.000000
0.629026 0.368489 1.000000
0.743272 0.368489 1.000000
0.860000 0.368489 1.000000
0.040000 0.484331 1.000000
0.115034 0.484331 1.000000
0.206512 0.484331 1.000000
0.305430 0.484331 1.000000
0.409513 0.484331 1.000000
0.517613 0.484331 1.000000
0.629026 0.484331 1.000000
0.743272 0.484331 1.000000
0.860000 0.484331 1.000000
0.040000 0.601645 1.000000
0.115034 0.601645 1.000000
0.206512 0.601645 1.000000
0.305430 0.601645 1.000000
0.409513 0.601645 1.000000
0.517613 0.601645 1.000000
0.629026 0.601645 1.000000
0.743272 0.601645 1.000000
0.860000 0.601645 1.000000
0.040000 0.720146 1.000000
0.115034 0.720146 1.000000
0.206512 0.720146 1.000000
0.305430 0.720146 1.000000
0.409513 0.720146 1.000000
0.517613 0.720146 1.000000
0.629026 0.720146 1.000000
0.743272 0.720146 1.000000
0.860000 0.720146 1.000000
0.040000 0.839643 1.000000
0.115034 0.839643 1.000000
0.206512 0.839643 1.000000
0.305430 0.839643 1.000000
0.409513 0.839643 1.000000
0.517613 0.839643 1.000000
0.629026 0.839643 1.000000
0.743272 0.839643 1.000000
0.860000 0.839643 1.000000
0.040000 0.960000 1.000000
0.115034 0.960000 1.000000
0.206512 0.960000 1.000000
0.305430 0.960000 1.000000
0.409513 0.960000 1.000000
0.517613 0.960000 1.000000
0.629026 0.960000 1.000000
0.743272 0.960000 1.000000
0.860000 0.960000 1.000000
