resources/luts/moonlight.cube
TITLE "Moonlight"
LUT_3D_SIZE 5
0.040000 0.040000 0.040000
0.206512 0.040000 0.040000
0.409513 0.040000 0.040000
0.629026 0.040000 0.040000
0.860000 0.040000 0.040000
0.040000 0.254598 0.040000
0.206512 0.254598 0.040000
0.409513 0.254598 0.040000
0.629026 0.254598 0.040000
0.860000 0.254598 0.040000
0.040000 0.484331 0.040000
0.206512 0.484331 0.040000
0.409513 0.484331 0.040000
0.629026 0.484331 0.040000
0.860000 0.484331 0.040000
0.040000 0.720146 0.040000
0.206512 0.720146 0.040000
0.409513 0.720146 0.040000
0.629026 0.720146 0.040000
0.860000 0.720146 0.040000
0.040000 0.960000 0.040000
0.206512 0.960000 0.040000
0.409513 0.960000 0.040000
0.629026 0.960000 0.040000
0.860000 0.960000 0.040000
0.040000 0.040000 0.361636
0.206512 0.040000 0.361636
0.409513 0.040000 0.361636
0.629026 0.040000 0.361636
0.860000 0.040000 0.361636
0.040000 0.254598 0.361636
0.206512 0.254598 0.361636
0.409513 0.254598 0.361636
0.629026 0.254598 0.361636
0.860000 0.254598 0.361636
0.040000 0.484331 0.361636
0.206512 0.484331 0.361636
0.409513 0.484331 0.361636
0.629026 0.484331 0.361636
0.860000 0.484331 0.361636
0.040000 0.720146 0.361636
0.206512 0.720146 0.361636
0.409513 0.720146 0.361636
0.629026 0.720146 0.361636
0.860000 0.720146 0.361636
0.040000 0.960000 0.361636
0.206512 0.960000 0.361636
0.409513 0.960000 0.361636
0.629026 0.960000 0.361636
0.860000 0.960000 0.361636
0.040000 0.040000 0.640193
0.206512 0.040000 0.640193
0.409513 0.040000 0.640193
0.629026 0.040000 0.640193
0.860000 0.040000 0.640193
0.040000 0.254598 0.640193
0.206512 0.254598 0.640193
0.409513 0.254598 0.640193
0.629026 0.254598 0.640193
0.860000 0.254598 0.640193
0.040000 0.484331 0.640193
0.206512 0.484331 0.640193
0.409513 0.484331 0.640193
0.629026 0.484331 0.640193
0.860000 0.484331 0.640193
0.040000 0.720146 0.640193
0.206512 0.720146 0.640193
0.409513 0.720146 0.640193
0.629026 0.720146 0.640193
0.860000 0.720146 0.640193
0.040000 0.960000 0.640193
0.206512 0.960000 0.640193
0.409513 0.960000 0.640193
0.629026 0.960000 0.640193
0.860000 0.960000 0.640193
0.040000 0.040000 0.904516
0.206512 0.040000 0.904516
0.409513 0.040000 0.904516
0.629026 0.040000 0.904516
0.860000 0.040000 0.904516
0.040000 0.254598 0.904516
0.206512 0.254598 0.904516
0.409513 0.254598 0.904516
0.629026 0.254598 0.904516
0.860000 0.254598 0.904516
0.040000 0.484331 0.904516
0.206512 0.484331 0.904516
0.409513 0.484331 0.904516
0.629026 0.484331 0.904516
0.860000 0.484331 0.904516
0.040000 0.720146 0.904516
0.206512 0.720146 0.904516
0.409513 0.720146 0.904516
0.629026 0.720146 0.904516
0.860000 0.720146 0.904516
0.040000 0.960000 0.904516
0.206512 0.960000 0.904516
0.409513 0.960000 0.904516
0.629026 0.960000 0.904516
0.860000 0.960000 0.904516
0.040000 0.040000 1.000000
0.206512 0.040000 1.000000
0.409513 0.040000 1.000000
0.629026 0.040000 1.000000
0.860000 0.040000 1.000000
0.040000 0.254598 1.000000
0.206512 0.254598 1.000000
0.409513 0.254598 1.000000
0.629026 0.254598 1.000000
0.860000 0.254598 1.000000
0.040000 0.484331 1.000000
0.206512 0.484331 1.000000
0.409513 0.484331 1.000000
0.629026 0.484331 1.000000
0.860000 0.484331 1.000000
0.040000 0.720146 1.000000
0.206512 0.720146 1.000000
0.409513 0.720146 1.000000
0.629026 0.720146 1.000000
0.860000 0.720146 1.000000
0.040000 0.960000 1.000000
0.206512 0.960000 1.000000
0.409513 0.960000 1.000000
0.629026 0.960000 1.000000
0.860000 0.960000 1.000000
