resources/luts/moonlight.cube
TITLE "Moonlight"
LUT_3D_SIZE 17
0.040000 0.040000 0.040000
0.073812 0.040000 0.040000
0.115034 0.040000 0.040000
0.159609 0.040000 0.040000
0.206512 0.040000 0.040000
0.255224 0.040000 0.040000
0.305430 0.040000 0.040000
0.356912 0.040000 0.040000
0.409513 0.040000 0.040000
0.463111 0.040000 0.040000
0.517613 0.040000 0.040000
0.572939 0.040000 0.040000
0.629026 0.040000 0.040000
0.685819 0.040000 0.040000
0.743272 0.040000 0.040000
0.801344 0.040000 0.040000
0.860000 0.040000 0.040000
0.040000 0.090057 0.040000
0.073812 0.090057 0.040000
0.115034 0.090057 0.040000
0.159609 0.090057 0.040000
0.206512 0.090057 0.040000
0.255224 0.090057 0.040000
0.305430 0.090057 0.040000
0.356912 0.090057 0.040000
0.409513 0.090057 0.040000
0.463111 0.090057 0.040000
0.517613 0.090057 0.040000
0.572939 0.090057 0.040000
0.629026 0.090057 0.040000
0.685819 0.090057 0.040000
0.743272 0.090057 0.040000
0.801344 0.090057 0.040000
0.860000 0.090057 0.040000
0.040000 0.143644 0.040000
0.073812 0.143644 0.040000
0.115034 0.143644 0.040000
0.159609 0.143644 0.040000
0.206512 0.143644 0.040000
0.255224 0.143644 0.040000
0.305430 0.143644 0.040000
0.356912 0.143644 0.040000
0.409513 0.143644 0.040000
0.463111 0.143644 0.040000
0.517613 0.143644 0.040000
0.572939 0.143644 0.040000
0.629026 0.143644 0.040000
0.685819 0.143644 0.040000
0.743272 0.143644 0.040000
0.801344 0.143644 0.040000
0.860000 0.143644 0.040000
0.040000 0.198650 0.040000
0.073812 0.198650 0.040000
0.115034 0.198650 0.040000
0.159609 0.198650 0.040000
0.206512 0.198650 0.040000
0.255224 0.198650 0.040000
0.305430 0.198650 0.040000
0.356912 0.198650 0.040000
0.409513 0.198650 0.040000
0.463111 0.198650 0.040000
0.517613 0.198650 0.040000
0.572939 0.198650 0.040000
0.629026 0.198650 0.040000
0.685819 0.198650 0.040000
0.743272 0.198650 0.040000
0.801344 0.198650 0.040000
0.860000 0.198650 0.040000
0.040000 0.254598 0.040000
0.073812 0.254598 0.040000
0.115034 0.254598 0.040000
0.159609 0.254598 0.040000
0.206512 0.254598 0.040000
0.255224 0.254598 0.040000
0.305430 0.254598 0.040000
0.356912 0.254598 0.040000
0.409513 0.254598 0.040000
0.463111 0.254598 0.040000
0.517613 0.254598 0.040000
0.572939 0.254598 0.040000
0.629026 0.254598 0.040000
0.685819 0.254598 0.040000
0.743272 0.254598 0.040000
0.801344 0.254598 0.040000
0.860000 0.254598 0.040000
0.040000 0.311257 0.040000
0.073812 0.311257 0.040000
0.115034 0.311257 0.040000
0.159609 0.311257 0.040000
0.206512 0.311257 0.040000
0.255224 0.311257 0.040000
0.305430 0.311257 0.040000
0.356912 0.311257 0.040000
0.409513 0.311257 0.040000
0.463111 0.311257 0.040000
0.517613 0.311257 0.040000
0.572939 0.311257 0.040000
0.629026 0.311257 0.040000
0.685819 0.311257 0.040000
0.743272 0.311257 0.040000
0.801344 0.311257 0.040000
0.860000 0.311257 0.040000
0.040000 0.368489 0.040000
0.073812 0.368489 0.040000
0.115034 0.368489 0.040000
0.159609 0.368489 0.040000
0.206512 0.368489 0.040000
0.255224 0.368489 0.040000
0.305430 0.368489 0.040000
0.356912 0.368489 0.040000
0.409513 0.368489 0.040000
0.463111 0.368489 0.040000
0.517613 0.368489 0.040000
0.572939 0.368489 0.040000
0.629026 0.368489 0.040000
0.685819 0.368489 0.040000
0.743272 0.368489 0.040000
0.801344 0.368489 0.040000
0.860000 0.368489 0.040000
0.040000 0.426202 0.040000
0.073812 0.426202 0.040000
0.115034 0.426202 0.040000
0.159609 0.426202 0.040000
0.206512 0.426202 0.040000
0.255224 0.426202 0.040000
0.305430 0.426202 0.040000
0.356912 0.426202 0.040000
0.409513 0.426202 0.040000
0.463111 0.426202 0.040000
0.517613 0.426202 0.040000
0.572939 0.426202 0.040000
0.629026 0.426202 0.040000
0.685819 0.426202 0.040000
0.743272 0.426202 0.040000
0.801344 0.426202 0.040000
0.860000 0.426202 0.040000
0.040000 0.484331 0.040000
0.073812 0.484331 0.040000
0.115034 0.484331 0.040000
0.159609 0.484331 0.040000
0.206512 0.484331 0.040000
0.255224 0.484331 0.040000
0.305430 0.484331 0.040000
0.356912 0.484331 0.040000
0.409513 0.484331 0.040000
0.463111 0.484331 0.040000
0.517613 0.484331 0.040000
0.572939 0.484331 0.040000
0.629026 0.484331 0.040000
0.685819 0.484331 0.040000
0.743272 0.484331 0.040000
0.801344 0.484331 0.040000
0.860000 0.484331 0.040000
0.040000 0.542825 0.040000
0.073812 0.542825 0.040000
0.115034 0.542825 0.040000
0.159609 0.542825 0.040000
0.206512 0.542825 0.040000
0.255224 0.542825 0.040000
0.305430 0.542825 0.040000
0.356912 0.542825 0.040000
0.409513 0.542825 0.040000
0.463111 0.542825 0.040000
0.517613 0.542825 0.040000
0.572939 0.542825 0.040000
0.629026 0.542825 0.040000
0.685819 0.542825 0.040000
0.743272 0.542825 0.040000
0.801344 0.542825 0.040000
0.860000 0.542825 0.040000
0.040000 0.601645 0.040000
0.073812 0.601645 0.040000
0.115034 0.601645 0.040000
0.159609 0.601645 0.040000
0.206512 0.601645 0.040000
0.255224 0.601645 0.040000
0.305430 0.601645 0.040000
0.356912 0.601645 0.040000
0.409513 0.601645 0.040000
0.463111 0.601645 0.040000
0.517613 0.601645 0.040000
0.572939 0.601645 0.040000
0.629026 0.601645 0.040000
0.685819 0.601645 0.040000
0.743272 0.601645 0.040000
0.801344 0.601645 0.040000
0.860000 0.601645 0.040000
0.040000 0.660761 0.040000
0.073812 0.660761 0.040000
0.115034 0.660761 0.040000
0.159609 0.660761 0.040000
0.206512 0.660761 0.040000
0.255224 0.660761 0.040000
0.305430 0.660761 0.040000
0.356912 0.660761 0.040000
0.409513 0.660761 0.040000
0.463111 0.660761 0.040000
0.517613 0.660761 0.040000
0.572939 0.660761 0.040000
0.629026 0.660761 0.040000
0.685819 0.660761 0.040000
0.743272 0.660761 0.040000
0.801344 0.660761 0.040000
0.860000 0.660761 0.040000
0.040000 0.720146 0.040000
0.073812 0.720146 0.040000
0.115034 0.720146 0.040000
0.159609 0.720146 0.040000
0.206512 0.720146 0.040000
0.255224 0.720146 0.040000
0.305430 0.720146 0.040000
0.356912 0.720146 0.040000
0.409513 0.720146 0.040000
0.463111 0.720146 0.040000
0.517613 0.720146 0.040000
0.572939 0.720146 0.040000
0.629026 0.720146 0.040000
0.685819 0.720146 0.040000
0.743272 0.720146 0.040000
0.801344 0.720146 0.040000
0.860000 0.720146 0.040000
0.040000 0.779780 0.040000
0.073812 0.779780 0.040000
0.115034 0.779780 0.040000
0.159609 0.779780 0.040000
0.206512 0.779780 0.040000
0.255224 0.779780 0.040000
0.305430 0.779780 0.040000
0.356912 0.779780 0.040000
0.409513 0.779780 0.040000
0.463111 0.779780 0.040000
0.517613 0.779780 0.040000
0.572939 0.779780 0.040000
0.629026 0.779780 0.040000
0.685819 0.779780 0.040000
0.743272 0.779780 0.040000
0.801344 0.779780 0.040000
0.860000 0.779780 0.040000
0.040000 0.839643 0.040000
0.073812 0.839643 0.040000
0.115034 0.839643 0.040000
0.159609 0.839643 0.040000
0.206512 0.839643 0.040000
0.255224 0.839643 0.040000
0.305430 0.839643 0.040000
0.356912 0.839643 0.040000
0.409513 0.839643 0.040000
0.463111 0.839643 0.040000
0.517613 0.839643 0.040000
0.572939 0.839643 0.040000
0.629026 0.839643 0.040000
0.685819 0.839643 0.040000
0.743272 0.839643 0.040000
0.801344 0.839643 0.040000
0.860000 0.839643 0.040000
0.040000 0.899721 0.040000
0.073812 0.899721 0.040000
0.115034 0.899721 0.040000
0.159609 0.899721 0.040000
0.206512 0.899721 0.040000
0.255224 0.899721 0.040000
0.305430 0.899721 0.040000
0.356912 0.899721 0.040000
0.409513 0.899721 0.040000
0.463111 0.899721 0.040000
0.517613 0.899721 0.040000
0.572939 0.899721 0.040000
0.629026 0.899721 0.040000
0.685819 0.899721 0.040000
0.743272 0.899721 0.040000
0.801344 0.899721 0.040000
0.860000 0.899721 0.040000
0.040000 0.960000 0.040000
0.073812 0.960000 0.040000
0.115034 0.960000 0.040000
0.159609 0.960000 0.040000
0.206512 0.960000 0.040000
0.255224 0.960000 0.040000
0.305430 0.960000 0.040000
0.356912 0.960000 0.040000
0.409513 0.960000 0.040000
0.463111 0.960000 0.040000
0.517613 0.960000 0.040000
0.572939 0.960000 0.040000
0.629026 0.960000 0.040000
0.685819 0.960000 0.040000
0.743272 0.960000 0.040000
0.801344 0.960000 0.040000
0.860000 0.960000 0.040000
0.040000 0.040000 0.132366
0.073812 0.040000 0.132366
0.115034 0.040000 0.132366
0.159609 0.040000 0.132366
0.206512 0.040000 0.132366
0.255224 0.040000 0.132366
0.305430 0.040000 0.132366
0.356912 0.040000 0.132366
0.409513 0.040000 0.132366
0.463111 0.040000 0.132366
0.517613 0.040000 0.132366
0.572939 0.040000 0.132366
0.629026 0.040000 0.132366
0.685819 0.040000 0.132366
0.743272 0.040000 0.132366
0.801344 0.040000 0.132366
0.860000 0.040000 0.132366
0.040000 0.090057 0.132366
0.073812 0.090057 0.132366
0.115034 0.090057 0.132366
0.159609 0.090057 0.132366
0.206512 0.090057 0.132366
0.255224 0.090057 0.132366
0.305430 0.090057 0.132366
0.356912 0.090057 0.132366
0.409513 0.090057 0.132366
0.463111 0.090057 0.132366
0.517613 0.090057 0.132366
0.572939 0.090057 0.132366
0.629026 0.090057 0.132366
0.685819 0.090057 0.132366
0.743272 0.090057 0.132366
0.801344 0.090057 0.132366
0.860000 0.090057 0.132366
0.040000 0.143644 0.132366
0.073812 0.143644 0.132366
0.115034 0.143644 0.132366
0.159609 0.143644 0.132366
0.206512 0.143644 0.132366
0.255224 0.143644 0.132366
0.305430 0.143644 0.132366
0.356912 0.143644 0.132366
0.409513 0.143644 0.132366
0.463111 0.143644 0.132366
0.517613 0.143644 0.132366
0.572939 0.143644 0.132366
0.629026 0.143644 0.132366
0.685819 0.143644 0.132366
0.743272 0.143644 0.132366
0.801344 0.143644 0.132366
0.860000 0.143644 0.132366
0.040000 0.198650 0.132366
0.073812 0.198650 0.132366
0.115034 0.198650 0.132366
0.159609 0.198650 0.132366
0.206512 0.198650 0.132366
0.255224 0.198650 0.132366
0.305430 0.198650 0.132366
0.356912 0.198650 0.132366
0.409513 0.198650 0.132366
0.463111 0.198650 0.132366
0.517613 0.198650 0.132366
0.572939 0.198650 0.132366
0.629026 0.198650 0.132366
0.685819 0.198650 0.132366
0.743272 0.198650 0.132366
0.801344 0.198650 0.132366
0.860000 0.198650 0.132366
0.040000 0.254598 0.132366
0.073812 0.254598 0.132366
0.115034 0.254598 0.132366
0.159609 0.254598 0.132366
0.206512 0.254598 0.132366
0.255224 0.254598 0.132366
0.305430 0.254598 0.132366
0.356912 0.254598 0.132366
0.409513 0.254598 0.132366
0.463111 0.254598 0.132366
0.517613 0.254598 0.132366
0.572939 0.254598 0.132366
0.629026 0.254598 0.132366
0.685819 0.254598 0.132366
0.743272 0.254598 0.132366
0.801344 0.254598 0.132366
0.860000 0.254598 0.132366
0.040000 0.311257 0.132366
0.073812 0.311257 0.132366
0.115034 0.311257 0.132366
0.159609 0.311257 0.132366
0.206512 0.311257 0.132366
0.255224 0.311257 0.132366
0.305430 0.311257 0.132366
0.356912 0.311257 0.132366
0.409513 0.311257 0.132366
0.463111 0.311257 0.132366
0.517613 0.311257 0.132366
0.572939 0.311257 0.132366
0.629026 0.311257 0.132366
0.685819 0.311257 0.132366
0.743272 0.311257 0.132366
0.801344 0.311257 0.132366
0.860000 0.311257 0.132366
0.040000 0.368489 0.132366
0.073812 0.368489 0.132366
0.115034 0.368489 0.132366
0.159609 0.368489 0.132366
0.206512 0.368489 0.132366
0.255224 0.368489 0.132366
0.305430 0.368489 0.132366
0.356912 0.368489 0.132366
0.409513 0.368489 0.132366
0.463111 0.368489 0.132366
0.517613 0.368489 0.132366
0.572939 0.368489 0.132366
0.629026 0.368489 0.132366
0.685819 0.368489 0.132366
0.743272 0.368489 0.132366
0.801344 0.368489 0.132366
0.860000 0.368489 0.132366
0.040000 0.426202 0.132366
0.073812 0.426202 0.132366
0.115034 0.426202 0.132366
0.159609 0.426202 0.132366
0.206512 0.426202 0.132366
0.255224 0.426202 0.132366
0.305430 0.426202 0.132366
0.356912 0.426202 0.132366
0.409513 0.426202 0.132366
0.463111 0.426202 0.132366
0.517613 0.426202 0.132366
0.572939 0.426202 0.132366
0.629026 0.426202 0.132366
0.685819 0.426202 0.132366
0.743272 0.426202 0.132366
0.801344 0.426202 0.132366
0.860000 0.426202 0.132366
0.040000 0.484331 0.132366
0.073812 0.484331 0.132366
0.115034 0.484331 0.132366
0.159609 0.484331 0.132366
0.206512 0.484331 0.132366
0.255224 0.484331 0.132366
0.305430 0.484331 0.132366
0.356912 0.484331 0.132366
0.409513 0.484331 0.132366
0.463111 0.484331 0.132366
0.517613 0.484331 0.132366
0.572939 0.484331 0.132366
0.629026 0.484331 0.132366
0.685819 0.484331 0.132366
0.743272 0.484331 0.132366
0.801344 0.484331 0.132366
0.860000 0.484331 0.132366
0.040000 0.542825 0.132366
0.073812 0.542825 0.132366
0.115034 0.542825 0.132366
0.159609 0.542825 0.132366
0.206512 0.542825 0.132366
0.255224 0.542825 0.132366
0.305430 0.542825 0.132366
0.356912 0.542825 0.132366
0.409513 0.542825 0.132366
0.463111 0.542825 0.132366
0.517613 0.542825 0.132366
0.572939 0.542825 0.132366
0.629026 0.542825 0.132366
0.685819 0.542825 0.132366
0.743272 0.542825 0.132366
0.801344 0.542825 0.132366
0.860000 0.542825 0.132366
0.040000 0.601645 0.132366
0.073812 0.601645 0.132366
0.115034 0.601645 0.132366
0.159609 0.601645 0.132366
0.206512 0.601645 0.132366
0.255224 0.601645 0.132366
0.305430 0.601645 0.132366
0.356912 0.601645 0.132366
0.409513 0.601645 0.132366
0.463111 0.601645 0.132366
0.517613 0.601645 0.132366
0.572939 0.601645 0.132366
0.629026 0.601645 0.132366
0.685819 0.601645 0.132366
0.743272 0.601645 0.132366
0.801344 0.601645 0.132366
0.860000 0.601645 0.132366
0.040000 0.660761 0.132366
0.073812 0.660761 0.132366
0.115034 0.660761 0.132366
0.159609 0.660761 0.132366
0.206512 0.660761 0.132366
0.255224 0.660761 0.132366
0.305430 0.660761 0.132366
0.356912 0.660761 0.132366
0.409513 0.660761 0.132366
0.463111 0.660761 0.132366
0.517613 0.660761 0.132366
0.572939 0.660761 0.132366
0.629026 0.660761 0.132366
0.685819 0.660761 0.132366
0.743272 0.660761 0.132366
0.801344 0.660761 0.132366
0.860000 0.660761 0.132366
0.040000 0.720146 0.132366
0.073812 0.720146 0.132366
0.115034 0.720146 0.132366
0.159609 0.720146 0.132366
0.206512 0.720146 0.132366
0.255224 0.720146 0.132366
0.305430 0.720146 0.132366
0.356912 0.720146 0.132366
0.409513 0.720146 0.132366
0.463111 0.720146 0.132366
0.517613 0.720146 0.132366
0.572939 0.720146 0.132366
0.629026 0.720146 0.132366
0.685819 0.720146 0.132366
0.743272 0.720146 0.132366
0.801344 0.720146 0.132366
0.860000 0.720146 0.132366
0.040000 0.779780 0.132366
0.073812 0.779780 0.132366
0.115034 0.779780 0.132366
0.159609 0.779780 0.132366
0.206512 0.779780 0.132366
0.255224 0.779780 0.132366
0.305430 0.779780 0.132366
0.356912 0.779780 0.132366
0.409513 0.779780 0.132366
0.463111 0.779780 0.132366
0.517613 0.779780 0.132366
0.572939 0.779780 0.132366
0.629026 0.779780 0.132366
0.685819 0.779780 0.132366
0.743272 0.779780 0.132366
0.801344 0.779780 0.132366
0.860000 0.779780 0.132366
0.040000 0.839643 0.132366
0.073812 0.839643 0.132366
0.115034 0.839643 0.132366
0.159609 0.839643 0.132366
0.206512 0.839643 0.132366
0.255224 0.839643 0.132366
0.305430 0.839643 0.132366
0.356912 0.839643 0.132366
0.409513 0.839643 0.132366
0.463111 0.839643 0.132366
0.517613 0.839643 0.132366
0.572939 0.839643 0.132366
0.629026 0.839643 0.132366
0.685819 0.839643 0.132366
0.743272 0.839643 0.132366
0.801344 0.839643 0.132366
0.860000 0.839643 0.132366
0.040000 0.899721 0.132366
0.073812 0.899721 0.132366
0.115034 0.899721 0.132366
0.159609 0.899721 0.132366
0.206512 0.899721 0.132366
0.255224 0.899721 0.132366
0.305430 0.899721 0.132366
0.356912 0.899721 0.132366
0.409513 0.899721 0.132366
0.463111 0.899721 0.132366
0.517613 0.899721 0.132366
0.572939 0.899721 0.132366
0.629026 0.899721 0.132366
0.685819 0.899721 0.132366
0.743272 0.899721 0.132366
0.801344 0.899721 0.132366
0.860000 0.899721 0.132366
0.040000 0.960000 0.132366
0.073812 0.960000 0.132366
0.115034 0.960000 0.132366
0.159609 0.960000 0.132366
0.206512 0.960000 0.132366
0.255224 0.960000 0.132366
0.305430 0.960000 0.132366
0.356912 0.960000 0.132366
0.409513 0.960000 0.132366
0.463111 0.960000 0.132366
0.517613 0.960000 0.132366
0.572939 0.960000 0.132366
0.629026 0.960000 0.132366
0.685819 0.960000 0.132366
0.743272 0.960000 0.132366
0.801344 0.960000 0.132366
0.860000 0.960000 0.132366
0.040000 0.040000 0.212360
0.073812 0.040000 0.212360
0.115034 0.040000 0.212360
0.159609 0.040000 0.212360
0.206512 0.040000 0.212360
0.255224 0.040000 0.212360
0.305430 0.040000 0.212360
0.356912 0.040000 0.212360
0.409513 0.040000 0.212360
0.463111 0.040000 0.212360
0.517613 0.040000 0.212360
0.572939 0.040000 0.212360
0.629026 0.040000 0.212360
0.685819 0.040000 0.212360
0.743272 0.040000 0.212360
0.801344 0.040000 0.212360
0.860000 0.040000 0.212360
0.040000 0.090057 0.212360
0.073812 0.090057 0.212360
0.115034 0.090057 0.212360
0.159609 0.090057 0.212360
0.206512 0.090057 0.212360
0.255224 0.090057 0.212360
0.305430 0.090057 0.212360
0.356912 0.090057 0.212360
0.409513 0.090057 0.212360
0.463111 0.090057 0.212360
0.517613 0.090057 0.212360
0.572939 0.090057 0.212360
0.629026 0.090057 0.212360
0.685819 0.090057 0.212360
0.743272 0.090057 0.212360
0.801344 0.090057 0.212360
0.860000 0.090057 0.212360
0.040000 0.143644 0.212360
0.073812 0.143644 0.212360
0.115034 0.143644 0.212360
0.159609 0.143644 0.212360
0.206512 0.143644 0.212360
0.255224 0.143644 0.212360
0.305430 0.143644 0.212360
0.356912 0.143644 0.212360
0.409513 0.143644 0.212360
0.463111 0.143644 0.212360
0.517613 0.143644 0.212360
0.572939 0.143644 0.212360
0.629026 0.143644 0.212360
0.685819 0.143644 0.212360
0.743272 0.143644 0.212360
0.801344 0.143644 0.212360
0.860000 0.143644 0.212360
0.040000 0.198650 0.212360
0.073812 0.198650 0.212360
0.115034 0.198650 0.212360
0.159609 0.198650 0.212360
0.206512 0.198650 0.212360
0.255224 0.198650 0.212360
0.305430 0.198650 0.212360
0.356912 0.198650 0.212360
0.409513 0.198650 0.212360
0.463111 0.198650 0.212360
0.517613 0.198650 0.212360
0.572939 0.198650 0.212360
0.629026 0.198650 0.212360
0.685819 0.198650 0.212360
0.743272 0.198650 0.212360
0.801344 0.198650 0.212360
0.860000 0.198650 0.212360
0.040000 0.254598 0.212360
0.073812 0.254598 0.212360
0.115034 0.254598 0.212360
0.159609 0.254598 0.212360
0.206512 0.254598 0.212360
0.255224 0.254598 0.212360
0.305430 0.254598 0.212360
0.356912 0.254598 0.212360
0.409513 0.254598 0.212360
0.463111 0.254598 0.212360
0.517613 0.254598 0.212360
0.572939 0.254598 0.212360
0.629026 0.254598 0.212360
0.685819 0.254598 0.212360
0.743272 0.254598 0.212360
0.801344 0.254598 0.212360
0.860000 0.254598 0.212360
0.040000 0.311257 0.212360
0.073812 0.311257 0.212360
0.115034 0.311257 0.212360
0.159609 0.311257 0.212360
0.206512 0.311257 0.212360
0.255224 0.311257 0.212360
0.305430 0.311257 0.212360
0.356912 0.311257 0.212360
0.409513 0.311257 0.212360
0.463111 0.311257 0.212360
0.517613 0.311257 0.212360
0.572939 0.311257 0.212360
0.629026 0.311257 0.212360
0.685819 0.311257 0.212360
0.743272 0.311257 0.212360
0.801344 0.311257 0.212360
0.860000 0.311257 0.212360
0.040000 0.368489 0.212360
0.073812 0.368489 0.212360
0.115034 0.368489 0.212360
0.159609 0.368489 0.212360
0.206512 0.368489 0.212360
0.255224 0.368489 0.212360
0.305430 0.368489 0.212360
0.356912 0.368489 0.212360
0.409513 0.368489 0.212360
0.463111 0.368489 0.212360
0.517613 0.368489 0.212360
0.572939 0.368489 0.212360
0.629026 0.368489 0.212360
0.685819 0.368489 0.212360
0.743272 0.368489 0.212360
0.801344 0.368489 0.212360
0.860000 0.368489 0.212360
0.040000 0.426202 0.212360
0.073812 0.426202 0.212360
0.115034 0.426202 0.212360
0.159609 0.426202 0.212360
0.206512 0.426202 0.212360
0.255224 0.426202 0.212360
0.305430 0.426202 0.212360
0.356912 0.426202 0.212360
0.409513 0.426202 0.212360
0.463111 0.426202 0.212360
0.517613 0.426202 0.212360
0.572939 0.426202 0.212360
0.629026 0.426202 0.212360
0.685819 0.426202 0.212360
0.743272 0.426202 0.212360
0.801344 0.426202 0.212360
0.860000 0.426202 0.212360
0.040000 0.484331 0.212360
0.073812 0.484331 0.212360
0.115034 0.484331 0.212360
0.159609 0.484331 0.212360
0.206512 0.484331 0.212360
0.255224 0.484331 0.212360
0.305430 0.484331 0.212360
0.356912 0.484331 0.212360
0.409513 0.484331 0.212360
0.463111 0.484331 0.212360
0.517613 0.484331 0.212360
0.572939 0.484331 0.212360
0.629026 0.484331 0.212360
0.685819 0.484331 0.212360
0.743272 0.484331 0.212360
0.801344 0.484331 0.212360
0.860000 0.484331 0.212360
0.040000 0.542825 0.212360
0.073812 0.542825 0.212360
0.115034 0.542825 0.212360
0.159609 0.542825 0.212360
0.206512 0.542825 0.212360
0.255224 0.542825 0.212360
0.305430 0.542825 0.212360
0.356912 0.542825 0.212360
0.409513 0.542825 0.212360
0.463111 0.542825 0.212360
0.517613 0.542825 0.212360
0.572939 0.542825 0.212360
0.629026 0.542825 0.212360
0.685819 0.542825 0.212360
0.743272 0.542825 0.212360
0.801344 0.542825 0.212360
0.860000 0.542825 0.212360
0.040000 0.601645 0.212360
0.073812 0.601645 0.212360
0.115034 0.601645 0.212360
0.159609 0.601645 0.212360
0.206512 0.601645 0.212360
0.255224 0.601645 0.212360
0.305430 0.601645 0.212360
0.356912 0.601645 0.212360
0.409513 0.601645 0.212360
0.463111 0.601645 0.212360
0.517613 0.601645 0.212360
0.572939 0.601645 0.212360
0.629026 0.601645 0.212360
0.685819 0.601645 0.212360
0.743272 0.601645 0.212360
0.801344 0.601645 0.212360
0.860000 0.601645 0.212360
0.040000 0.660761 0.212360
0.073812 0.660761 0.212360
0.115034 0.660761 0.212360
0.159609 0.660761 0.212360
0.206512 0.660761 0.212360
0.255224 0.660761 0.212360
0.305430 0.660761 0.212360
0.356912 0.660761 0.212360
0.409513 0.660761 0.212360
0.463111 0.660761 0.212360
0.517613 0.660761 0.212360
0.572939 0.660761 0.212360
0.629026 0.660761 0.212360
0.685819 0.660761 0.212360
0.743272 0.660761 0.212360
0.801344 0.660761 0.212360
0.860000 0.660761 0.212360
0.040000 0.720146 0.212360
0.073812 0.720146 0.212360
0.115034 0.720146 0.212360
0.159609 0.720146 0.212360
0.206512 0.720146 0.212360
0.255224 0.720146 0.212360
0.305430 0.720146 0.212360
0.356912 0.720146 0.212360
0.409513 0.720146 0.212360
0.463111 0.720146 0.212360
0.517613 0.720146 0.212360
0.572939 0.720146 0.212360
0.629026 0.720146 0.212360
0.685819 0.720146 0.212360
0.743272 0.720146 0.212360
0.801344 0.720146 0.212360
0.860000 0.720146 0.212360
0.040000 0.779780 0.212360
0.073812 0.779780 0.212360
0.115034 0.779780 0.212360
0.159609 0.779780 0.212360
0.206512 0.779780 0.212360
0.255224 0.779780 0.212360
0.305430 0.779780 0.212360
0.356912 0.779780 0.212360
0.409513 0.779780 0.212360
0.463111 0.779780 0.212360
0.517613 0.779780 0.212360
0.572939 0.779780 0.212360
0.629026 0.779780 0.212360
0.685819 0.779780 0.212360
0.743272 0.779780 0.212360
0.801344 0.779780 0.212360
0.860000 0.779780 0.212360
0.040000 0.839643 0.212360
0.073812 0.839643 0.212360
0.115034 0.839643 0.212360
0.159609 0.839643 0.212360
0.206512 0.839643 0.212360
0.255224 0.839643 0.212360
0.305430 0.839643 0.212360
0.356912 0.839643 0.212360
0.409513 0.839643 0.212360
0.463111 0.839643 0.212360
0.517613 0.839643 0.212360
0.572939 0.839643 0.212360
0.629026 0.839643 0.212360
0.685819 0.839643 0.212360
0.743272 0.839643 0.212360
0.801344 0.839643 0.212360
0.860000 0.839643 0.212360
0.040000 0.899721 0.212360
0.073812 0.899721 0.212360
0.115034 0.899721 0.212360
0.159609 0.899721 0.212360
0.206512 0.899721 0.212360
0.255224 0.899721 0.212360
0.305430 0.899721 0.212360
0.356912 0.899721 0.212360
0.409513 0.899721 0.212360
0.463111 0.899721 0.212360
0.517613 0.899721 0.212360
0.572939 0.899721 0.212360
0.629026 0.899721 0.212360
0.685819 0.899721 0.212360
0.743272 0.899721 0.212360
0.801344 0.899721 0.212360
0.860000 0.899721 0.212360
0.040000 0.960000 0.212360
0.073812 0.960000 0.212360
0.115034 0.960000 0.212360
0.159609 0.960000 0.212360
0.206512 0.960000 0.212360
0.255224 0.960000 0.212360
0.305430 0.960000 0.212360
0.356912 0.960000 0.212360
0.409513 0.960000 0.212360
0.463111 0.960000 0.212360
0.517613 0.960000 0.212360
0.572939 0.960000 0.212360
0.629026 0.960000 0.212360
0.685819 0.960000 0.212360
0.743272 0.960000 0.212360
0.801344 0.960000 0.212360
0.860000 0.960000 0.212360
0.040000 0.040000 0.288267
0.073812 0.040000 0.288267
0.115034 0.040000 0.288267
0.159609 0.040000 0.288267
0.206512 0.040000 0.288267
0.255224 0.040000 0.288267
0.305430 0.040000 0.288267
0.356912 0.040000 0.288267
0.409513 0.040000 0.288267
0.463111 0.040000 0.288267
0.517613 0.040000 0.288267
0.572939 0.040000 0.288267
0.629026 0.040000 0.288267
0.685819 0.040000 0.288267
0.743272 0.040000 0.288267
0.801344 0.040000 0.288267
0.860000 0.040000 0.288267
0.040000 0.090057 0.288267
0.073812 0.090057 0.288267
0.115034 0.090057 0.288267
