resources/luts/teal-orange.cube
TITLE "Teal & Orange"
LUT_3D_SIZE 9
0.000000 0.010000 0.075000
0.096594 0.009468 0.071014
0.223189 0.008937 0.067027
0.349784 0.008405 0.063041
0.476378 0.007874 0.059055
0.602973 0.007343 0.055069
0.729567 0.006811 0.051083
0.856162 0.006280 0.047096
0.982756 0.005748 0.043110
0.000000 0.133212 0.061590
0.101959 0.132681 0.057604
0.228553 0.132149 0.053617
0.355148 0.131617 0.049631
0.481742 0.131086 0.045645
0.608337 0.130554 0.041659
0.734931 0.130023 0.037672
0.861525 0.129492 0.033686
0.988120 0.128960 0.029700
0.000000 0.256424 0.048180
0.107323 0.255893 0.044194
0.233917 0.255361 0.040208
0.360511 0.254829 0.036221
0.487106 0.254298 0.032235
0.613700 0.253767 0.028249
0.740295 0.253235 0.024262
0.866889 0.252704 0.020276
0.993484 0.252172 0.016290
0.000000 0.379636 0.034770
0.112686 0.379105 0.030784
0.239281 0.378573 0.026797
0.365876 0.378041 0.022811
0.492470 0.377510 0.018825
0.619258 0.376935 0.014688
0.750636 0.375341 0.006982
0.882014 0.373747 0.000000
1.000000 0.372152 0.000000
0.000000 0.502848 0.021360
0.118051 0.502317 0.017374
0.246580 0.501355 0.011883
0.377958 0.499760 0.004176
0.509336 0.498166 0.000000
0.640714 0.496571 0.000000
0.771069 0.495318 0.000000
0.900853 0.494255 0.000000
1.000000 0.493192 0.000000
0.005280 0.624180 0.001370
0.136658 0.622586 0.000000
0.268027 0.620994 0.000000
0.397811 0.619931 0.000000
0.527594 0.618868 0.000000
0.657377 0.617805 0.000000
0.787161 0.616742 0.000000
0.916944 0.615679 0.000000
1.000000 0.614616 0.000000
0.024552 0.744544 0.000000
0.154335 0.743481 0.000000
0.284119 0.742418 0.000000
0.413903 0.741355 0.000000
0.543686 0.740292 0.000000
0.673470 0.739229 0.000000
0.803253 0.738166 0.000000
0.933037 0.737103 0.000000
1.000000 0.736040 0.000000
0.040644 0.865968 0.000000
0.170427 0.864905 0.000000
0.300211 0.863842 0.000000
0.429995 0.862779 0.000000
0.559778 0.861716 0.000000
0.689561 0.860653 0.000000
0.819345 0.859590 0.000000
0.949128 0.858527 0.000000
1.000000 0.857464 0.000000
0.056736 0.987392 0.000000
0.186519 0.986329 0.000000
0.316303 0.985266 0.000000
0.446086 0.984203 0.000000
0.575870 0.983140 0.000000
0.705653 0.982077 0.000000
0.835437 0.981014 0.000000
0.965221 0.979951 0.000000
1.000000 0.978888 0.000000
0.000000 0.009820 0.198646
0.097136 0.009288 0.194660
0.223730 0.008757 0.190674
0.350325 0.008225 0.186688
0.476919 0.007693 0.182701
0.603514 0.007162 0.178715
0.730109 0.006630 0.174729
0.856703 0.006099 0.170742
0.983298 0.005567 0.166756
0.000000 0.133031 0.185236
0.102500 0.132500 0.181250
0.229095 0.131968 0.177264
0.355689 0.131437 0.173278
0.482283 0.130906 0.169291
0.608878 0.130374 0.165305
0.735472 0.129842 0.161319
0.862067 0.129311 0.157332
0.988661 0.128779 0.153346
0.000000 0.256244 0.171826
0.107864 0.255712 0.167840
0.234459 0.255180 0.163854
0.361053 0.254649 0.159867
0.487648 0.254117 0.155881
0.614242 0.253586 0.151895
0.740837 0.253055 0.147909
0.867431 0.252523 0.143923
0.994102 0.251974 0.139877
0.000000 0.379456 0.158416
0.113228 0.378924 0.154430
0.239822 0.378393 0.150444
0.366417 0.377861 0.146457
0.493011 0.377329 0.142471
0.621424 0.376394 0.137071
0.752802 0.374800 0.129364
0.884180 0.373205 0.121658
1.000000 0.371611 0.113951
0.000000 0.502668 0.145006
0.118592 0.502136 0.141020
0.248746 0.500814 0.134265
0.380124 0.499219 0.126559
0.511502 0.497625 0.118852
0.642880 0.496030 0.111145
0.772694 0.494957 0.107350
0.902477 0.493894 0.103629
1.000000 0.492831 0.099908
0.007446 0.623638 0.123753
0.138824 0.622044 0.116046
0.269651 0.620633 0.109716
0.399435 0.619570 0.105995
0.529218 0.618507 0.102275
0.659002 0.617444 0.098554
0.788785 0.616381 0.094834
0.918569 0.615318 0.091113
1.000000 0.614255 0.087393
0.026176 0.744183 0.104641
0.155960 0.743120 0.100920
0.285743 0.742057 0.097200
0.415527 0.740994 0.093479
0.545311 0.739931 0.089758
0.675094 0.738868 0.086038
0.804878 0.737805 0.082318
0.934661 0.736742 0.078597
1.000000 0.735679 0.074877
0.042268 0.865607 0.092125
0.172052 0.864544 0.088404
0.301835 0.863481 0.084684
0.431619 0.862418 0.080963
0.561403 0.861355 0.077243
0.691186 0.860292 0.073522
0.820969 0.859229 0.069802
0.950753 0.858166 0.066081
1.000000 0.857103 0.062361
0.058360 0.987031 0.079609
0.188144 0.985968 0.075888
0.317927 0.984905 0.072168
0.447711 0.983842 0.068447
0.577495 0.982779 0.064727
0.707278 0.981716 0.061006
0.837062 0.980653 0.057286
0.966845 0.979590 0.053565
1.000000 0.978527 0.049845
0.000000 0.009639 0.322292
0.097678 0.009107 0.318306
0.224272 0.008576 0.314320
0.350867 0.008044 0.310334
0.477461 0.007513 0.306347
0.604055 0.006981 0.302361
0.730650 0.006450 0.298375
0.857244 0.005919 0.294389
0.983839 0.005387 0.290403
0.000000 0.132851 0.308883
0.103042 0.132320 0.304896
0.229636 0.131788 0.300910
0.356231 0.131256 0.296924
0.482825 0.130725 0.292938
0.609420 0.130193 0.288951
0.736014 0.129662 0.284965
0.862609 0.129131 0.280979
0.989203 0.128599 0.276992
0.000000 0.256063 0.295473
0.108406 0.255532 0.291486
0.235000 0.255000 0.287500
0.361594 0.254468 0.283514
0.488189 0.253937 0.279527
0.614784 0.253406 0.275541
0.741378 0.252874 0.271555
0.867973 0.252343 0.267569
0.996268 0.251433 0.262260
0.000000 0.379275 0.282062
0.113769 0.378744 0.278076
0.240364 0.378212 0.274090
0.366959 0.377680 0.270104
0.493553 0.377149 0.266118
0.623590 0.375852 0.259454
0.754968 0.374258 0.251747
0.886346 0.372664 0.244040
1.000000 0.371069 0.236334
0.000000 0.502487 0.268653
0.119534 0.501866 0.264355
0.250912 0.500272 0.256648
0.382290 0.498677 0.248941
0.513668 0.497083 0.241234
0.644535 0.495659 0.234807
0.774318 0.494596 0.231086
0.904102 0.493533 0.227365
1.000000 0.492470 0.223645
0.009612 0.623097 0.246136
0.140990 0.621502 0.238429
0.271276 0.620272 0.233452
0.401060 0.619209 0.229732
0.530843 0.618146 0.226011
0.660627 0.617083 0.222291
0.790410 0.616020 0.218570
0.920193 0.614957 0.214849
1.000000 0.613894 0.211129
0.027801 0.743822 0.228377
0.157584 0.742759 0.224657
0.287368 0.741696 0.220936
0.417152 0.740633 0.217216
0.546935 0.739570 0.213495
0.676719 0.738507 0.209774
0.806502 0.737444 0.206054
0.936285 0.736381 0.202333
1.000000 0.735318 0.198613
0.043893 0.865246 0.215861
0.173676 0.864183 0.212141
0.303460 0.863120 0.208420
0.433244 0.862057 0.204700
0.563027 0.860994 0.200979
0.692810 0.859931 0.197259
0.822594 0.858868 0.193538
0.952377 0.857805 0.189818
1.000000 0.856742 0.186097
0.059985 0.986670 0.203345
0.189769 0.985607 0.199625
0.319552 0.984544 0.195904
0.449335 0.983481 0.192184
0.579119 0.982418 0.188463
0.708902 0.981355 0.184743
0.838686 0.980292 0.181022
0.968469 0.979229 0.177302
1.000000 0.978166 0.173581
0.000000 0.009458 0.445939
0.098219 0.008927 0.441952
0.224813 0.008396 0.437966
0.351408 0.007864 0.433980
0.478002 0.007332 0.429994
0.604597 0.006801 0.426007
0.731191 0.006269 0.422021
0.857786 0.005738 0.418035
0.984380 0.005206 0.414049
0.000000 0.132670 0.432529
0.103583 0.132139 0.428542
0.230178 0.131607 0.424556
0.356772 0.131076 0.420570
0.483366 0.130545 0.416584
0.609961 0.130013 0.412598
0.736556 0.129481 0.408611
0.863150 0.128950 0.404625
0.989745 0.128418 0.400639
0.000000 0.255883 0.419119
0.108947 0.255351 0.415133
0.235542 0.254819 0.411146
0.362136 0.254288 0.407160
0.488731 0.253756 0.403174
0.615325 0.253225 0.399187
0.741919 0.252694 0.395201
0.868514 0.252162 0.391215
0.998434 0.250891 0.384642
0.000000 0.379095 0.405709
0.114311 0.378563 0.401722
0.240905 0.378032 0.397736
0.367500 0.377500 0.393750
0.494378 0.376906 0.389543
0.625756 0.375311 0.381836
0.757134 0.373717 0.374130
0.888512 0.372122 0.366423
1.000000 0.370685 0.359897
0.000000 0.502306 0.392299
0.121700 0.501325 0.386738
0.253078 0.499731 0.379031
0.384456 0.498136 0.371324
0.515834 0.496541 0.363617
0.646159 0.495298 0.358543
0.775942 0.494235 0.354822
0.905726 0.493172 0.351102
1.000000 0.492109 0.347382
0.011778 0.622555 0.368518
0.143117 0.620974 0.360909
0.272900 0.619911 0.357189
0.402684 0.618848 0.353468
0.532467 0.617785 0.349748
0.662251 0.616722 0.346027
0.792034 0.615659 0.342307
0.921818 0.614596 0.338586
1.000000 0.613533 0.334866
0.029425 0.743461 0.352114
0.159209 0.742398 0.348393
0.288992 0.741335 0.344672
0.418776 0.740272 0.340952
0.548559 0.739209 0.337232
0.678343 0.738146 0.333511
0.808126 0.737083 0.329790
0.937910 0.736020 0.326070
1.000000 0.734957 0.322350
0.045517 0.864885 0.339597
0.175301 0.863822 0.335877
0.305084 0.862759 0.332157
0.434868 0.861696 0.328436
0.564651 0.860633 0.324715
0.694435 0.859570 0.320995
0.824218 0.858507 0.317275
0.954002 0.857444 0.313554
1.000000 0.856381 0.309833
0.061609 0.986309 0.327082
0.191393 0.985246 0.323361
0.321176 0.984183 0.319640
0.450960 0.983120 0.315920
0.580743 0.982057 0.312200
0.710527 0.980994 0.308479
0.840310 0.979931 0.304759
0.970094 0.978868 0.301038
1.000000 0.977805 0.297318
0.000000 0.009278 0.569585
0.098761 0.008746 0.565599
0.225355 0.008215 0.561612
0.351950 0.007684 0.557626
0.478544 0.007152 0.553640
0.605139 0.006621 0.549654
0.731733 0.006089 0.545667
0.858328 0.005557 0.541681
0.984922 0.005026 0.537695
0.000000 0.132490 0.556175
0.104124 0.131959 0.552189
0.230719 0.131427 0.548203
0.357314 0.130895 0.544216
0.483908 0.130364 0.540230
0.610502 0.129832 0.536244
0.737097 0.129301 0.532258
0.863692 0.128770 0.528271
0.990286 0.128238 0.524285
0.000000 0.255702 0.542765
0.109489 0.255171 0.538779
0.236083 0.254639 0.534793
0.362677 0.254107 0.530806
0.489272 0.253576 0.526820
0.615866 0.253045 0.522834
0.742461 0.252513 0.518848
0.869222 0.251945 0.514732
1.000000 0.250350 0.507025
0.000000 0.378914 0.529355
0.114852 0.378383 0.525369
0.241447 0.377851 0.521382
0.368042 0.377319 0.517396
0.496544 0.376364 0.511926
0.627922 0.374769 0.504219
0.759300 0.373175 0.496512
0.890678 0.371581 0.488806
1.000000 0.370324 0.483634
0.000000 0.502126 0.515945
0.123866 0.500784 0.509120
0.255244 0.499189 0.501414
0.386622 0.497594 0.493707
0.518000 0.496000 0.486000
0.647783 0.494937 0.482279
0.777567 0.493874 0.478559
0.907350 0.492811 0.474838
1.000000 0.491748 0.471118
0.013944 0.622014 0.490901
0.144741 0.620613 0.484646
0.274525 0.619550 0.480925
0.404309 0.618487 0.477204
0.534092 0.617424 0.473484
0.663875 0.616361 0.469764
0.793659 0.615298 0.466043
0.923442 0.614235 0.462323
1.000000 0.613172 0.458602
0.031050 0.743100 0.475850
0.160833 0.742037 0.472129
0.290617 0.740974 0.468409
0.420401 0.739911 0.464689
0.550184 0.738848 0.460968
0.679968 0.737785 0.457247
0.809751 0.736722 0.453527
0.939534 0.735659 0.449806
1.000000 0.734596 0.446086
0.047142 0.864524 0.463334
0.176925 0.863461 0.459614
0.306709 0.862398 0.455893
0.436493 0.861335 0.452172
0.566276 0.860272 0.448452
0.696060 0.859209 0.444732
0.825843 0.858146 0.441011
0.955626 0.857083 0.437291
1.000000 0.856020 0.433570
0.063234 0.985948 0.450818
0.193018 0.984885 0.447097
0.322801 0.983822 0.443377
0.452585 0.982759 0.439657
0.582368 0.981696 0.435936
0.712151 0.980633 0.432215
0.841935 0.979570 0.428495
0.971718 0.978507 0.424774
1.000000 0.977444 0.421054
0.000000 0.009098 0.693231
0.099302 0.008566 0.689245
0.225897 0.008034 0.685259
0.352491 0.007503 0.681272
0.479085 0.006971 0.677286
0.605680 0.006440 0.673300
0.732275 0.005908 0.669314
0.858869 0.005377 0.665327
0.985464 0.004846 0.661341
0.000000 0.132309 0.679821
0.104666 0.131778 0.675835
0.231261 0.131246 0.671849
0.357855 0.130715 0.667863
0.484449 0.130184 0.663876
0.611044 0.129652 0.659890
0.737638 0.129120 0.655904
0.864233 0.128589 0.651918
0.990827 0.128057 0.647931
0.000000 0.255522 0.666411
0.110030 0.254990 0.662425
0.236624 0.254458 0.658439
0.363219 0.253927 0.654452
0.489814 0.253395 0.650466
0.616408 0.252864 0.646480
0.743003 0.252333 0.642494
0.871388 0.251403 0.637115
1.000000 0.249809 0.629408
0.000000 0.378734 0.653001
0.115394 0.378202 0.649015
0.241988 0.377671 0.645029
0.368583 0.377139 0.641042
0.498710 0.375823 0.634309
0.630088 0.374228 0.626602
0.761466 0.372634 0.618895
0.892844 0.371039 0.611189
1.000000 0.369963 0.607371
0.000000 0.501837 0.639210
0.126032 0.500242 0.631503
0.257410 0.498648 0.623796
0.388788 0.497053 0.616090
0.519624 0.495639 0.609737
0.649408 0.494576 0.606016
0.779192 0.493513 0.602295
0.908975 0.492450 0.598575
1.000000 0.491387 0.594854
0.016110 0.621472 0.613284
0.146366 0.620252 0.608382
0.276149 0.619189 0.604661
0.405933 0.618126 0.600941
0.535716 0.617063 0.597221
0.665500 0.616000 0.593500
0.795284 0.614937 0.589780
0.925067 0.613874 0.586059
1.000000 0.612811 0.582338
0.032674 0.742739 0.599587
0.162458 0.741676 0.595866
0.292241 0.740613 0.592145
0.422025 0.739550 0.588425
0.551809 0.738487 0.584704
0.681592 0.737424 0.580984
0.811376 0.736361 0.577264
0.941159 0.735298 0.573543
1.000000 0.734235 0.569823
0.048766 0.864163 0.587071
0.178550 0.863100 0.583350
0.308333 0.862037 0.579630
0.438117 0.860974 0.575909
0.567901 0.859911 0.572188
0.697684 0.858848 0.568468
0.827468 0.857785 0.564747
0.957251 0.856722 0.561027
1.000000 0.855659 0.557307
0.064858 0.985587 0.574554
0.194642 0.984524 0.570834
0.324425 0.983461 0.567114
0.454209 0.982398 0.563393
0.583992 0.981335 0.559673
0.713776 0.980272 0.555952
0.843560 0.979209 0.552231
0.973343 0.978146 0.548511
1.000000 0.977083 0.544790
0.000000 0.008917 0.816878
0.099844 0.008386 0.812891
0.226438 0.007854 0.808905
0.353033 0.007323 0.804919
0.479627 0.006791 0.800933
0.606221 0.006260 0.796946
0.732816 0.005728 0.792960
0.859410 0.005196 0.788974
0.986005 0.004665 0.784987
0.000000 0.132129 0.803468
0.105207 0.131598 0.799481
0.231802 0.131066 0.795495
0.358397 0.130534 0.791509
0.484991 0.130003 0.787523
0.611586 0.129471 0.783536
0.738180 0.128940 0.779550
0.864775 0.128409 0.775564
0.991369 0.127877 0.771578
0.000000 0.255341 0.790057
0.110572 0.254810 0.786071
0.237166 0.254278 0.782085
0.363760 0.253746 0.778099
0.490355 0.253215 0.774112
0.616950 0.252684 0.770126
0.743544 0.252152 0.766140
0.873554 0.250862 0.759497
1.000000 0.249267 0.751791
0.000000 0.378553 0.776648
0.115935 0.378022 0.772661
0.242530 0.377490 0.768675
0.369498 0.376875 0.764398
0.500876 0.375281 0.756692
0.632254 0.373686 0.748985
0.763632 0.372092 0.741278
0.894508 0.370665 0.734827
1.000000 0.369602 0.731107
0.000000 0.501295 0.761593
0.128198 0.499700 0.753886
0.259576 0.498106 0.746179
0.390954 0.496511 0.738472
0.521249 0.495278 0.733473
0.651033 0.494215 0.729753
0.780816 0.493152 0.726032
0.910600 0.492089 0.722311
1.000000 0.491026 0.718591
0.018207 0.620954 0.735839
0.147990 0.619891 0.732119
0.277774 0.618828 0.728398
0.407558 0.617765 0.724677
0.537341 0.616702 0.720957
0.667125 0.615639 0.717237
0.796908 0.614576 0.713516
0.926692 0.613513 0.709796
1.000000 0.612450 0.706075
0.034299 0.742378 0.723323
0.164082 0.741315 0.719603
0.293866 0.740252 0.715882
0.423650 0.739189 0.712162
0.553433 0.738126 0.708441
0.683217 0.737063 0.704720
0.813000 0.736000 0.701000
0.942783 0.734937 0.697280
1.000000 0.733874 0.693559
0.050391 0.863802 0.710807
0.180174 0.862739 0.707086
0.309958 0.861676 0.703366
0.439742 0.860613 0.699646
0.569525 0.859550 0.695925
0.699308 0.858487 0.692205
0.829092 0.857424 0.688484
0.958875 0.856361 0.684763
1.000000 0.855298 0.681043
0.066483 0.985226 0.698291
0.196267 0.984163 0.694570
0.326050 0.983100 0.690850
0.455834 0.982037 0.687129
0.585617 0.980974 0.683409
0.715400 0.979911 0.679689
0.845184 0.978848 0.675968
0.974967 0.977785 0.672247
1.000000 0.976722 0.668527
0.000000 0.008737 0.940524
0.100385 0.008205 0.936538
0.226980 0.007673 0.932551
0.353574 0.007142 0.928565
0.480168 0.006611 0.924579
0.606763 0.006079 0.920593
0.733357 0.005547 0.916606
0.859952 0.005016 0.912620
0.986546 0.004485 0.908634
0.000000 0.131948 0.927114
0.105749 0.131417 0.923127
0.232344 0.130885 0.919141
0.358938 0.130354 0.915155
0.485532 0.129823 0.911169
0.612127 0.129291 0.907183
0.738722 0.128759 0.903196
0.865316 0.128228 0.899210
0.991911 0.127696 0.895224
0.000000 0.255161 0.913704
0.111113 0.254629 0.909717
0.237707 0.254097 0.905731
0.364302 0.253566 0.901745
0.490897 0.253034 0.897759
0.617491 0.252503 0.893772
0.744342 0.251914 0.889587
0.875720 0.250320 0.881880
1.000000 0.248726 0.874173
0.000000 0.378373 0.900294
0.116477 0.377841 0.896308
0.243071 0.377310 0.892321
0.371664 0.376334 0.886781
0.503042 0.374740 0.879074
0.634420 0.373145 0.871368
0.765798 0.371551 0.863661
0.896132 0.370304 0.858564
1.000000 0.369241 0.854843
0.000000 0.500754 0.883975
0.130364 0.499159 0.876269
0.261742 0.497565 0.868562
0.393090 0.495980 0.860930
0.522873 0.494917 0.857209
0.652657 0.493854 0.853489
0.782440 0.492791 0.849769
0.912224 0.491728 0.846048
1.000000 0.490665 0.842328
0.019831 0.620593 0.859576
0.149615 0.619530 0.855855
0.279398 0.618467 0.852135
0.409182 0.617404 0.848414
0.538965 0.616341 0.844693
0.668749 0.615278 0.840973
0.798532 0.614215 0.837252
0.928316 0.613152 0.833532
1.000000 0.612089 0.829812
0.035923 0.742017 0.847059
0.165707 0.740954 0.843339
0.295490 0.739891 0.839619
0.425274 0.738828 0.835898
0.555057 0.737765 0.832178
0.684841 0.736702 0.828457
0.814624 0.735639 0.824736
0.944408 0.734576 0.821016
1.000000 0.733513 0.817295
0.052015 0.863441 0.834543
0.181799 0.862378 0.830823
0.311582 0.861315 0.827102
0.441366 0.860252 0.823382
0.571149 0.859189 0.819662
0.700933 0.858126 0.815941
0.830716 0.857063 0.812221
0.960500 0.856000 0.808500
1.000000 0.854937 0.804779
0.068107 0.984865 0.822028
0.197891 0.983802 0.818307
0.327674 0.982739 0.814586
0.457458 0.981676 0.810866
0.587241 0.980613 0.807146
0.717025 0.979550 0.803425
0.846808 0.978487 0.799705
0.976592 0.977424 0.795984
1.000000 0.976361 0.792264
0.000000 0.008556 1.000000
0.100927 0.008025 1.000000
0.227521 0.007493 1.000000
0.354116 0.006962 1.000000
0.480710 0.006430 1.000000
0.607305 0.005899 1.000000
0.733899 0.005367 1.000000
0.860494 0.004836 1.000000
0.987088 0.004304 1.000000
0.000000 0.131768 1.000000
0.106290 0.131237 1.000000
0.232885 0.130705 1.000000
0.359480 0.130173 1.000000
0.486074 0.129642 1.000000
0.612668 0.129110 1.000000
0.739263 0.128579 1.000000
0.865857 0.128048 1.000000
0.992452 0.127516 1.000000
0.000000 0.254980 1.000000
0.111655 0.254449 1.000000
0.238249 0.253917 1.000000
0.364843 0.253385 1.000000
0.491438 0.252854 1.000000
0.618032 0.252323 1.000000
0.746508 0.251373 1.000000
0.877886 0.249778 1.000000
1.000000 0.248184 0.996556
0.000000 0.378192 1.000000
0.117018 0.377661 1.000000
0.243613 0.377129 1.000000
0.373830 0.375792 1.000000
0.505208 0.374198 1.000000
0.636586 0.372603 0.993750
0.767964 0.371009 0.986044
0.897756 0.369943 0.982301
1.000000 0.368880 0.978580
0.001152 0.500212 1.000000
0.132530 0.498617 0.998651
0.263908 0.497023 0.990945
0.394714 0.495619 0.984667
0.524498 0.494556 0.980946
0.654281 0.493493 0.977225
0.784065 0.492430 0.973505
0.913849 0.491367 0.969784
1.000000 0.490304 0.966064
0.021456 0.620232 0.983312
0.151239 0.619169 0.979591
0.281023 0.618106 0.975871
0.410807 0.617043 0.972151
0.540590 0.615980 0.968430
0.670373 0.614917 0.964709
0.800157 0.613854 0.960989
0.929940 0.612791 0.957268
1.000000 0.611728 0.953548
0.037548 0.741656 0.970796
0.167331 0.740593 0.967075
0.297115 0.739530 0.963355
0.426899 0.738467 0.959634
0.556682 0.737404 0.955914
0.686466 0.736341 0.952194
0.816249 0.735278 0.948473
0.946033 0.734215 0.944752
1.000000 0.733152 0.941032
0.053640 0.863080 0.958280
0.183423 0.862017 0.954560
0.313207 0.860954 0.950839
0.442991 0.859891 0.947118
0.572774 0.858828 0.943398
0.702557 0.857765 0.939677
0.832341 0.856702 0.935957
0.962124 0.855639 0.932237
1.000000 0.854576 0.928516
0.069732 0.984504 0.945764
0.199516 0.983441 0.942044
0.329299 0.982378 0.938323
0.459083 0.981315 0.934603
0.588866 0.980252 0.930882
0.718649 0.979189 0.927161
0.848433 0.978126 0.923441
0.978217 0.977063 0.919720
1.000000 0.976000 0.916000
