resources/luts/teal-orange.cube
TITLE "Teal & Orange"
LUT_3D_SIZE 5
0.000000 0.010000 0.075000
0.223189 0.008937 0.067027
0.476378 0.007874 0.059055
0.729567 0.006811 0.051083
0.982756 0.005748 0.043110
0.000000 0.256424 0.048180
0.233917 0.255361 0.040208
0.487106 0.254298 0.032235
0.740295 0.253235 0.024262
0.993484 0.252172 0.016290
0.000000 0.502848 0.021360
0.246580 0.501355 0.011883
0.509336 0.498166 0.000000
0.771069 0.495318 0.000000
1.000000 0.493192 0.000000
0.024552 0.744544 0.000000
0.284119 0.742418 0.000000
0.543686 0.740292 0.000000
0.803253 0.738166 0.000000
1.000000 0.736040 0.000000
0.056736 0.987392 0.000000
0.316303 0.985266 0.000000
0.575870 0.983140 0.000000
0.835437 0.981014 0.000000
1.000000 0.978888 0.000000
0.000000 0.009639 0.322292
0.224272 0.008576 0.314320
0.477461 0.007513 0.306347
0.730650 0.006450 0.298375
0.983839 0.005387 0.290403
0.000000 0.256063 0.295473
0.235000 0.255000 0.287500
0.488189 0.253937 0.279527
0.741378 0.252874 0.271555
0.996268 0.251433 0.262260
0.000000 0.502487 0.268653
0.250912 0.500272 0.256648
0.513668 0.497083 0.241234
0.774318 0.494596 0.231086
1.000000 0.492470 0.223645
0.027801 0.743822 0.228377
0.287368 0.741696 0.220936
0.546935 0.739570 0.213495
0.806502 0.737444 0.206054
1.000000 0.735318 0.198613
0.059985 0.986670 0.203345
0.319552 0.984544 0.195904
0.579119 0.982418 0.188463
0.838686 0.980292 0.181022
1.000000 0.978166 0.173581
0.000000 0.009278 0.569585
0.225355 0.008215 0.561612
0.478544 0.007152 0.553640
0.731733 0.006089 0.545667
0.984922 0.005026 0.537695
0.000000 0.255702 0.542765
0.236083 0.254639 0.534793
0.489272 0.253576 0.526820
0.742461 0.252513 0.518848
1.000000 0.250350 0.507025
0.000000 0.502126 0.515945
0.255244 0.499189 0.501414
0.518000 0.496000 0.486000
0.777567 0.493874 0.478559
1.000000 0.491748 0.471118
0.031050 0.743100 0.475850
0.290617 0.740974 0.468409
0.550184 0.738848 0.460968
0.809751 0.736722 0.453527
1.000000 0.734596 0.446086
0.063234 0.985948 0.450818
0.322801 0.983822 0.443377
0.582368 0.981696 0.435936
0.841935 0.979570 0.428495
1.000000 0.977444 0.421054
0.000000 0.008917 0.816878
0.226438 0.007854 0.808905
0.479627 0.006791 0.800933
0.732816 0.005728 0.792960
0.986005 0.004665 0.784987
0.000000 0.255341 0.790057
0.237166 0.254278 0.782085
0.490355 0.253215 0.774112
0.743544 0.252152 0.766140
1.000000 0.249267 0.751791
0.000000 0.501295 0.761593
0.259576 0.498106 0.746179
0.521249 0.495278 0.733473
0.780816 0.493152 0.726032
1.000000 0.491026 0.718591
0.034299 0.742378 0.723323
0.293866 0.740252 0.715882
0.553433 0.738126 0.708441
0.813000 0.736000 0.701000
1.000000 0.733874 0.693559
0.066483 0.985226 0.698291
0.326050 0.983100 0.690850
0.585617 0.980974 0.683409
0.845184 0.978848 0.675968
1.000000 0.976722 0.668527
0.000000 0.008556 1.000000
0.227521 0.007493 1.000000
0.480710 0.006430 1.000000
0.733899 0.005367 1.000000
0.987088 0.004304 1.000000
0.000000 0.254980 1.000000
0.238249 0.253917 1.000000
0.491438 0.252854 1.000000
0.746508 0.251373 1.000000
1.000000 0.248184 0.996556
0.001152 0.500212 1.000000
0.263908 0.497023 0.990945
0.524498 0.494556 0.980946
0.784065 0.492430 0.973505
1.000000 0.490304 0.966064
0.037548 0.741656 0.970796
0.297115 0.739530 0.963355
0.556682 0.737404 0.955914
0.816249 0.735278 0.948473
1.000000 0.733152 0.941032
0.069732 0.984504 0.945764
0.329299 0.982378 0.938323
0.588866 0.980252 0.930882
0.848433 0.978126 0.923441
1.000000 0.976000 0.916000
