resources/luts/teal-orange.cube
TITLE "Teal & Orange"
LUT_3D_SIZE 17
0.000000 0.010000 0.075000
0.033297 0.009734 0.073007
0.096594 0.009468 0.071014
0.159892 0.009203 0.069021
0.223189 0.008937 0.067027
0.286486 0.008671 0.065034
0.349784 0.008405 0.063041
0.413081 0.008140 0.061048
0.476378 0.007874 0.059055
0.539675 0.007608 0.057062
0.602973 0.007343 0.055069
0.666270 0.007077 0.053076
0.729567 0.006811 0.051083
0.792864 0.006545 0.049089
0.856162 0.006280 0.047096
0.919459 0.006014 0.045103
0.982756 0.005748 0.043110
0.000000 0.071606 0.068295
0.035979 0.071340 0.066302
0.099277 0.071074 0.064309
0.162574 0.070809 0.062316
0.225871 0.070543 0.060323
0.289168 0.070277 0.058329
0.352465 0.070012 0.056336
0.415763 0.069746 0.054343
0.479060 0.069480 0.052350
0.542357 0.069214 0.050357
0.605654 0.068948 0.048364
0.668952 0.068683 0.046371
0.732249 0.068417 0.044378
0.795546 0.068151 0.042384
0.858843 0.067886 0.040391
0.922141 0.067620 0.038398
0.985438 0.067354 0.036405
0.000000 0.133212 0.061590
0.038661 0.132946 0.059597
0.101959 0.132681 0.057604
0.165256 0.132415 0.055611
0.228553 0.132149 0.053617
0.291850 0.131883 0.051624
0.355148 0.131617 0.049631
0.418445 0.131352 0.047638
0.481742 0.131086 0.045645
0.545039 0.130820 0.043652
0.608337 0.130554 0.041659
0.671634 0.130289 0.039666
0.734931 0.130023 0.037672
0.798228 0.129757 0.035679
0.861525 0.129492 0.033686
0.924823 0.129226 0.031693
0.988120 0.128960 0.029700
0.000000 0.194818 0.054885
0.041343 0.194552 0.052892
0.104640 0.194287 0.050899
0.167938 0.194021 0.048906
0.231235 0.193755 0.046912
0.294532 0.193489 0.044919
0.357830 0.193223 0.042926
0.421127 0.192958 0.040933
0.484424 0.192692 0.038940
0.547721 0.192426 0.036947
0.611019 0.192161 0.034954
0.674316 0.191895 0.032961
0.737613 0.191629 0.030968
0.800910 0.191363 0.028974
0.864208 0.191098 0.026981
0.927505 0.190832 0.024988
0.990802 0.190566 0.022995
0.000000 0.256424 0.048180
0.044025 0.256158 0.046187
0.107323 0.255893 0.044194
0.170620 0.255627 0.042201
0.233917 0.255361 0.040208
0.297214 0.255095 0.038214
0.360511 0.254829 0.036221
0.423809 0.254564 0.034228
0.487106 0.254298 0.032235
0.550403 0.254032 0.030242
0.613700 0.253767 0.028249
0.676998 0.253501 0.026256
0.740295 0.253235 0.024262
0.803592 0.252969 0.022269
0.866889 0.252704 0.020276
0.930187 0.252438 0.018283
0.993484 0.252172 0.016290
0.000000 0.318030 0.041475
0.046707 0.317764 0.039482
0.110005 0.317499 0.037489
0.173302 0.317233 0.035496
0.236599 0.316967 0.033503
0.299896 0.316701 0.031509
0.363194 0.316435 0.029516
0.426491 0.316170 0.027523
0.489788 0.315904 0.025530
0.553085 0.315638 0.023537
0.616383 0.315373 0.021544
0.679680 0.315107 0.019551
0.742977 0.314841 0.017557
0.806274 0.314575 0.015564
0.871286 0.313928 0.012238
0.936975 0.313131 0.008384
1.000000 0.312334 0.004531
0.000000 0.379636 0.034770
0.049389 0.379370 0.032777
0.112686 0.379105 0.030784
0.175984 0.378839 0.028791
0.239281 0.378573 0.026797
0.302578 0.378307 0.024804
0.365876 0.378041 0.022811
0.429173 0.377776 0.020818
0.492470 0.377510 0.018825
0.555767 0.377244 0.016832
0.619258 0.376935 0.014688
0.684947 0.376138 0.010835
0.750636 0.375341 0.006982
0.816325 0.374544 0.003128
0.882014 0.373747 0.000000
0.947703 0.372949 0.000000
1.000000 0.372152 0.000000
0.000000 0.441242 0.028065
0.052071 0.440976 0.026072
0.115368 0.440711 0.024079
0.178666 0.440445 0.022086
0.241963 0.440179 0.020093
0.305260 0.439913 0.018099
0.368557 0.439648 0.016106
0.432919 0.439145 0.013285
0.498608 0.438348 0.009432
0.564297 0.437551 0.005579
0.629986 0.436754 0.001725
0.695675 0.435956 0.000000
0.761364 0.435159 0.000000
0.827053 0.434362 0.000000
0.892742 0.433565 0.000000
0.957698 0.433011 0.000000
1.000000 0.432480 0.000000
0.000000 0.502848 0.021360
0.054753 0.502582 0.019367
0.118051 0.502317 0.017374
0.181348 0.502051 0.015381
0.246580 0.501355 0.011883
0.312269 0.500558 0.008029
0.377958 0.499760 0.004176
0.443647 0.498963 0.000322
0.509336 0.498166 0.000000
0.575025 0.497369 0.000000
0.640714 0.496571 0.000000
0.706177 0.495849 0.000000
0.771069 0.495318 0.000000
0.835961 0.494787 0.000000
0.900853 0.494255 0.000000
0.965744 0.493723 0.000000
1.000000 0.493192 0.000000
0.000000 0.564362 0.014333
0.060241 0.563565 0.010480
0.125930 0.562767 0.006626
0.191619 0.561970 0.002773
0.257308 0.561173 0.000000
0.322997 0.560376 0.000000
0.388686 0.559578 0.000000
0.454375 0.558781 0.000000
0.519548 0.558156 0.000000
0.584440 0.557624 0.000000
0.649331 0.557093 0.000000
0.714223 0.556562 0.000000
0.779115 0.556030 0.000000
0.844007 0.555499 0.000000
0.908898 0.554967 0.000000
0.973790 0.554435 0.000000
1.000000 0.553904 0.000000
0.005280 0.624180 0.001370
0.070969 0.623383 0.000000
0.136658 0.622586 0.000000
0.202347 0.621788 0.000000
0.268027 0.620994 0.000000
0.332919 0.620463 0.000000
0.397811 0.619931 0.000000
0.462702 0.619399 0.000000
0.527594 0.618868 0.000000
0.592486 0.618336 0.000000
0.657377 0.617805 0.000000
0.722269 0.617274 0.000000
0.787161 0.616742 0.000000
0.852053 0.616210 0.000000
0.916944 0.615679 0.000000
0.981836 0.615147 0.000000
1.000000 0.614616 0.000000
0.016008 0.683998 0.000000
0.081398 0.683300 0.000000
0.146289 0.682769 0.000000
0.211181 0.682238 0.000000
0.276073 0.681706 0.000000
0.340965 0.681175 0.000000
0.405857 0.680643 0.000000
0.470748 0.680111 0.000000
0.535640 0.679580 0.000000
0.600532 0.679049 0.000000
0.665423 0.678517 0.000000
0.730315 0.677986 0.000000
0.795207 0.677454 0.000000
0.860099 0.676922 0.000000
0.924990 0.676391 0.000000
0.989882 0.675859 0.000000
1.000000 0.675328 0.000000
0.024552 0.744544 0.000000
0.089444 0.744012 0.000000
0.154335 0.743481 0.000000
0.219227 0.742950 0.000000
0.284119 0.742418 0.000000
0.349011 0.741887 0.000000
0.413903 0.741355 0.000000
0.478794 0.740823 0.000000
0.543686 0.740292 0.000000
0.608578 0.739761 0.000000
0.673470 0.739229 0.000000
0.738361 0.738698 0.000000
0.803253 0.738166 0.000000
0.868145 0.737634 0.000000
0.933037 0.737103 0.000000
0.997928 0.736572 0.000000
1.000000 0.736040 0.000000
0.032598 0.805256 0.000000
0.097490 0.804724 0.000000
0.162381 0.804193 0.000000
0.227273 0.803662 0.000000
0.292165 0.803130 0.000000
0.357057 0.802598 0.000000
0.421949 0.802067 0.000000
0.486840 0.801535 0.000000
0.551732 0.801004 0.000000
0.616624 0.800473 0.000000
0.681515 0.799941 0.000000
0.746407 0.799409 0.000000
0.811299 0.798878 0.000000
0.876191 0.798346 0.000000
0.941083 0.797815 0.000000
1.000000 0.797284 0.000000
1.000000 0.796752 0.000000
0.040644 0.865968 0.000000
0.105536 0.865437 0.000000
0.170427 0.864905 0.000000
0.235319 0.864374 0.000000
0.300211 0.863842 0.000000
0.365103 0.863310 0.000000
0.429995 0.862779 0.000000
0.494886 0.862248 0.000000
0.559778 0.861716 0.000000
0.624670 0.861185 0.000000
0.689561 0.860653 0.000000
0.754453 0.860121 0.000000
0.819345 0.859590 0.000000
0.884237 0.859059 0.000000
0.949128 0.858527 0.000000
1.000000 0.857996 0.000000
1.000000 0.857464 0.000000
0.048690 0.926680 0.000000
0.113582 0.926149 0.000000
0.178474 0.925617 0.000000
0.243365 0.925086 0.000000
0.308257 0.924554 0.000000
0.373149 0.924022 0.000000
0.438040 0.923491 0.000000
0.502932 0.922960 0.000000
0.567824 0.922428 0.000000
0.632716 0.921897 0.000000
0.697607 0.921365 0.000000
0.762499 0.920833 0.000000
0.827391 0.920302 0.000000
0.892283 0.919771 0.000000
0.957175 0.919239 0.000000
1.000000 0.918708 0.000000
1.000000 0.918176 0.000000
0.056736 0.987392 0.000000
0.121628 0.986861 0.000000
0.186519 0.986329 0.000000
0.251411 0.985797 0.000000
0.316303 0.985266 0.000000
0.381195 0.984734 0.000000
0.446086 0.984203 0.000000
0.510978 0.983672 0.000000
0.575870 0.983140 0.000000
0.640762 0.982608 0.000000
0.705653 0.982077 0.000000
0.770545 0.981545 0.000000
0.835437 0.981014 0.000000
0.900329 0.980483 0.000000
0.965221 0.979951 0.000000
1.000000 0.979419 0.000000
1.000000 0.978888 0.000000
0.000000 0.009910 0.136823
0.033568 0.009644 0.134830
0.096865 0.009378 0.132837
0.160162 0.009113 0.130844
0.223460 0.008847 0.128851
0.286757 0.008581 0.126858
0.350054 0.008315 0.124864
0.413351 0.008050 0.122871
0.476649 0.007784 0.120878
0.539946 0.007518 0.118885
0.603243 0.007252 0.116892
0.666540 0.006986 0.114899
0.729838 0.006721 0.112906
0.793135 0.006455 0.110912
0.856432 0.006189 0.108919
0.919729 0.005923 0.106926
0.983027 0.005658 0.104933
0.000000 0.071516 0.130118
0.036250 0.071250 0.128125
0.099547 0.070984 0.126132
0.162845 0.070719 0.124139
0.226142 0.070453 0.122146
0.289439 0.070187 0.120152
0.352736 0.069921 0.118159
0.416034 0.069655 0.116166
0.479331 0.069390 0.114173
0.542628 0.069124 0.112180
0.605925 0.068858 0.110187
0.669223 0.068593 0.108194
0.732520 0.068327 0.106201
0.795817 0.068061 0.104208
0.859114 0.067795 0.102214
0.922412 0.067530 0.100221
0.985709 0.067264 0.098228
0.000000 0.133122 0.123413
0.038932 0.132856 0.121420
0.102229 0.132590 0.119427
0.165526 0.132325 0.117434
0.228824 0.132059 0.115441
0.292121 0.131793 0.113448
0.355418 0.131527 0.111454
0.418716 0.131262 0.109461
0.482013 0.130996 0.107468
0.545310 0.130730 0.105475
0.608607 0.130464 0.103482
0.671905 0.130198 0.101489
0.735202 0.129933 0.099496
0.798499 0.129667 0.097502
0.861796 0.129401 0.095509
0.925094 0.129136 0.093516
0.988391 0.128870 0.091523
0.000000 0.194728 0.116708
0.041614 0.194462 0.114715
0.104911 0.194196 0.112722
0.168209 0.193931 0.110729
0.231506 0.193665 0.108736
0.294803 0.193399 0.106742
0.358100 0.193133 0.104749
0.421397 0.192867 0.102756
0.484695 0.192602 0.100763
0.547992 0.192336 0.098770
0.611289 0.192070 0.096777
0.674586 0.191804 0.094784
0.737884 0.191539 0.092791
0.801181 0.191273 0.090798
0.864478 0.191007 0.088804
0.927775 0.190742 0.086811
0.991073 0.190476 0.084818
0.000000 0.256334 0.110003
0.044296 0.256068 0.108010
0.107593 0.255802 0.106017
0.170891 0.255536 0.104024
0.234188 0.255271 0.102031
0.297485 0.255005 0.100038
0.360782 0.254739 0.098044
0.424079 0.254474 0.096051
0.487377 0.254208 0.094058
0.550674 0.253942 0.092065
0.613971 0.253676 0.090072
0.677269 0.253410 0.088079
0.740566 0.253145 0.086086
0.803863 0.252879 0.084093
0.867160 0.252613 0.082099
0.930458 0.252348 0.080106
0.993755 0.252082 0.078113
0.000000 0.317940 0.103298
0.046978 0.317674 0.101305
0.110275 0.317408 0.099312
0.173572 0.317142 0.097319
0.236870 0.316877 0.095326
0.300167 0.316611 0.093333
0.363464 0.316345 0.091339
0.426762 0.316080 0.089346
0.490059 0.315814 0.087353
0.553356 0.315548 0.085360
0.616653 0.315282 0.083367
0.679951 0.315016 0.081374
0.743248 0.314751 0.079381
0.806680 0.314455 0.077283
0.872369 0.313658 0.073429
0.938058 0.312860 0.069576
1.000000 0.312063 0.065722
0.000000 0.379546 0.096593
0.049660 0.379280 0.094600
0.112957 0.379014 0.092607
0.176255 0.378748 0.090614
0.239552 0.378483 0.088621
0.302849 0.378217 0.086627
0.366146 0.377951 0.084634
0.429443 0.377686 0.082641
0.492741 0.377420 0.080648
0.556038 0.377154 0.078655
0.620341 0.376665 0.075880
0.686030 0.375868 0.072026
0.751719 0.375070 0.068173
0.817408 0.374273 0.064320
0.883097 0.373476 0.060466
0.948786 0.372678 0.056613
1.000000 0.371881 0.052759
0.000000 0.441152 0.089888
0.052342 0.440886 0.087895
0.115639 0.440620 0.085902
0.178936 0.440354 0.083909
0.242234 0.440089 0.081916
0.305531 0.439823 0.079923
0.368828 0.439557 0.077929
0.434002 0.438875 0.074477
0.499691 0.438077 0.070623
0.565380 0.437280 0.066770
0.631069 0.436483 0.062917
0.696758 0.435686 0.059063
0.762447 0.434888 0.055210
0.828136 0.434091 0.051357
0.893619 0.433362 0.048019
0.958511 0.432831 0.046159
1.000000 0.432300 0.044298
0.000000 0.502758 0.083183
0.055024 0.502492 0.081190
0.118321 0.502226 0.079197
0.181974 0.501881 0.076927
0.247663 0.501084 0.073074
0.313352 0.500287 0.069221
0.379041 0.499490 0.065367
0.444730 0.498692 0.061514
0.510419 0.497895 0.057660
0.576108 0.497098 0.053807
0.641797 0.496301 0.049954
0.706990 0.495669 0.047341
0.771881 0.495138 0.045481
0.836773 0.494606 0.043621
0.901665 0.494074 0.041761
0.966557 0.493543 0.039901
1.000000 0.493011 0.038040
0.000000 0.564091 0.075524
0.061324 0.563294 0.071671
0.127013 0.562497 0.067818
0.192702 0.561700 0.063964
0.258391 0.560902 0.060111
0.324080 0.560105 0.056258
0.389769 0.559308 0.052404
0.455458 0.558511 0.048551
0.520360 0.557975 0.046664
0.585252 0.557444 0.044804
0.650144 0.556913 0.042944
0.715036 0.556381 0.041084
0.779927 0.555849 0.039223
0.844819 0.555318 0.037363
0.909711 0.554786 0.035503
0.974603 0.554255 0.033642
1.000000 0.553724 0.031782
0.006363 0.623909 0.062561
0.072052 0.623112 0.058708
0.137741 0.622315 0.054855
0.203430 0.621518 0.051001
0.268839 0.620814 0.047847
0.333731 0.620282 0.045987
0.398623 0.619750 0.044127
0.463514 0.619219 0.042266
0.528406 0.618688 0.040406
0.593298 0.618156 0.038546
0.658190 0.617625 0.036686
0.723081 0.617093 0.034826
0.787973 0.616561 0.032965
0.852865 0.616030 0.031105
0.917757 0.615498 0.029245
0.982649 0.614967 0.027384
1.000000 0.614436 0.025524
0.017091 0.683727 0.049598
0.082210 0.683120 0.047170
0.147102 0.682589 0.045310
0.211994 0.682057 0.043450
0.276885 0.681526 0.041589
0.341777 0.680994 0.039729
0.406669 0.680462 0.037869
0.471560 0.679931 0.036008
0.536452 0.679400 0.034148
0.601344 0.678868 0.032288
0.666236 0.678337 0.030428
0.731128 0.677805 0.028567
0.796019 0.677273 0.026707
0.860911 0.676742 0.024847
0.925803 0.676211 0.022987
0.990695 0.675679 0.021126
1.000000 0.675148 0.019266
0.025364 0.744363 0.042772
0.090256 0.743832 0.040912
0.155148 0.743301 0.039052
0.220039 0.742769 0.037191
0.284931 0.742237 0.035331
0.349823 0.741706 0.033471
0.414715 0.741174 0.031611
0.479606 0.740643 0.029751
0.544498 0.740112 0.027890
0.609390 0.739580 0.026030
0.674282 0.739048 0.024170
0.739174 0.738517 0.022310
0.804065 0.737985 0.020449
0.868957 0.737454 0.018589
0.933849 0.736923 0.016729
0.998741 0.736391 0.014868
1.000000 0.735859 0.013008
0.033410 0.805076 0.036514
0.098302 0.804544 0.034654
0.163194 0.804013 0.032794
0.228085 0.803481 0.030934
0.292977 0.802949 0.029073
0.357869 0.802418 0.027213
0.422761 0.801886 0.025353
0.487652 0.801355 0.023493
0.552544 0.800824 0.021632
0.617436 0.800292 0.019772
0.682328 0.799760 0.017912
0.747220 0.799229 0.016052
0.812111 0.798697 0.014191
0.877003 0.798166 0.012331
0.941895 0.797635 0.010471
1.000000 0.797103 0.008611
1.000000 0.796571 0.006750
0.041456 0.865788 0.030256
0.106348 0.865256 0.028396
0.171240 0.864725 0.026536
0.236131 0.864193 0.024676
0.301023 0.863661 0.022815
0.365915 0.863130 0.020955
0.430807 0.862599 0.019095
0.495698 0.862067 0.017235
0.560590 0.861536 0.015374
0.625482 0.861004 0.013514
0.690374 0.860472 0.011654
0.755265 0.859941 0.009794
0.820157 0.859410 0.007933
0.885049 0.858878 0.006073
0.949941 0.858347 0.004213
1.000000 0.857815 0.002353
1.000000 0.857283 0.000492
0.049502 0.926500 0.023998
0.114394 0.925968 0.022138
0.179286 0.925436 0.020278
0.244177 0.924905 0.018417
0.309069 0.924373 0.016557
0.373961 0.923842 0.014697
0.438853 0.923311 0.012837
0.503745 0.922779 0.010976
0.568636 0.922247 0.009116
0.633528 0.921716 0.007256
0.698420 0.921184 0.005396
0.763312 0.920653 0.003535
0.828203 0.920122 0.001675
0.893095 0.919590 0.000000
0.957987 0.919059 0.000000
1.000000 0.918527 0.000000
1.000000 0.917995 0.000000
0.057548 0.987212 0.017740
0.122440 0.986680 0.015880
0.187332 0.986148 0.014020
0.252223 0.985617 0.012159
0.317115 0.985085 0.010299
0.382007 0.984554 0.008439
0.446899 0.984023 0.006579
0.511791 0.983491 0.004718
0.576682 0.982959 0.002858
0.641574 0.982428 0.000998
0.706466 0.981896 0.000000
0.771358 0.981365 0.000000
0.836249 0.980834 0.000000
0.901141 0.980302 0.000000
0.966033 0.979770 0.000000
1.000000 0.979239 0.000000
1.000000 0.978707 0.000000
0.000000 0.009820 0.198646
0.033839 0.009554 0.196653
0.097136 0.009288 0.194660
0.160433 0.009022 0.192667
0.223730 0.008757 0.190674
0.287028 0.008491 0.188681
0.350325 0.008225 0.186688
0.413622 0.007959 0.184694
0.476919 0.007693 0.182701
0.540217 0.007428 0.180708
0.603514 0.007162 0.178715
0.666811 0.006896 0.176722
0.730109 0.006630 0.174729
0.793406 0.006365 0.172736
0.856703 0.006099 0.170742
0.920000 0.005833 0.168749
0.983298 0.005567 0.166756
0.000000 0.071426 0.191941
0.036521 0.071160 0.189948
0.099818 0.070894 0.187955
0.163115 0.070628 0.185962
0.226412 0.070362 0.183969
0.289710 0.070097 0.181976
0.353007 0.069831 0.179982
0.416304 0.069565 0.177989
0.479602 0.069299 0.175996
0.542899 0.069034 0.174003
0.606196 0.068768 0.172010
0.669493 0.068502 0.170017
0.732791 0.068237 0.168024
0.796088 0.067971 0.166031
0.859385 0.067705 0.164038
0.922682 0.067439 0.162044
0.985980 0.067173 0.160051
0.000000 0.133031 0.185236
0.039203 0.132766 0.183243
0.102500 0.132500 0.181250
0.165797 0.132234 0.179257
0.229095 0.131968 0.177264
0.292392 0.131703 0.175271
0.355689 0.131437 0.173278
0.418986 0.131171 0.171284
0.482283 0.130906 0.169291
0.545581 0.130640 0.167298
0.608878 0.130374 0.165305
0.672175 0.130108 0.163312
0.735472 0.129842 0.161319
0.798770 0.129577 0.159326
0.862067 0.129311 0.157332
0.925364 0.129045 0.155339
0.988661 0.128779 0.153346
0.000000 0.194637 0.178531
0.041885 0.194372 0.176538
0.105182 0.194106 0.174545
0.168479 0.193840 0.172552
0.231776 0.193575 0.170559
0.295074 0.193309 0.168566
0.358371 0.193043 0.166573
0.421668 0.192777 0.164579
0.484965 0.192512 0.162586
0.548263 0.192246 0.160593
0.611560 0.191980 0.158600
0.674857 0.191714 0.156607
0.738155 0.191448 0.154614
0.801452 0.191183 0.152621
0.864749 0.190917 0.150627
0.928046 0.190651 0.148634
0.991344 0.190386 0.146641
0.000000 0.256244 0.171826
0.044567 0.255978 0.169833
0.107864 0.255712 0.167840
0.171161 0.255446 0.165847
0.234459 0.255180 0.163854
0.297756 0.254915 0.161861
0.361053 0.254649 0.159867
0.424350 0.254383 0.157874
0.487648 0.254117 0.155881
0.550945 0.253852 0.153888
0.614242 0.253586 0.151895
0.677539 0.253320 0.149902
0.740837 0.253055 0.147909
0.804134 0.252789 0.145916
0.867431 0.252523 0.143923
0.930728 0.252257 0.141929
0.994102 0.251974 0.139877
0.000000 0.317850 0.165121
0.047249 0.317584 0.163128
0.110546 0.317318 0.161135
0.173843 0.317052 0.159142
0.237141 0.316787 0.157149
0.300438 0.316521 0.155156
0.363735 0.316255 0.153163
0.427032 0.315989 0.151169
0.490329 0.315723 0.149176
0.553627 0.315458 0.147183
0.616924 0.315192 0.145190
0.680221 0.314926 0.143197
0.743518 0.314661 0.141204
0.807763 0.314184 0.138474
0.873452 0.313387 0.134621
0.939141 0.312590 0.130767
1.000000 0.311792 0.126914
0.000000 0.379456 0.158416
0.049931 0.379190 0.156423
0.113228 0.378924 0.154430
0.176525 0.378658 0.152437
0.239822 0.378393 0.150444
0.303120 0.378127 0.148451
0.366417 0.377861 0.146457
0.429714 0.377595 0.144464
0.493011 0.377329 0.142471
0.556309 0.377064 0.140478
0.621424 0.376394 0.137071
0.687113 0.375597 0.133218
0.752802 0.374800 0.129364
0.818491 0.374002 0.125511
0.884180 0.373205 0.121658
0.949869 0.372408 0.117804
1.000000 0.371611 0.113951
0.000000 0.441061 0.151711
0.052613 0.440796 0.149718
0.115910 0.440530 0.147725
0.179207 0.440264 0.145732
0.242505 0.439999 0.143739
0.305802 0.439733 0.141746
0.369396 0.439401 0.139522
0.435085 0.438604 0.135668
0.500774 0.437806 0.131815
0.566463 0.437009 0.127961
0.632152 0.436212 0.124108
0.697841 0.435415 0.120255
0.763530 0.434617 0.116401
0.829219 0.433820 0.112548
0.894431 0.433182 0.109887
0.959323 0.432650 0.108027
1.000000 0.432119 0.106167
0.000000 0.502668 0.145006
0.055295 0.502402 0.143013
0.118592 0.502136 0.141020
0.183057 0.501611 0.138119
0.248746 0.500814 0.134265
0.314435 0.500016 0.130412
0.380124 0.499219 0.126559
0.445813 0.498422 0.122705
0.511502 0.497625 0.118852
0.577191 0.496827 0.114998
0.642880 0.496030 0.111145
0.707802 0.495488 0.109210
0.772694 0.494957 0.107350
0.837585 0.494426 0.105489
0.902477 0.493894 0.103629
0.967369 0.493362 0.101769
1.000000 0.492831 0.099908
0.000000 0.563820 0.136716
0.062407 0.563023 0.132862
0.128096 0.562226 0.129009
0.193785 0.561429 0.125156
0.259474 0.560631 0.121302
0.325163 0.559834 0.117449
0.390852 0.559037 0.113596
0.456281 0.558326 0.110393
0.521172 0.557795 0.108533
0.586064 0.557264 0.106672
0.650956 0.556732 0.104812
0.715848 0.556200 0.102952
0.780740 0.555669 0.101092
0.845631 0.555137 0.099231
0.910523 0.554606 0.097371
0.975415 0.554075 0.095511
1.000000 0.553543 0.093650
0.007446 0.623638 0.123753
0.073135 0.622841 0.119899
0.138824 0.622044 0.116046
0.204513 0.621247 0.112193
0.269651 0.620633 0.109716
0.334543 0.620101 0.107855
0.399435 0.619570 0.105995
0.464327 0.619039 0.104135
0.529218 0.618507 0.102275
0.594110 0.617976 0.100414
0.659002 0.617444 0.098554
0.723894 0.616912 0.096694
0.788785 0.616381 0.094834
0.853677 0.615850 0.092973
0.918569 0.615318 0.091113
0.983461 0.614787 0.089253
1.000000 0.614255 0.087393
0.018130 0.683471 0.110899
0.083022 0.682940 0.109038
0.147914 0.682408 0.107178
0.212806 0.681876 0.105318
0.277697 0.681345 0.103458
0.342589 0.680813 0.101597
0.407481 0.680282 0.099737
0.472373 0.679751 0.097877
0.537265 0.679219 0.096017
0.602156 0.678687 0.094156
0.667048 0.678156 0.092296
0.731940 0.677624 0.090436
0.796832 0.677093 0.088576
0.861723 0.676562 0.086715
0.926615 0.676030 0.084855
0.991507 0.675499 0.082995
1.000000 0.674967 0.081135
0.026176 0.744183 0.104641
0.091068 0.743652 0.102780
0.155960 0.743120 0.100920
0.220852 0.742588 0.099060
0.285743 0.742057 0.097200
0.350635 0.741525 0.095339
0.415527 0.740994 0.093479
0.480419 0.740463 0.091619
0.545311 0.739931 0.089758
0.610202 0.739399 0.087898
0.675094 0.738868 0.086038
0.739986 0.738336 0.084178
0.804878 0.737805 0.082318
0.869769 0.737274 0.080457
0.934661 0.736742 0.078597
0.999553 0.736210 0.076737
1.000000 0.735679 0.074877
0.034222 0.804895 0.098383
0.099114 0.804364 0.096522
0.164006 0.803832 0.094662
0.228898 0.803300 0.092802
0.293789 0.802769 0.090942
0.358681 0.802238 0.089081
0.423573 0.801706 0.087221
0.488465 0.801175 0.085361
0.553357 0.800643 0.083501
0.618248 0.800111 0.081640
0.683140 0.799580 0.079780
0.748032 0.799049 0.077920
0.812923 0.798517 0.076060
0.877815 0.797986 0.074199
0.942707 0.797454 0.072339
1.000000 0.796922 0.070479
1.000000 0.796391 0.068619
0.042268 0.865607 0.092125
0.107160 0.865075 0.090264
0.172052 0.864544 0.088404
0.236944 0.864012 0.086544
0.301835 0.863481 0.084684
0.366727 0.862950 0.082823
0.431619 0.862418 0.080963
0.496511 0.861886 0.079103
0.561403 0.861355 0.077243
0.626294 0.860823 0.075382
0.691186 0.860292 0.073522
0.756078 0.859761 0.071662
0.820969 0.859229 0.069802
0.885861 0.858698 0.067941
0.950753 0.858166 0.066081
1.000000 0.857634 0.064221
1.000000 0.857103 0.062361
0.050314 0.926319 0.085867
0.115206 0.925787 0.084006
0.180098 0.925256 0.082146
0.244990 0.924724 0.080286
0.309881 0.924193 0.078426
0.374773 0.923662 0.076565
0.439665 0.923130 0.074705
0.504557 0.922598 0.072845
0.569449 0.922067 0.070985
0.634340 0.921535 0.069124
0.699232 0.921004 0.067264
0.764124 0.920473 0.065404
0.829016 0.919941 0.063544
0.893907 0.919409 0.061683
0.958799 0.918878 0.059823
1.000000 0.918346 0.057963
1.000000 0.917815 0.056102
0.058360 0.987031 0.079609
0.123252 0.986499 0.077748
0.188144 0.985968 0.075888
0.253036 0.985437 0.074028
0.317927 0.984905 0.072168
0.382819 0.984374 0.070307
0.447711 0.983842 0.068447
0.512603 0.983310 0.066587
0.577495 0.982779 0.064727
0.642386 0.982248 0.062866
0.707278 0.981716 0.061006
0.772170 0.981185 0.059146
0.837062 0.980653 0.057286
0.901953 0.980121 0.055425
0.966845 0.979590 0.053565
1.000000 0.979059 0.051705
1.000000 0.978527 0.049845
0.000000 0.009729 0.260469
0.034110 0.009463 0.258476
0.097407 0.009198 0.256483
0.160704 0.008932 0.254490
0.224001 0.008666 0.252497
0.287299 0.008400 0.250504
0.350596 0.008135 0.248511
0.413893 0.007869 0.246518
0.477190 0.007603 0.244524
0.540488 0.007337 0.242531
0.603785 0.007072 0.240538
0.667082 0.006806 0.238545
0.730379 0.006540 0.236552
0.793677 0.006274 0.234559
0.856974 0.006009 0.232566
0.920271 0.005743 0.230573
0.983568 0.005477 0.228579
0.000000 0.071335 0.253764
0.036792 0.071070 0.251771
0.100089 0.070804 0.249778
