resources/luts/vintage-film.cube
TITLE "Vintage Film"
LUT_3D_SIZE 5
0.090000 0.060000 0.060000
0.280158 0.070524 0.069939
0.470315 0.081047 0.079878
0.660473 0.091571 0.089817
0.850630 0.102095 0.099756
0.126189 0.270902 0.093436
0.316347 0.281426 0.103375
0.506504 0.291950 0.113314
0.696662 0.302474 0.123253
0.886819 0.312997 0.133192
0.162378 0.481805 0.126871
0.352536 0.492329 0.136810
0.542693 0.502852 0.146749
0.732851 0.513376 0.156688
0.923008 0.523900 0.166627
0.198567 0.692707 0.160307
0.388725 0.703231 0.170246
0.578882 0.713755 0.180185
0.769040 0.724278 0.190124
0.959198 0.734802 0.200063
0.234756 0.903610 0.193742
0.424914 0.914133 0.203681
0.615072 0.924657 0.213620
0.805229 0.935181 0.223560
0.995387 0.945704 0.233499
0.093653 0.063574 0.229125
0.283811 0.074098 0.239064
0.473968 0.084621 0.249003
0.664126 0.095145 0.258942
0.854284 0.105669 0.268882
0.129842 0.274476 0.262561
0.320000 0.285000 0.272500
0.510158 0.295524 0.282439
0.700315 0.306047 0.292378
0.890473 0.316571 0.302317
0.166032 0.485379 0.295997
0.356189 0.495902 0.305936
0.546347 0.506426 0.315875
0.736504 0.516950 0.325814
0.926662 0.527473 0.335753
0.202221 0.696281 0.329432
0.392378 0.706805 0.339371
0.582536 0.717329 0.349310
0.772693 0.727852 0.359249
0.962851 0.738376 0.369188
0.238410 0.907183 0.362868
0.428567 0.917707 0.372807
0.618725 0.928231 0.382746
0.808882 0.938755 0.392685
0.999040 0.949278 0.402624
0.097307 0.067148 0.398251
0.287464 0.077672 0.408190
0.477622 0.088195 0.418129
0.667779 0.098719 0.428068
0.857937 0.109243 0.438007
0.133496 0.278050 0.431686
0.323653 0.288574 0.441625
0.513811 0.299098 0.451564
0.703968 0.309621 0.461503
0.894126 0.320145 0.471442
0.169685 0.488953 0.465122
0.359842 0.499476 0.475061
0.550000 0.510000 0.485000
0.740158 0.520524 0.494939
0.930315 0.531047 0.504878
0.205874 0.699855 0.498557
0.396032 0.710379 0.508497
0.586189 0.720902 0.518436
0.776347 0.731426 0.528375
0.966504 0.741950 0.538314
0.242063 0.910757 0.531993
0.432221 0.921281 0.541932
0.622378 0.931805 0.551871
0.812536 0.942328 0.561810
1.000000 0.952852 0.571749
0.100960 0.070722 0.567376
0.291118 0.081245 0.577315
0.481275 0.091769 0.587254
0.671433 0.102293 0.597193
0.861590 0.112817 0.607132
0.137149 0.281624 0.600812
0.327307 0.292148 0.610751
0.517464 0.302671 0.620690
0.707622 0.313195 0.630629
0.897779 0.323719 0.640568
0.173338 0.492526 0.634247
0.363496 0.503050 0.644186
0.553653 0.513574 0.654125
0.743811 0.524098 0.664064
0.933968 0.534621 0.674003
0.209527 0.703429 0.667683
0.399685 0.713953 0.677622
0.589842 0.724476 0.687561
0.780000 0.735000 0.697500
0.970158 0.745524 0.707439
0.245716 0.914331 0.701118
0.435874 0.924855 0.711057
0.626032 0.935379 0.720997
0.816189 0.945902 0.730936
1.000000 0.956426 0.740875
0.104613 0.074296 0.736501
0.294771 0.084819 0.746440
0.484928 0.095343 0.756379
0.675086 0.105867 0.766319
0.865244 0.116390 0.776258
0.140802 0.285198 0.769937
0.330960 0.295722 0.779876
0.521118 0.306245 0.789815
0.711275 0.316769 0.799754
0.901433 0.327293 0.809693
0.176992 0.496100 0.803373
0.367149 0.506624 0.813312
0.557307 0.517148 0.823251
0.747464 0.527672 0.833190
0.937622 0.538195 0.843129
0.213181 0.707003 0.836808
0.403338 0.717526 0.846747
0.593496 0.728050 0.856686
0.783653 0.738574 0.866625
0.973811 0.749098 0.876564
0.249370 0.917905 0.870244
0.439527 0.928429 0.880183
0.629685 0.938953 0.890122
0.819842 0.949476 0.900061
1.000000 0.960000 0.910000
