resources/luts/vintage-film.cube
TITLE "Vintage Film"
LUT_3D_SIZE 9
0.090000 0.060000 0.060000
0.185079 0.065262 0.064970
0.280158 0.070524 0.069939
0.375236 0.075786 0.074909
0.470315 0.081047 0.079878
0.565394 0.086309 0.084848
0.660473 0.091571 0.089817
0.755551 0.096833 0.094787
0.850630 0.102095 0.099756
0.108095 0.165451 0.076718
0.203173 0.170713 0.081687
0.298252 0.175975 0.086657
0.393331 0.181237 0.091626
0.488410 0.186499 0.096596
0.583488 0.191760 0.101565
0.678567 0.197022 0.106535
0.773646 0.202284 0.111504
0.868725 0.207546 0.116474
0.126189 0.270902 0.093436
0.221268 0.276164 0.098405
0.316347 0.281426 0.103375
0.411425 0.286688 0.108344
0.506504 0.291950 0.113314
0.601583 0.297212 0.118283
0.696662 0.302474 0.123253
0.791741 0.307735 0.128222
0.886819 0.312997 0.133192
0.144284 0.376354 0.110153
0.239362 0.381615 0.115123
0.334441 0.386877 0.120092
0.429520 0.392139 0.125062
0.524599 0.397401 0.130031
0.619678 0.402663 0.135001
0.714756 0.407925 0.139971
0.809835 0.413187 0.144940
0.904914 0.418448 0.149910
0.162378 0.481805 0.126871
0.257457 0.487067 0.131841
0.352536 0.492329 0.136810
0.447615 0.497590 0.141780
0.542693 0.502852 0.146749
0.637772 0.508114 0.151719
0.732851 0.513376 0.156688
0.827930 0.518638 0.161658
0.923008 0.523900 0.166627
0.180473 0.587256 0.143589
0.275552 0.592518 0.148559
0.370630 0.597780 0.153528
0.465709 0.603042 0.158498
0.560788 0.608303 0.163467
0.655867 0.613565 0.168437
0.750945 0.618827 0.173406
0.846024 0.624089 0.178376
0.941103 0.629351 0.183345
0.198567 0.692707 0.160307
0.293646 0.697969 0.165276
0.388725 0.703231 0.170246
0.483804 0.708493 0.175215
0.578882 0.713755 0.180185
0.673961 0.719016 0.185154
0.769040 0.724278 0.190124
0.864119 0.729540 0.195093
0.959198 0.734802 0.200063
0.216662 0.798158 0.177025
0.311741 0.803420 0.181994
0.406819 0.808682 0.186964
0.501898 0.813944 0.191933
0.596977 0.819206 0.196903
0.692056 0.824468 0.201872
0.787135 0.829730 0.206842
0.882213 0.834991 0.211811
0.977292 0.840253 0.216781
0.234756 0.903610 0.193742
0.329835 0.908871 0.198712
0.424914 0.914133 0.203681
0.519993 0.919395 0.208651
0.615072 0.924657 0.213620
0.710150 0.929919 0.218590
0.805229 0.935181 0.223560
0.900308 0.940443 0.228529
0.995387 0.945704 0.233499
0.091827 0.061787 0.144563
0.186905 0.067049 0.149532
0.281984 0.072311 0.154502
0.377063 0.077573 0.159471
0.472142 0.082834 0.164441
0.567221 0.088096 0.169410
0.662299 0.093358 0.174380
0.757378 0.098620 0.179349
0.852457 0.103882 0.184319
0.109921 0.167238 0.161280
0.205000 0.172500 0.166250
0.300079 0.177762 0.171220
0.395158 0.183024 0.176189
0.490236 0.188286 0.181159
0.585315 0.193547 0.186128
0.680394 0.198809 0.191098
0.775473 0.204071 0.196067
0.870551 0.209333 0.201037
0.128016 0.272689 0.177998
0.223095 0.277951 0.182968
0.318173 0.283213 0.187937
0.413252 0.288475 0.192907
0.508331 0.293737 0.197876
0.603410 0.298999 0.202846
0.698488 0.304260 0.207815
0.793567 0.309522 0.212785
0.888646 0.314784 0.217754
0.146110 0.378141 0.194716
0.241189 0.383402 0.199686
0.336268 0.388664 0.204655
0.431347 0.393926 0.209625
0.526425 0.399188 0.214594
0.621504 0.404450 0.219564
0.716583 0.409712 0.224533
0.811662 0.414973 0.229503
0.906741 0.420235 0.234472
0.164205 0.483592 0.211434
0.259284 0.488854 0.216403
0.354362 0.494115 0.221373
0.449441 0.499377 0.226342
0.544520 0.504639 0.231312
0.639599 0.509901 0.236281
0.734678 0.515163 0.241251
0.829756 0.520425 0.246221
0.924835 0.525687 0.251190
0.182299 0.589043 0.228152
0.277378 0.594305 0.233121
0.372457 0.599567 0.238091
0.467536 0.604828 0.243060
0.562615 0.610090 0.248030
0.657693 0.615352 0.252999
0.752772 0.620614 0.257969
0.847851 0.625876 0.262938
0.942930 0.631138 0.267908
0.200394 0.694494 0.244869
0.295473 0.699756 0.249839
0.390552 0.705018 0.254809
0.485630 0.710280 0.259778
0.580709 0.715542 0.264748
0.675788 0.720803 0.269717
0.770867 0.726065 0.274687
0.865945 0.731327 0.279656
0.961024 0.736589 0.284626
0.218489 0.799945 0.261587
0.313567 0.805207 0.266557
0.408646 0.810469 0.271526
0.503725 0.815731 0.276496
0.598804 0.820993 0.281465
0.693882 0.826255 0.286435
0.788961 0.831516 0.291404
0.884040 0.836778 0.296374
0.979119 0.842040 0.301343
0.236583 0.905397 0.278305
0.331662 0.910658 0.283275
0.426741 0.915920 0.288244
0.521819 0.921182 0.293214
0.616898 0.926444 0.298183
0.711977 0.931706 0.303153
0.807056 0.936968 0.308122
0.902135 0.942230 0.313092
0.997213 0.947491 0.318061
0.093653 0.063574 0.229125
0.188732 0.068836 0.234095
0.283811 0.074098 0.239064
0.378890 0.079359 0.244034
0.473968 0.084621 0.249003
0.569047 0.089883 0.253973
0.664126 0.095145 0.258942
0.759205 0.100407 0.263912
0.854284 0.105669 0.268882
0.111748 0.169025 0.245843
0.206827 0.174287 0.250813
0.301905 0.179549 0.255782
0.396984 0.184811 0.260752
0.492063 0.190073 0.265721
0.587142 0.195334 0.270691
0.682221 0.200596 0.275660
0.777299 0.205858 0.280630
0.872378 0.211120 0.285599
0.129842 0.274476 0.262561
0.224921 0.279738 0.267530
0.320000 0.285000 0.272500
0.415079 0.290262 0.277470
0.510158 0.295524 0.282439
0.605236 0.300786 0.287409
0.700315 0.306047 0.292378
0.795394 0.311309 0.297348
0.890473 0.316571 0.302317
0.147937 0.379927 0.279279
0.243016 0.385189 0.284248
0.338095 0.390451 0.289218
0.433173 0.395713 0.294187
0.528252 0.400975 0.299157
0.623331 0.406237 0.304126
0.718410 0.411499 0.309096
0.813488 0.416760 0.314065
0.908567 0.422022 0.319035
0.166032 0.485379 0.295997
0.261110 0.490641 0.300966
0.356189 0.495902 0.305936
0.451268 0.501164 0.310905
0.546347 0.506426 0.315875
0.641425 0.511688 0.320844
0.736504 0.516950 0.325814
0.831583 0.522212 0.330783
0.926662 0.527473 0.335753
0.184126 0.590830 0.312714
0.279205 0.596092 0.317684
0.374284 0.601354 0.322653
0.469362 0.606615 0.327623
0.564441 0.611877 0.332592
0.659520 0.617139 0.337562
0.754599 0.622401 0.342531
0.849678 0.627663 0.347501
0.944756 0.632925 0.352471
0.202221 0.696281 0.329432
0.297299 0.701543 0.334402
0.392378 0.706805 0.339371
0.487457 0.712067 0.344341
0.582536 0.717329 0.349310
0.677615 0.722590 0.354280
0.772693 0.727852 0.359249
0.867772 0.733114 0.364219
0.962851 0.738376 0.369188
0.220315 0.801732 0.346150
0.315394 0.806994 0.351119
0.410473 0.812256 0.356089
0.505552 0.817518 0.361059
0.600630 0.822780 0.366028
0.695709 0.828042 0.370998
0.790788 0.833303 0.375967
0.885867 0.838565 0.380937
0.980945 0.843827 0.385906
0.238410 0.907183 0.362868
0.333489 0.912445 0.367837
0.428567 0.917707 0.372807
0.523646 0.922969 0.377776
0.618725 0.928231 0.382746
0.713804 0.933493 0.387715
0.808882 0.938755 0.392685
0.903961 0.944016 0.397654
0.999040 0.949278 0.402624
0.095480 0.065361 0.313688
0.190559 0.070623 0.318658
0.285638 0.075885 0.323627
0.380716 0.081146 0.328597
0.475795 0.086408 0.333566
0.570874 0.091670 0.338536
0.665953 0.096932 0.343505
0.761031 0.102194 0.348475
0.856110 0.107456 0.353444
0.113575 0.170812 0.330406
0.208653 0.176074 0.335375
0.303732 0.181336 0.340345
0.398811 0.186598 0.345314
0.493890 0.191859 0.350284
0.588968 0.197121 0.355253
0.684047 0.202383 0.360223
0.779126 0.207645 0.365192
0.874205 0.212907 0.370162
0.131669 0.276263 0.347124
0.226748 0.281525 0.352093
0.321827 0.286787 0.357063
0.416905 0.292049 0.362032
0.511984 0.297311 0.367002
0.607063 0.302573 0.371971
0.702142 0.307834 0.376941
0.797221 0.313096 0.381910
0.892299 0.318358 0.386880
0.149764 0.381714 0.363841
0.244842 0.386976 0.368811
0.339921 0.392238 0.373780
0.435000 0.397500 0.378750
0.530079 0.402762 0.383720
0.625158 0.408024 0.388689
0.720236 0.413286 0.393659
0.815315 0.418547 0.398628
0.910394 0.423809 0.403598
0.167858 0.487166 0.380559
0.262937 0.492428 0.385529
0.358016 0.497689 0.390498
0.453095 0.502951 0.395468
0.548173 0.508213 0.400437
0.643252 0.513475 0.405407
0.738331 0.518737 0.410376
0.833410 0.523999 0.415346
0.928488 0.529260 0.420315
0.185953 0.592617 0.397277
0.281032 0.597879 0.402247
0.376110 0.603141 0.407216
0.471189 0.608402 0.412186
0.566268 0.613664 0.417155
0.661347 0.618926 0.422125
0.756425 0.624188 0.427094
0.851504 0.629450 0.432064
0.946583 0.634712 0.437033
0.204047 0.698068 0.413995
0.299126 0.703330 0.418964
0.394205 0.708592 0.423934
0.489284 0.713854 0.428903
0.584362 0.719115 0.433873
0.679441 0.724377 0.438842
0.774520 0.729639 0.443812
0.869599 0.734901 0.448781
0.964678 0.740163 0.453751
0.222142 0.803519 0.430713
0.317221 0.808781 0.435682
0.412299 0.814043 0.440652
0.507378 0.819305 0.445621
0.602457 0.824567 0.450591
0.697536 0.829828 0.455560
0.792615 0.835090 0.460530
0.887693 0.840352 0.465499
0.982772 0.845614 0.470469
0.240236 0.908970 0.447430
0.335315 0.914232 0.452400
0.430394 0.919494 0.457369
0.525473 0.924756 0.462339
0.620552 0.930018 0.467309
0.715630 0.935280 0.472278
0.810709 0.940542 0.477248
0.905788 0.945803 0.482217
1.000000 0.951065 0.487187
0.097307 0.067148 0.398251
0.192385 0.072410 0.403220
0.287464 0.077672 0.408190
0.382543 0.082933 0.413159
0.477622 0.088195 0.418129
0.572701 0.093457 0.423098
0.667779 0.098719 0.428068
0.762858 0.103981 0.433037
0.857937 0.109243 0.438007
0.115401 0.172599 0.414969
0.210480 0.177861 0.419938
0.305559 0.183123 0.424908
0.400638 0.188385 0.429877
0.495716 0.193646 0.434847
0.590795 0.198908 0.439816
0.685874 0.204170 0.444786
0.780953 0.209432 0.449755
0.876031 0.214694 0.454725
0.133496 0.278050 0.431686
0.228575 0.283312 0.436656
0.323653 0.288574 0.441625
0.418732 0.293836 0.446595
0.513811 0.299098 0.451564
0.608890 0.304359 0.456534
0.703968 0.309621 0.461503
0.799047 0.314883 0.466473
0.894126 0.320145 0.471442
0.151590 0.383501 0.448404
0.246669 0.388763 0.453374
0.341748 0.394025 0.458343
0.436827 0.399287 0.463313
0.531905 0.404549 0.468282
0.626984 0.409811 0.473252
0.722063 0.415073 0.478221
0.817142 0.420334 0.483191
0.912221 0.425596 0.488160
0.169685 0.488953 0.465122
0.264764 0.494214 0.470091
0.359842 0.499476 0.475061
0.454921 0.504738 0.480030
0.550000 0.510000 0.485000
0.645079 0.515262 0.489970
0.740158 0.520524 0.494939
0.835236 0.525786 0.499909
0.930315 0.531047 0.504878
0.187779 0.594404 0.481840
0.282858 0.599666 0.486809
0.377937 0.604928 0.491779
0.473016 0.610189 0.496748
0.568095 0.615451 0.501718
0.663173 0.620713 0.506687
0.758252 0.625975 0.511657
0.853331 0.631237 0.516626
0.948410 0.636499 0.521596
0.205874 0.699855 0.498557
0.300953 0.705117 0.503527
0.396032 0.710379 0.508497
0.491110 0.715641 0.513466
0.586189 0.720902 0.518436
0.681268 0.726164 0.523405
0.776347 0.731426 0.528375
0.871425 0.736688 0.533344
0.966504 0.741950 0.538314
0.223969 0.805306 0.515275
0.319047 0.810568 0.520245
0.414126 0.815830 0.525214
0.509205 0.821092 0.530184
0.604284 0.826354 0.535153
0.699362 0.831615 0.540123
0.794441 0.836877 0.545092
0.889520 0.842139 0.550062
0.984599 0.847401 0.555031
0.242063 0.910757 0.531993
0.337142 0.916019 0.536963
0.432221 0.921281 0.541932
0.527299 0.926543 0.546902
0.622378 0.931805 0.551871
0.717457 0.937067 0.556841
0.812536 0.942328 0.561810
0.907615 0.947590 0.566780
1.000000 0.952852 0.571749
0.099133 0.068935 0.482813
0.194212 0.074197 0.487783
0.289291 0.079458 0.492752
0.384370 0.084720 0.497722
0.479448 0.089982 0.502691
0.574527 0.095244 0.507661
0.669606 0.100506 0.512631
0.764685 0.105768 0.517600
0.859764 0.111030 0.522570
0.117228 0.174386 0.499531
0.212307 0.179648 0.504501
0.307385 0.184910 0.509470
0.402464 0.190172 0.514440
0.497543 0.195433 0.519409
0.592622 0.200695 0.524379
0.687701 0.205957 0.529348
0.782779 0.211219 0.534318
0.877858 0.216481 0.539287
0.135322 0.279837 0.516249
0.230401 0.285099 0.521219
0.325480 0.290361 0.526188
0.420559 0.295623 0.531158
0.515638 0.300885 0.536127
0.610716 0.306146 0.541097
0.705795 0.311408 0.546066
0.800874 0.316670 0.551036
0.895953 0.321932 0.556005
0.153417 0.385288 0.532967
0.248496 0.390550 0.537936
0.343575 0.395812 0.542906
0.438653 0.401074 0.547875
0.533732 0.406336 0.552845
0.628811 0.411598 0.557814
0.723890 0.416859 0.562784
0.818968 0.422121 0.567753
0.914047 0.427383 0.572723
0.171512 0.490740 0.549685
0.266590 0.496001 0.554654
0.361669 0.501263 0.559624
0.456748 0.506525 0.564593
0.551827 0.511787 0.569563
0.646905 0.517049 0.574532
0.741984 0.522311 0.579502
0.837063 0.527572 0.584471
0.932142 0.532834 0.589441
0.189606 0.596191 0.566402
0.284685 0.601453 0.571372
0.379764 0.606714 0.576341
0.474842 0.611976 0.581311
0.569921 0.617238 0.586280
0.665000 0.622500 0.591250
0.760079 0.627762 0.596220
0.855158 0.633024 0.601189
0.950236 0.638286 0.606159
0.207701 0.701642 0.583120
0.302779 0.706904 0.588090
0.397858 0.712166 0.593059
0.492937 0.717428 0.598029
0.588016 0.722689 0.602998
0.683095 0.727951 0.607968
0.778173 0.733213 0.612937
0.873252 0.738475 0.617907
0.968331 0.743737 0.622876
0.225795 0.807093 0.599838
0.320874 0.812355 0.604807
0.415953 0.817617 0.609777
0.511032 0.822879 0.614747
0.606110 0.828141 0.619716
0.701189 0.833402 0.624686
0.796268 0.838664 0.629655
0.891347 0.843926 0.634625
0.986425 0.849188 0.639594
0.243890 0.912544 0.616556
0.338969 0.917806 0.621525
0.434047 0.923068 0.626495
0.529126 0.928330 0.631464
0.624205 0.933592 0.636434
0.719284 0.938854 0.641403
0.814362 0.944115 0.646373
0.909441 0.949377 0.651342
1.000000 0.954639 0.656312
0.100960 0.070722 0.567376
0.196039 0.075984 0.572346
0.291118 0.081245 0.577315
0.386196 0.086507 0.582285
0.481275 0.091769 0.587254
0.576354 0.097031 0.592224
0.671433 0.102293 0.597193
0.766511 0.107555 0.602163
0.861590 0.112817 0.607132
0.119055 0.176173 0.584094
0.214133 0.181435 0.589063
0.309212 0.186697 0.594033
0.404291 0.191958 0.599002
0.499370 0.197220 0.603972
0.594448 0.202482 0.608941
0.689527 0.207744 0.613911
0.784606 0.213006 0.618881
0.879685 0.218268 0.623850
0.137149 0.281624 0.600812
0.232228 0.286886 0.605781
0.327307 0.292148 0.610751
0.422385 0.297410 0.615720
0.517464 0.302671 0.620690
0.612543 0.307933 0.625659
0.707622 0.313195 0.630629
0.802701 0.318457 0.635598
0.897779 0.323719 0.640568
0.155244 0.387075 0.617529
0.250322 0.392337 0.622499
0.345401 0.397599 0.627468
0.440480 0.402861 0.632438
0.535559 0.408123 0.637408
0.630638 0.413385 0.642377
0.725716 0.418646 0.647347
0.820795 0.423908 0.652316
0.915874 0.429170 0.657286
0.173338 0.492526 0.634247
0.268417 0.497788 0.639217
0.363496 0.503050 0.644186
0.458575 0.508312 0.649156
0.553653 0.513574 0.654125
0.648732 0.518836 0.659095
0.743811 0.524098 0.664064
0.838890 0.529359 0.669034
0.933968 0.534621 0.674003
0.191433 0.597978 0.650965
0.286512 0.603240 0.655935
0.381590 0.608501 0.660904
0.476669 0.613763 0.665874
0.571748 0.619025 0.670843
0.666827 0.624287 0.675813
0.761905 0.629549 0.680782
0.856984 0.634811 0.685752
0.952063 0.640073 0.690721
0.209527 0.703429 0.667683
0.304606 0.708691 0.672652
0.399685 0.713953 0.677622
0.494764 0.719214 0.682591
0.589842 0.724476 0.687561
0.684921 0.729738 0.692530
0.780000 0.735000 0.697500
0.875079 0.740262 0.702470
0.970158 0.745524 0.707439
0.227622 0.808880 0.684401
0.322701 0.814142 0.689370
0.417779 0.819404 0.694340
0.512858 0.824666 0.699309
0.607937 0.829927 0.704279
0.703016 0.835189 0.709248
0.798095 0.840451 0.714218
0.893173 0.845713 0.719187
0.988252 0.850975 0.724157
0.245716 0.914331 0.701118
0.340795 0.919593 0.706088
0.435874 0.924855 0.711057
0.530953 0.930117 0.716027
0.626032 0.935379 0.720997
0.721110 0.940641 0.725966
0.816189 0.945902 0.730936
0.911268 0.951164 0.735905
1.000000 0.956426 0.740875
0.102787 0.072509 0.651939
0.197865 0.077770 0.656908
0.292944 0.083032 0.661878
0.388023 0.088294 0.666847
0.483102 0.093556 0.671817
0.578181 0.098818 0.676786
0.673259 0.104080 0.681756
0.768338 0.109342 0.686725
0.863417 0.114603 0.691695
0.120881 0.177960 0.668657
0.215960 0.183222 0.673626
0.311039 0.188484 0.678596
0.406118 0.193745 0.683565
0.501196 0.199007 0.688535
0.596275 0.204269 0.693504
0.691354 0.209531 0.698474
0.786433 0.214793 0.703443
0.881511 0.220055 0.708413
0.138976 0.283411 0.685374
0.234055 0.288673 0.690344
0.329133 0.293935 0.695313
0.424212 0.299197 0.700283
0.519291 0.304458 0.705252
0.614370 0.309720 0.710222
0.709448 0.314982 0.715191
0.804527 0.320244 0.720161
0.899606 0.325506 0.725131
0.157070 0.388862 0.702092
0.252149 0.394124 0.707062
0.347228 0.399386 0.712031
0.442307 0.404648 0.717001
0.537385 0.409910 0.721970
0.632464 0.415172 0.726940
0.727543 0.420433 0.731909
0.822622 0.425695 0.736879
0.917701 0.430957 0.741848
0.175165 0.494313 0.718810
0.270244 0.499575 0.723779
0.365322 0.504837 0.728749
0.460401 0.510099 0.733718
0.555480 0.515361 0.738688
0.650559 0.520623 0.743658
0.745638 0.525885 0.748627
0.840716 0.531146 0.753597
0.935795 0.536408 0.758566
0.193259 0.599765 0.735528
0.288338 0.605027 0.740497
0.383417 0.610288 0.745467
0.478496 0.615550 0.750436
0.573575 0.620812 0.755406
0.668653 0.626074 0.760375
0.763732 0.631336 0.765345
0.858811 0.636598 0.770314
0.953890 0.641859 0.775284
0.211354 0.705216 0.752246
0.306433 0.710478 0.757215
0.401512 0.715740 0.762185
0.496590 0.721001 0.767154
0.591669 0.726263 0.772124
0.686748 0.731525 0.777093
0.781827 0.736787 0.782063
0.876905 0.742049 0.787032
0.971984 0.747311 0.792002
0.229449 0.810667 0.768963
0.324527 0.815929 0.773933
0.419606 0.821191 0.778902
0.514685 0.826453 0.783872
0.609764 0.831714 0.788841
0.704842 0.836976 0.793811
0.799921 0.842238 0.798780
0.895000 0.847500 0.803750
0.990079 0.852762 0.808720
0.247543 0.916118 0.785681
0.342622 0.921380 0.790651
0.437701 0.926642 0.795620
0.532779 0.931904 0.800590
0.627858 0.937166 0.805559
0.722937 0.942427 0.810529
0.818016 0.947689 0.815498
0.913095 0.952951 0.820468
1.000000 0.958213 0.825437
0.104613 0.074296 0.736501
0.199692 0.079557 0.741471
0.294771 0.084819 0.746440
0.389850 0.090081 0.751410
0.484928 0.095343 0.756379
0.580007 0.100605 0.761349
0.675086 0.105867 0.766319
0.770165 0.111129 0.771288
0.865244 0.116390 0.776258
0.122708 0.179747 0.753219
0.217787 0.185009 0.758189
0.312865 0.190271 0.763158
0.407944 0.195532 0.768128
0.503023 0.200794 0.773097
0.598102 0.206056 0.778067
0.693181 0.211318 0.783036
0.788259 0.216580 0.788006
0.883338 0.221842 0.792975
0.140802 0.285198 0.769937
0.235881 0.290460 0.774907
0.330960 0.295722 0.779876
0.426039 0.300984 0.784846
0.521118 0.306245 0.789815
0.616196 0.311507 0.794785
0.711275 0.316769 0.799754
0.806354 0.322031 0.804724
0.901433 0.327293 0.809693
0.158897 0.390649 0.786655
0.253976 0.395911 0.791624
0.349055 0.401173 0.796594
0.444133 0.406435 0.801563
0.539212 0.411697 0.806533
0.634291 0.416958 0.811502
0.729370 0.422220 0.816472
0.824448 0.427482 0.821441
0.919527 0.432744 0.826411
0.176992 0.496100 0.803373
0.272070 0.501362 0.808342
0.367149 0.506624 0.813312
0.462228 0.511886 0.818281
0.557307 0.517148 0.823251
0.652385 0.522410 0.828220
0.747464 0.527672 0.833190
0.842543 0.532933 0.838159
0.937622 0.538195 0.843129
0.195086 0.601552 0.820090
0.290165 0.606813 0.825060
0.385244 0.612075 0.830029
0.480322 0.617337 0.834999
0.575401 0.622599 0.839969
0.670480 0.627861 0.844938
0.765559 0.633123 0.849908
0.860638 0.638385 0.854877
0.955716 0.643646 0.859847
0.213181 0.707003 0.836808
0.308259 0.712265 0.841778
0.403338 0.717526 0.846747
0.498417 0.722788 0.851717
0.593496 0.728050 0.856686
0.688575 0.733312 0.861656
0.783653 0.738574 0.866625
0.878732 0.743836 0.871595
0.973811 0.749098 0.876564
0.231275 0.812454 0.853526
0.326354 0.817716 0.858496
0.421433 0.822978 0.863465
0.516512 0.828240 0.868435
0.611590 0.833501 0.873404
0.706669 0.838763 0.878374
0.801748 0.844025 0.883343
0.896827 0.849287 0.888313
0.991905 0.854549 0.893282
0.249370 0.917905 0.870244
0.344449 0.923167 0.875213
0.439527 0.928429 0.880183
0.534606 0.933691 0.885152
0.629685 0.938953 0.890122
0.724764 0.944214 0.895091
0.819842 0.949476 0.900061
0.914921 0.954738 0.905030
1.000000 0.960000 0.910000
