resources/luts/vintage-film.cube
TITLE "Vintage Film"
LUT_3D_SIZE 17
0.090000 0.060000 0.060000
0.137539 0.062631 0.062485
0.185079 0.065262 0.064970
0.232618 0.067893 0.067454
0.280158 0.070524 0.069939
0.327697 0.073155 0.072424
0.375236 0.075786 0.074909
0.422776 0.078416 0.077393
0.470315 0.081047 0.079878
0.517855 0.083678 0.082363
0.565394 0.086309 0.084848
0.612933 0.088940 0.087332
0.660473 0.091571 0.089817
0.708012 0.094202 0.092302
0.755551 0.096833 0.094787
0.803091 0.099464 0.097271
0.850630 0.102095 0.099756
0.099047 0.112726 0.068359
0.146587 0.115357 0.070844
0.194126 0.117987 0.073328
0.241665 0.120618 0.075813
0.289205 0.123249 0.078298
0.336744 0.125880 0.080783
0.384284 0.128511 0.083267
0.431823 0.131142 0.085752
0.479362 0.133773 0.088237
0.526902 0.136404 0.090722
0.574441 0.139035 0.093207
0.621981 0.141666 0.095691
0.669520 0.144297 0.098176
0.717059 0.146928 0.100661
0.764599 0.149559 0.103146
0.812138 0.152189 0.105630
0.859678 0.154820 0.108115
0.108095 0.165451 0.076718
0.155634 0.168082 0.079203
0.203173 0.170713 0.081687
0.250713 0.173344 0.084172
0.298252 0.175975 0.086657
0.345792 0.178606 0.089142
0.393331 0.181237 0.091626
0.440870 0.183868 0.094111
0.488410 0.186499 0.096596
0.535949 0.189130 0.099081
0.583488 0.191760 0.101565
0.631028 0.194391 0.104050
0.678567 0.197022 0.106535
0.726107 0.199653 0.109020
0.773646 0.202284 0.111504
0.821185 0.204915 0.113989
0.868725 0.207546 0.116474
0.117142 0.218177 0.085077
0.164681 0.220808 0.087561
0.212221 0.223439 0.090046
0.259760 0.226070 0.092531
0.307299 0.228701 0.095016
0.354839 0.231331 0.097501
0.402378 0.233962 0.099985
0.449918 0.236593 0.102470
0.497457 0.239224 0.104955
0.544996 0.241855 0.107440
0.592536 0.244486 0.109924
0.640075 0.247117 0.112409
0.687615 0.249748 0.114894
0.735154 0.252379 0.117379
0.782693 0.255010 0.119863
0.830233 0.257641 0.122348
0.877772 0.260272 0.124833
0.126189 0.270902 0.093436
0.173729 0.273533 0.095920
0.221268 0.276164 0.098405
0.268807 0.278795 0.100890
0.316347 0.281426 0.103375
0.363886 0.284057 0.105859
0.411425 0.286688 0.108344
0.458965 0.289319 0.110829
0.506504 0.291950 0.113314
0.554044 0.294581 0.115798
0.601583 0.297212 0.118283
0.649122 0.299843 0.120768
0.696662 0.302474 0.123253
0.744201 0.305104 0.125738
0.791741 0.307735 0.128222
0.839280 0.310366 0.130707
0.886819 0.312997 0.133192
0.135236 0.323628 0.101794
0.182776 0.326259 0.104279
0.230315 0.328890 0.106764
0.277855 0.331521 0.109249
0.325394 0.334152 0.111734
0.372933 0.336783 0.114218
0.420473 0.339414 0.116703
0.468012 0.342044 0.119188
0.515552 0.344675 0.121673
0.563091 0.347306 0.124157
0.610630 0.349937 0.126642
0.658170 0.352568 0.129127
0.705709 0.355199 0.131612
0.753248 0.357830 0.134096
0.800788 0.360461 0.136581
0.848327 0.363092 0.139066
0.895867 0.365723 0.141551
0.144284 0.376354 0.110153
0.191823 0.378985 0.112638
0.239362 0.381615 0.115123
0.286902 0.384246 0.117608
0.334441 0.386877 0.120092
0.381981 0.389508 0.122577
0.429520 0.392139 0.125062
0.477059 0.394770 0.127547
0.524599 0.397401 0.130031
0.572138 0.400032 0.132516
0.619678 0.402663 0.135001
0.667217 0.405294 0.137486
0.714756 0.407925 0.139971
0.762296 0.410556 0.142455
0.809835 0.413187 0.144940
0.857375 0.415817 0.147425
0.904914 0.418448 0.149910
0.153331 0.429079 0.118512
0.200870 0.431710 0.120997
0.248410 0.434341 0.123482
0.295949 0.436972 0.125967
0.343489 0.439603 0.128451
0.391028 0.442234 0.130936
0.438567 0.444865 0.133421
0.486107 0.447496 0.135906
0.533646 0.450127 0.138390
0.581185 0.452758 0.140875
0.628725 0.455388 0.143360
0.676264 0.458019 0.145845
0.723804 0.460650 0.148329
0.771343 0.463281 0.150814
0.818882 0.465912 0.153299
0.866422 0.468543 0.155784
0.913961 0.471174 0.158268
0.162378 0.481805 0.126871
0.209918 0.484436 0.129356
0.257457 0.487067 0.131841
0.304996 0.489698 0.134325
0.352536 0.492329 0.136810
0.400075 0.494959 0.139295
0.447615 0.497590 0.141780
0.495154 0.500221 0.144265
0.542693 0.502852 0.146749
0.590233 0.505483 0.149234
0.637772 0.508114 0.151719
0.685312 0.510745 0.154204
0.732851 0.513376 0.156688
0.780390 0.516007 0.159173
0.827930 0.518638 0.161658
0.875469 0.521269 0.164143
0.923008 0.523900 0.166627
0.171426 0.534530 0.135230
0.218965 0.537161 0.137715
0.266504 0.539792 0.140200
0.314044 0.542423 0.142684
0.361583 0.545054 0.145169
0.409122 0.547685 0.147654
0.456662 0.550316 0.150139
0.504201 0.552947 0.152623
0.551741 0.555578 0.155108
0.599280 0.558209 0.157593
0.646819 0.560840 0.160078
0.694359 0.563471 0.162562
0.741898 0.566102 0.165047
0.789438 0.568732 0.167532
0.836977 0.571363 0.170017
0.884516 0.573994 0.172502
0.932056 0.576625 0.174986
0.180473 0.587256 0.143589
0.228012 0.589887 0.146074
0.275552 0.592518 0.148559
0.323091 0.595149 0.151043
0.370630 0.597780 0.153528
0.418170 0.600411 0.156013
0.465709 0.603042 0.158498
0.513249 0.605672 0.160982
0.560788 0.608303 0.163467
0.608327 0.610934 0.165952
0.655867 0.613565 0.168437
0.703406 0.616196 0.170921
0.750945 0.618827 0.173406
0.798485 0.621458 0.175891
0.846024 0.624089 0.178376
0.893564 0.626720 0.180860
0.941103 0.629351 0.183345
0.189520 0.639982 0.151948
0.237059 0.642613 0.154433
0.284599 0.645243 0.156917
0.332138 0.647874 0.159402
0.379678 0.650505 0.161887
0.427217 0.653136 0.164372
0.474756 0.655767 0.166856
0.522296 0.658398 0.169341
0.569835 0.661029 0.171826
0.617375 0.663660 0.174311
0.664914 0.666291 0.176796
0.712453 0.668922 0.179280
0.759993 0.671553 0.181765
0.807532 0.674184 0.184250
0.855072 0.676815 0.186735
0.902611 0.679445 0.189219
0.950150 0.682076 0.191704
0.198567 0.692707 0.160307
0.246107 0.695338 0.162792
0.293646 0.697969 0.165276
0.341186 0.700600 0.167761
0.388725 0.703231 0.170246
0.436264 0.705862 0.172731
0.483804 0.708493 0.175215
0.531343 0.711124 0.177700
0.578882 0.713755 0.180185
0.626422 0.716386 0.182670
0.673961 0.719016 0.185154
0.721501 0.721647 0.187639
0.769040 0.724278 0.190124
0.816579 0.726909 0.192609
0.864119 0.729540 0.195093
0.911658 0.732171 0.197578
0.959198 0.734802 0.200063
0.207615 0.745433 0.168666
0.255154 0.748064 0.171150
0.302693 0.750695 0.173635
0.350233 0.753326 0.176120
0.397772 0.755956 0.178605
0.445312 0.758587 0.181090
0.492851 0.761218 0.183574
0.540390 0.763849 0.186059
0.587930 0.766480 0.188544
0.635469 0.769111 0.191029
0.683009 0.771742 0.193513
0.730548 0.774373 0.195998
0.778087 0.777004 0.198483
0.825627 0.779635 0.200968
0.873166 0.782266 0.203452
0.920705 0.784897 0.205937
0.968245 0.787528 0.208422
0.216662 0.798158 0.177025
0.264201 0.800789 0.179509
0.311741 0.803420 0.181994
0.359280 0.806051 0.184479
0.406819 0.808682 0.186964
0.454359 0.811313 0.189448
0.501898 0.813944 0.191933
0.549438 0.816575 0.194418
0.596977 0.819206 0.196903
0.644516 0.821837 0.199387
0.692056 0.824468 0.201872
0.739595 0.827099 0.204357
0.787135 0.829730 0.206842
0.834674 0.832360 0.209327
0.882213 0.834991 0.211811
0.929753 0.837622 0.214296
0.977292 0.840253 0.216781
0.225709 0.850884 0.185384
0.273249 0.853515 0.187868
0.320788 0.856146 0.190353
0.368327 0.858777 0.192838
0.415867 0.861408 0.195323
0.463406 0.864039 0.197807
0.510946 0.866670 0.200292
0.558485 0.869300 0.202777
0.606024 0.871931 0.205262
0.653564 0.874562 0.207746
0.701103 0.877193 0.210231
0.748642 0.879824 0.212716
0.796182 0.882455 0.215201
0.843721 0.885086 0.217685
0.891261 0.887717 0.220170
0.938800 0.890348 0.222655
0.986339 0.892979 0.225140
0.234756 0.903610 0.193742
0.282296 0.906241 0.196227
0.329835 0.908871 0.198712
0.377375 0.911502 0.201197
0.424914 0.914133 0.203681
0.472453 0.916764 0.206166
0.519993 0.919395 0.208651
0.567532 0.922026 0.211136
0.615072 0.924657 0.213620
0.662611 0.927288 0.216105
0.710150 0.929919 0.218590
0.757690 0.932550 0.221075
0.805229 0.935181 0.223560
0.852769 0.937812 0.226044
0.900308 0.940443 0.228529
0.947847 0.943073 0.231014
0.995387 0.945704 0.233499
0.090913 0.060893 0.102281
0.138453 0.063524 0.104766
0.185992 0.066155 0.107251
0.233532 0.068786 0.109736
0.281071 0.071417 0.112220
0.328610 0.074048 0.114705
0.376150 0.076679 0.117190
0.423689 0.079310 0.119675
0.471228 0.081941 0.122159
0.518768 0.084572 0.124644
0.566307 0.087203 0.127129
0.613847 0.089834 0.129614
0.661386 0.092465 0.132098
0.708925 0.095095 0.134583
0.756465 0.097726 0.137068
0.804004 0.100357 0.139553
0.851544 0.102988 0.142038
0.099961 0.113619 0.110640
0.147500 0.116250 0.113125
0.195039 0.118881 0.115610
0.242579 0.121512 0.118095
0.290118 0.124143 0.120579
0.337658 0.126774 0.123064
0.385197 0.129405 0.125549
0.432736 0.132036 0.128034
0.480276 0.134666 0.130518
0.527815 0.137297 0.133003
0.575355 0.139928 0.135488
0.622894 0.142559 0.137973
0.670433 0.145190 0.140457
0.717973 0.147821 0.142942
0.765512 0.150452 0.145427
0.813051 0.153083 0.147912
0.860591 0.155714 0.150396
0.109008 0.166345 0.118999
0.156547 0.168976 0.121484
0.204087 0.171607 0.123969
0.251626 0.174237 0.126453
0.299165 0.176868 0.128938
0.346705 0.179499 0.131423
0.394244 0.182130 0.133908
0.441784 0.184761 0.136392
0.489323 0.187392 0.138877
0.536862 0.190023 0.141362
0.584402 0.192654 0.143847
0.631941 0.195285 0.146332
0.679481 0.197916 0.148816
0.727020 0.200547 0.151301
0.774559 0.203178 0.153786
0.822099 0.205809 0.156271
0.869638 0.208439 0.158755
0.118055 0.219070 0.127358
0.165595 0.221701 0.129843
0.213134 0.224332 0.132328
0.260673 0.226963 0.134812
0.308213 0.229594 0.137297
0.355752 0.232225 0.139782
0.403292 0.234856 0.142267
0.450831 0.237487 0.144751
0.498370 0.240118 0.147236
0.545910 0.242749 0.149721
0.593449 0.245380 0.152206
0.640988 0.248010 0.154690
0.688528 0.250641 0.157175
0.736067 0.253272 0.159660
0.783607 0.255903 0.162145
0.831146 0.258534 0.164629
0.878685 0.261165 0.167114
0.127102 0.271796 0.135717
0.174642 0.274427 0.138202
0.222181 0.277058 0.140686
0.269721 0.279689 0.143171
0.317260 0.282320 0.145656
0.364799 0.284950 0.148141
0.412339 0.287581 0.150626
0.459878 0.290212 0.153110
0.507418 0.292843 0.155595
0.554957 0.295474 0.158080
0.602496 0.298105 0.160565
0.650036 0.300736 0.163049
0.697575 0.303367 0.165534
0.745115 0.305998 0.168019
0.792654 0.308629 0.170504
0.840193 0.311260 0.172988
0.887733 0.313891 0.175473
0.136150 0.324521 0.144076
0.183689 0.327152 0.146561
0.231229 0.329783 0.149045
0.278768 0.332414 0.151530
0.326307 0.335045 0.154015
0.373847 0.337676 0.156500
0.421386 0.340307 0.158984
0.468925 0.342938 0.161469
0.516465 0.345569 0.163954
0.564004 0.348200 0.166439
0.611544 0.350831 0.168923
0.659083 0.353462 0.171408
0.706622 0.356093 0.173893
0.754162 0.358724 0.176378
0.801701 0.361354 0.178863
0.849241 0.363985 0.181347
0.896780 0.366616 0.183832
0.145197 0.377247 0.152435
0.192736 0.379878 0.154919
0.240276 0.382509 0.157404
0.287815 0.385140 0.159889
0.335355 0.387771 0.162374
0.382894 0.390402 0.164859
0.430433 0.393033 0.167343
0.477973 0.395664 0.169828
0.525512 0.398294 0.172313
0.573052 0.400925 0.174798
0.620591 0.403556 0.177282
0.668130 0.406187 0.179767
0.715670 0.408818 0.182252
0.763209 0.411449 0.184737
0.810748 0.414080 0.187221
0.858288 0.416711 0.189706
0.905827 0.419342 0.192191
0.154244 0.429973 0.160794
0.201784 0.432604 0.163278
0.249323 0.435235 0.165763
0.296862 0.437865 0.168248
0.344402 0.440496 0.170733
0.391941 0.443127 0.173217
0.439481 0.445758 0.175702
0.487020 0.448389 0.178187
0.534559 0.451020 0.180672
0.582099 0.453651 0.183156
0.629638 0.456282 0.185641
0.677178 0.458913 0.188126
0.724717 0.461544 0.190611
0.772256 0.464175 0.193096
0.819796 0.466806 0.195580
0.867335 0.469437 0.198065
0.914875 0.472067 0.200550
0.163292 0.482698 0.169153
0.210831 0.485329 0.171637
0.258370 0.487960 0.174122
0.305910 0.490591 0.176607
0.353449 0.493222 0.179092
0.400989 0.495853 0.181576
0.448528 0.498484 0.184061
0.496067 0.501115 0.186546
0.543607 0.503746 0.189031
0.591146 0.506377 0.191515
0.638685 0.509008 0.194000
0.686225 0.511638 0.196485
0.733764 0.514269 0.198970
0.781304 0.516900 0.201454
0.828843 0.519531 0.203939
0.876382 0.522162 0.206424
0.923922 0.524793 0.208909
0.172339 0.535424 0.177511
0.219878 0.538055 0.179996
0.267418 0.540686 0.182481
0.314957 0.543317 0.184966
0.362496 0.545948 0.187450
0.410036 0.548579 0.189935
0.457575 0.551209 0.192420
0.505115 0.553840 0.194905
0.552654 0.556471 0.197390
0.600193 0.559102 0.199874
0.647733 0.561733 0.202359
0.695272 0.564364 0.204844
0.742812 0.566995 0.207329
0.790351 0.569626 0.209813
0.837890 0.572257 0.212298
0.885430 0.574888 0.214783
0.932969 0.577519 0.217268
0.181386 0.588149 0.185870
0.228926 0.590780 0.188355
0.276465 0.593411 0.190840
0.324004 0.596042 0.193325
0.371544 0.598673 0.195809
0.419083 0.601304 0.198294
0.466622 0.603935 0.200779
0.514162 0.606566 0.203264
0.561701 0.609197 0.205748
0.609241 0.611828 0.208233
0.656780 0.614459 0.210718
0.704319 0.617090 0.213203
0.751859 0.619721 0.215687
0.799398 0.622351 0.218172
0.846938 0.624982 0.220657
0.894477 0.627613 0.223142
0.942016 0.630244 0.225627
0.190433 0.640875 0.194229
0.237973 0.643506 0.196714
0.285512 0.646137 0.199199
0.333052 0.648768 0.201684
0.380591 0.651399 0.204168
0.428130 0.654030 0.206653
0.475670 0.656661 0.209138
0.523209 0.659292 0.211623
0.570749 0.661922 0.214107
0.618288 0.664553 0.216592
0.665827 0.667184 0.219077
0.713367 0.669815 0.221562
0.760906 0.672446 0.224046
0.808445 0.675077 0.226531
0.855985 0.677708 0.229016
0.903524 0.680339 0.231501
0.951064 0.682970 0.233985
0.199481 0.693601 0.202588
0.247020 0.696232 0.205073
0.294559 0.698863 0.207558
0.342099 0.701493 0.210042
0.389638 0.704124 0.212527
0.437178 0.706755 0.215012
0.484717 0.709386 0.217497
0.532256 0.712017 0.219981
0.579796 0.714648 0.222466
0.627335 0.717279 0.224951
0.674875 0.719910 0.227436
0.722414 0.722541 0.229921
0.769953 0.725172 0.232405
0.817493 0.727803 0.234890
0.865032 0.730434 0.237375
0.912572 0.733065 0.239860
0.960111 0.735695 0.242344
0.208528 0.746326 0.210947
0.256067 0.748957 0.213432
0.303607 0.751588 0.215917
0.351146 0.754219 0.218401
0.398686 0.756850 0.220886
0.446225 0.759481 0.223371
0.493764 0.762112 0.225856
0.541304 0.764743 0.228340
0.588843 0.767374 0.230825
0.636382 0.770005 0.233310
0.683922 0.772636 0.235795
0.731461 0.775266 0.238279
0.779001 0.777897 0.240764
0.826540 0.780528 0.243249
0.874079 0.783159 0.245734
0.921619 0.785790 0.248218
0.969158 0.788421 0.250703
0.217575 0.799052 0.219306
0.265115 0.801683 0.221791
0.312654 0.804314 0.224275
0.360193 0.806945 0.226760
0.407733 0.809576 0.229245
0.455272 0.812207 0.231730
0.502812 0.814837 0.234215
0.550351 0.817468 0.236699
0.597890 0.820099 0.239184
0.645430 0.822730 0.241669
0.692969 0.825361 0.244154
0.740509 0.827992 0.246638
0.788048 0.830623 0.249123
0.835587 0.833254 0.251608
0.883127 0.835885 0.254093
0.930666 0.838516 0.256577
0.978205 0.841147 0.259062
0.226623 0.851777 0.227665
0.274162 0.854408 0.230150
0.321701 0.857039 0.232634
0.369241 0.859670 0.235119
0.416780 0.862301 0.237604
0.464319 0.864932 0.240089
0.511859 0.867563 0.242573
0.559398 0.870194 0.245058
0.606938 0.872825 0.247543
0.654477 0.875456 0.250028
0.702016 0.878087 0.252512
0.749556 0.880718 0.254997
0.797095 0.883349 0.257482
0.844635 0.885979 0.259967
0.892174 0.888610 0.262452
0.939713 0.891241 0.264936
0.987253 0.893872 0.267421
0.235670 0.904503 0.236024
0.283209 0.907134 0.238509
0.330749 0.909765 0.240993
0.378288 0.912396 0.243478
0.425827 0.915027 0.245963
0.473367 0.917658 0.248448
0.520906 0.920289 0.250932
0.568446 0.922920 0.253417
0.615985 0.925550 0.255902
0.663524 0.928181 0.258387
0.711064 0.930812 0.260871
0.758603 0.933443 0.263356
0.806142 0.936074 0.265841
0.853682 0.938705 0.268326
0.901221 0.941336 0.270810
0.948761 0.943967 0.273295
0.996300 0.946598 0.275780
0.091827 0.061787 0.144563
0.139366 0.064418 0.147047
0.186905 0.067049 0.149532
0.234445 0.069680 0.152017
0.281984 0.072311 0.154502
0.329524 0.074942 0.156986
0.377063 0.077573 0.159471
0.424602 0.080203 0.161956
0.472142 0.082834 0.164441
0.519681 0.085465 0.166926
0.567221 0.088096 0.169410
0.614760 0.090727 0.171895
0.662299 0.093358 0.174380
0.709839 0.095989 0.176865
0.757378 0.098620 0.179349
0.804918 0.101251 0.181834
0.852457 0.103882 0.184319
0.100874 0.114513 0.152922
0.148413 0.117143 0.155406
0.195953 0.119774 0.157891
0.243492 0.122405 0.160376
0.291031 0.125036 0.162861
0.338571 0.127667 0.165345
0.386110 0.130298 0.167830
0.433650 0.132929 0.170315
0.481189 0.135560 0.172800
0.528728 0.138191 0.175284
0.576268 0.140822 0.177769
0.623807 0.143453 0.180254
0.671347 0.146084 0.182739
0.718886 0.148715 0.185223
0.766425 0.151346 0.187708
0.813965 0.153976 0.190193
0.861504 0.156607 0.192678
0.109921 0.167238 0.161280
0.157461 0.169869 0.163765
0.205000 0.172500 0.166250
0.252539 0.175131 0.168735
0.300079 0.177762 0.171220
0.347618 0.180393 0.173704
0.395158 0.183024 0.176189
0.442697 0.185655 0.178674
0.490236 0.188286 0.181159
0.537776 0.190916 0.183643
0.585315 0.193547 0.186128
0.632855 0.196178 0.188613
0.680394 0.198809 0.191098
0.727933 0.201440 0.193582
0.775473 0.204071 0.196067
0.823012 0.206702 0.198552
0.870551 0.209333 0.201037
0.118969 0.219964 0.169639
0.166508 0.222595 0.172124
0.214047 0.225226 0.174609
0.261587 0.227857 0.177094
0.309126 0.230487 0.179578
0.356665 0.233118 0.182063
0.404205 0.235749 0.184548
0.451744 0.238380 0.187033
0.499284 0.241011 0.189517
0.546823 0.243642 0.192002
0.594362 0.246273 0.194487
0.641902 0.248904 0.196972
0.689441 0.251535 0.199457
0.736981 0.254166 0.201941
0.784520 0.256797 0.204426
0.832059 0.259428 0.206911
0.879599 0.262059 0.209396
0.128016 0.272689 0.177998
0.175555 0.275320 0.180483
0.223095 0.277951 0.182968
0.270634 0.280582 0.185453
0.318173 0.283213 0.187937
0.365713 0.285844 0.190422
0.413252 0.288475 0.192907
0.460792 0.291106 0.195392
0.508331 0.293737 0.197876
0.555870 0.296368 0.200361
0.603410 0.298999 0.202846
0.650949 0.301630 0.205331
0.698488 0.304260 0.207815
0.746028 0.306891 0.210300
0.793567 0.309522 0.212785
0.841107 0.312153 0.215270
0.888646 0.314784 0.217754
0.137063 0.325415 0.186357
0.184602 0.328046 0.188842
0.232142 0.330677 0.191327
0.279681 0.333308 0.193811
0.327221 0.335939 0.196296
0.374760 0.338570 0.198781
0.422299 0.341200 0.201266
0.469839 0.343831 0.203751
0.517378 0.346462 0.206235
0.564918 0.349093 0.208720
0.612457 0.351724 0.211205
0.659996 0.354355 0.213690
0.707536 0.356986 0.216174
0.755075 0.359617 0.218659
0.802615 0.362248 0.221144
0.850154 0.364879 0.223629
0.897693 0.367510 0.226113
0.146110 0.378141 0.194716
0.193650 0.380771 0.197201
0.241189 0.383402 0.199686
0.288729 0.386033 0.202170
0.336268 0.388664 0.204655
0.383807 0.391295 0.207140
0.431347 0.393926 0.209625
0.478886 0.396557 0.212109
0.526425 0.399188 0.214594
0.573965 0.401819 0.217079
0.621504 0.404450 0.219564
0.669044 0.407081 0.222048
0.716583 0.409712 0.224533
0.764122 0.412343 0.227018
0.811662 0.414973 0.229503
0.859201 0.417604 0.231988
0.906741 0.420235 0.234472
0.155158 0.430866 0.203075
0.202697 0.433497 0.205560
0.250236 0.436128 0.208044
0.297776 0.438759 0.210529
0.345315 0.441390 0.213014
0.392855 0.444021 0.215499
0.440394 0.446652 0.217984
0.487933 0.449283 0.220468
0.535473 0.451914 0.222953
0.583012 0.454544 0.225438
0.630552 0.457175 0.227923
0.678091 0.459806 0.230407
0.725630 0.462437 0.232892
0.773170 0.465068 0.235377
0.820709 0.467699 0.237862
0.868248 0.470330 0.240346
0.915788 0.472961 0.242831
0.164205 0.483592 0.211434
0.211744 0.486223 0.213919
0.259284 0.488854 0.216403
0.306823 0.491485 0.218888
0.354362 0.494115 0.221373
0.401902 0.496746 0.223858
0.449441 0.499377 0.226342
0.496981 0.502008 0.228827
0.544520 0.504639 0.231312
0.592059 0.507270 0.233797
0.639599 0.509901 0.236281
0.687138 0.512532 0.238766
0.734678 0.515163 0.241251
0.782217 0.517794 0.243736
0.829756 0.520425 0.246221
0.877296 0.523056 0.248705
0.924835 0.525687 0.251190
0.173252 0.536317 0.219793
0.220792 0.538948 0.222278
0.268331 0.541579 0.224762
0.315870 0.544210 0.227247
0.363410 0.546841 0.229732
0.410949 0.549472 0.232217
0.458489 0.552103 0.234701
0.506028 0.554734 0.237186
0.553567 0.557365 0.239671
0.601107 0.559996 0.242156
0.648646 0.562627 0.244640
0.696185 0.565258 0.247125
0.743725 0.567888 0.249610
0.791264 0.570519 0.252095
0.838804 0.573150 0.254579
0.886343 0.575781 0.257064
0.933882 0.578412 0.259549
0.182299 0.589043 0.228152
0.229839 0.591674 0.230636
0.277378 0.594305 0.233121
0.324918 0.596936 0.235606
0.372457 0.599567 0.238091
0.419996 0.602198 0.240575
0.467536 0.604828 0.243060
0.515075 0.607459 0.245545
0.562615 0.610090 0.248030
0.610154 0.612721 0.250515
0.657693 0.615352 0.252999
0.705233 0.617983 0.255484
0.752772 0.620614 0.257969
0.800312 0.623245 0.260454
0.847851 0.625876 0.262938
0.895390 0.628507 0.265423
0.942930 0.631138 0.267908
0.191347 0.641769 0.236511
0.238886 0.644399 0.238995
0.286426 0.647030 0.241480
0.333965 0.649661 0.243965
0.381504 0.652292 0.246450
0.429044 0.654923 0.248934
0.476583 0.657554 0.251419
0.524122 0.660185 0.253904
0.571662 0.662816 0.256389
0.619201 0.665447 0.258873
0.666741 0.668078 0.261358
0.714280 0.670709 0.263843
0.761819 0.673340 0.266328
0.809359 0.675971 0.268812
0.856898 0.678601 0.271297
0.904438 0.681232 0.273782
0.951977 0.683863 0.276267
0.200394 0.694494 0.244869
0.247933 0.697125 0.247354
0.295473 0.699756 0.249839
0.343012 0.702387 0.252324
0.390552 0.705018 0.254809
0.438091 0.707649 0.257293
0.485630 0.710280 0.259778
0.533170 0.712911 0.262263
0.580709 0.715542 0.264748
0.628249 0.718172 0.267232
0.675788 0.720803 0.269717
0.723327 0.723434 0.272202
0.770867 0.726065 0.274687
0.818406 0.728696 0.277171
0.865945 0.731327 0.279656
0.913485 0.733958 0.282141
0.961024 0.736589 0.284626
0.209441 0.747220 0.253228
0.256981 0.749851 0.255713
0.304520 0.752482 0.258198
0.352059 0.755113 0.260683
0.399599 0.757743 0.263167
0.447138 0.760374 0.265652
0.494678 0.763005 0.268137
0.542217 0.765636 0.270622
0.589756 0.768267 0.273106
0.637296 0.770898 0.275591
0.684835 0.773529 0.278076
0.732375 0.776160 0.280561
0.779914 0.778791 0.283046
0.827453 0.781422 0.285530
0.874993 0.784053 0.288015
0.922532 0.786684 0.290500
0.970072 0.789315 0.292985
0.218489 0.799945 0.261587
0.266028 0.802576 0.264072
0.313567 0.805207 0.266557
0.361107 0.807838 0.269042
0.408646 0.810469 0.271526
0.456186 0.813100 0.274011
0.503725 0.815731 0.276496
0.551264 0.818362 0.278981
0.598804 0.820993 0.281465
0.646343 0.823624 0.283950
0.693882 0.826255 0.286435
0.741422 0.828886 0.288920
0.788961 0.831516 0.291404
0.836501 0.834147 0.293889
0.884040 0.836778 0.296374
0.931579 0.839409 0.298859
0.979119 0.842040 0.301343
0.227536 0.852671 0.269946
0.275075 0.855302 0.272431
0.322615 0.857933 0.274916
0.370154 0.860564 0.277400
0.417693 0.863195 0.279885
0.465233 0.865826 0.282370
0.512772 0.868456 0.284855
0.560312 0.871087 0.287340
0.607851 0.873718 0.289824
0.655390 0.876349 0.292309
0.702930 0.878980 0.294794
0.750469 0.881611 0.297279
0.798009 0.884242 0.299763
0.845548 0.886873 0.302248
0.893087 0.889504 0.304733
0.940627 0.892135 0.307218
0.988166 0.894766 0.309702
0.236583 0.905397 0.278305
0.284123 0.908027 0.280790
0.331662 0.910658 0.283275
0.379201 0.913289 0.285759
0.426741 0.915920 0.288244
0.474280 0.918551 0.290729
0.521819 0.921182 0.293214
0.569359 0.923813 0.295698
0.616898 0.926444 0.298183
0.664438 0.929075 0.300668
0.711977 0.931706 0.303153
0.759516 0.934337 0.305637
0.807056 0.936968 0.308122
0.854595 0.939599 0.310607
0.902135 0.942230 0.313092
0.949674 0.944860 0.315577
0.997213 0.947491 0.318061
0.092740 0.062680 0.186844
0.140279 0.065311 0.189329
0.187819 0.067942 0.191814
0.235358 0.070573 0.194298
0.282898 0.073204 0.196783
0.330437 0.075835 0.199268
0.377976 0.078466 0.201753
0.425516 0.081097 0.204237
0.473055 0.083728 0.206722
0.520594 0.086359 0.209207
0.568134 0.088990 0.211692
0.615673 0.091621 0.214176
0.663213 0.094252 0.216661
0.710752 0.096882 0.219146
0.758291 0.099513 0.221631
0.805831 0.102144 0.224115
0.853370 0.104775 0.226600
0.101787 0.115406 0.195203
0.149327 0.118037 0.197688
0.196866 0.120668 0.200172
